;FLAVOR:Marlin
;TIME:21112
;Filament used: 17.7077m
;Layer height: 0.2
;MINX:14.335
;MINY:43.536
;MINZ:0.24
;MAXX:205.646
;MAXY:176.446
;MAXZ:21.09
;Generated with Cura_SteamEngine 5.4.0
M82 ;absolute extrusion mode
; Ender 3 Custom Start G-code
G92 E0 ; Reset Extruder
G28 ; Home all axes
M104 S175 ; Start heating up the nozzle most of the way
M190 S60 ; Start heating the bed, wait until target temperature reached
M109 S200 ; Finish heating the nozzle
G1 Z2.0 F3000 ; Move Z Axis up little to prevent scratching of Heat Bed
G1 X0.1 Y20 Z0.3 F5000.0 ; Move to start position
G1 X0.1 Y200.0 Z0.3 F1500.0 E15 ; Draw the first line
G1 X0.4 Y200.0 Z0.3 F5000.0 ; Move to side a little
G1 X0.4 Y20 Z0.3 F1500.0 E30 ; Draw the second line
G92 E0 ; Reset Extruder
G1 Z2.0 F3000 ; Move Z Axis up little to prevent scratching of Heat Bed
G1 X5 Y20 Z0.3 F5000.0 ; Move over to prevent blob squish
G92 E0
G92 E0
G1 F1500 E-6.5
;LAYER_COUNT:100
;LAYER:-6
M107
G0 F9000 X59.177 Y49.405 Z0.24
;TYPE:SUPPORT-INTERFACE
G1 F1500 E0
G1 F1125 X59.799 Y48.759 E0.07158
G1 X60.594 Y48.038 E0.15726
G1 X61.434 Y47.383 E0.24228
G1 X62.325 Y46.783 E0.32803
G1 X63.392 Y46.184 E0.42571
G1 X64.211 Y45.799 E0.49795
G1 X65.204 Y45.415 E0.58293
G1 X66.21 Y45.105 E0.66696
G1 X67.28 Y44.859 E0.7546
G1 X68.304 Y44.703 E0.83728
G1 X69.56 Y44.608 E0.93783
G1 X69.962 Y44.601 E0.96992
G1 X155.007 Y44.601 E7.75858
G1 X156.145 Y44.649 E7.8495
G1 X157.208 Y44.771 E7.93491
G1 X158.236 Y44.968 E8.01847
G1 X159.304 Y45.254 E8.10672
G1 X160.303 Y45.602 E8.19117
G1 X161.193 Y45.98 E8.26835
G1 X162.205 Y46.506 E8.3594
G1 X162.971 Y46.972 E8.43097
G1 X163.916 Y47.64 E8.52335
G1 X164.795 Y48.377 E8.61491
G1 X165.441 Y48.999 E8.68649
G1 X166.154 Y49.784 E8.77115
G1 X166.817 Y50.634 E8.8572
G1 X167.42 Y51.531 E8.94347
G1 X168.016 Y52.592 E9.04061
G1 X168.398 Y53.404 E9.11225
G1 X168.781 Y54.392 E9.19683
G1 X169.121 Y55.497 E9.28912
G1 X169.367 Y56.615 E9.3805
G1 X169.515 Y57.676 E9.46601
G1 X169.592 Y58.748 E9.5518
G1 X169.599 Y59.149 E9.58382
G1 X169.6 Y86.986 E11.80589
G1 X169.563 Y87.985 E11.88569
G1 X169.429 Y89.21 E11.98405
G1 X169.232 Y90.236 E12.06745
G1 X168.95 Y91.294 E12.15485
G1 X168.636 Y92.214 E12.23245
G1 X168.205 Y93.219 E12.31974
G1 X167.957 Y93.85 E12.37386
G1 X167.787 Y94.523 E12.42927
G1 X167.705 Y95.195 E12.48331
G1 X167.709 Y95.852 E12.53575
G1 X167.798 Y96.549 E12.59184
G1 X167.976 Y97.224 E12.64757
G1 X168.195 Y97.77 E12.69453
G1 X168.389 Y98.182 E12.73088
G1 X168.781 Y99.192 E12.81736
G1 X169.121 Y100.297 E12.90965
G1 X169.367 Y101.415 E13.00102
G1 X169.515 Y102.476 E13.08654
G1 X169.592 Y103.548 E13.17233
G1 X169.599 Y103.949 E13.20434
G1 X169.6 Y120.81 E14.55026
G1 X169.643 Y121.487 E14.60441
G1 X169.769 Y122.143 E14.65773
G1 X169.977 Y122.782 E14.71138
G1 X170.27 Y123.407 E14.76648
G1 X170.642 Y123.99 E14.82168
G1 X171.07 Y124.504 E14.87507
G1 X171.598 Y124.995 E14.93263
G1 X172.125 Y125.372 E14.98435
G1 X172.735 Y125.702 E15.03971
G1 X173.39 Y125.956 E15.09579
G1 X174.045 Y126.115 E15.14959
G1 X174.969 Y126.199 E15.22366
G1 X190.007 Y126.201 E16.42405
G1 X191.145 Y126.249 E16.51498
G1 X192.208 Y126.371 E16.60039
G1 X193.236 Y126.568 E16.68394
G1 X194.304 Y126.854 E16.77219
G1 X195.303 Y127.202 E16.85664
G1 X196.193 Y127.58 E16.93382
G1 X197.205 Y128.106 E17.02487
G1 X197.971 Y128.572 E17.09644
G1 X198.916 Y129.24 E17.18882
G1 X199.795 Y129.977 E17.28038
G1 X200.441 Y130.599 E17.35197
G1 X201.154 Y131.384 E17.43662
G1 X201.817 Y132.234 E17.52267
G1 X202.42 Y133.131 E17.60894
G1 X203.016 Y134.192 E17.70609
G1 X203.398 Y135.004 E17.77772
G1 X203.781 Y135.992 E17.8623
G1 X204.121 Y137.097 E17.95459
G1 X204.367 Y138.215 E18.04597
G1 X204.515 Y139.276 E18.13148
G1 X204.592 Y140.348 E18.21727
G1 X204.599 Y140.749 E18.24929
G1 X204.6 Y160.786 E19.84873
G1 X204.563 Y161.785 E19.92853
G1 X204.429 Y163.01 E20.0269
G1 X204.232 Y164.036 E20.11029
G1 X203.949 Y165.094 E20.19771
G1 X203.641 Y166.001 E20.27418
G1 X203.223 Y166.988 E20.35974
G1 X202.694 Y168.005 E20.45124
G1 X202.228 Y168.771 E20.52281
G1 X201.56 Y169.716 E20.61519
G1 X200.823 Y170.595 E20.70676
G1 X200.201 Y171.241 E20.77834
G1 X199.406 Y171.962 E20.86401
G1 X198.566 Y172.617 E20.94904
G1 X197.675 Y173.217 E21.03479
G1 X196.608 Y173.816 E21.13246
G1 X195.791 Y174.2 E21.20452
G1 X194.796 Y174.585 E21.28969
G1 X193.79 Y174.895 E21.37372
G1 X192.72 Y175.141 E21.46136
G1 X191.696 Y175.297 E21.54404
G1 X190.44 Y175.392 E21.64459
G1 X189.936 Y175.4 E21.68482
G1 X29.993 Y175.399 E34.45217
G1 X28.855 Y175.351 E34.54309
G1 X27.791 Y175.229 E34.62858
G1 X26.764 Y175.032 E34.71205
G1 X25.696 Y174.746 E34.80031
G1 X24.688 Y174.394 E34.88553
G1 X23.901 Y174.06 E34.95378
G1 X22.93 Y173.569 E35.04063
G1 X22.028 Y173.027 E35.12463
G1 X21.08 Y172.358 E35.21725
G1 X20.202 Y171.619 E35.30886
G1 X19.549 Y170.991 E35.38118
G1 X18.838 Y170.206 E35.46572
G1 X18.183 Y169.366 E35.55075
G1 X17.579 Y168.469 E35.63707
G1 X16.982 Y167.403 E35.7346
G1 X16.59 Y166.566 E35.80838
G1 X16.215 Y165.596 E35.89139
G1 X15.879 Y164.504 E35.9826
G1 X15.631 Y163.371 E36.07518
G1 X15.501 Y162.485 E36.14666
G1 X15.408 Y161.24 E36.24632
G1 X15.4 Y160.742 E36.28607
G1 X15.4 Y140.814 E37.87681
G1 X15.437 Y139.815 E37.95661
G1 X15.571 Y138.59 E38.05498
G1 X15.768 Y137.564 E38.13838
G1 X16.05 Y136.507 E38.2257
G1 X16.402 Y135.496 E38.31116
G1 X16.777 Y134.612 E38.38781
G1 X17.306 Y133.595 E38.47931
G1 X17.772 Y132.829 E38.55089
G1 X18.44 Y131.884 E38.64326
G1 X19.177 Y131.005 E38.73483
G1 X19.799 Y130.359 E38.80641
G1 X20.594 Y129.638 E38.89208
G1 X21.434 Y128.983 E38.97711
G1 X22.325 Y128.383 E39.06286
G1 X23.392 Y127.784 E39.16054
G1 X24.211 Y127.399 E39.23277
G1 X25.204 Y127.015 E39.31776
G1 X26.21 Y126.705 E39.40179
G1 X27.28 Y126.459 E39.48943
G1 X28.304 Y126.303 E39.57211
G1 X29.56 Y126.208 E39.67266
G1 X29.961 Y126.201 E39.70467
G1 X50.005 Y126.2 E41.30467
G1 X50.693 Y126.156 E41.3597
G1 X51.348 Y126.03 E41.41295
G1 X52.006 Y125.814 E41.46823
G1 X52.593 Y125.537 E41.52004
G1 X53.194 Y125.155 E41.57689
G1 X53.719 Y124.716 E41.63151
G1 X54.19 Y124.208 E41.68681
G1 X54.582 Y123.66 E41.7406
G1 X54.902 Y123.065 E41.79452
G1 X55.149 Y122.432 E41.84876
G1 X55.314 Y121.764 E41.90369
G1 X55.399 Y120.827 E41.97879
G1 X55.401 Y59.214 E46.89701
G1 X55.437 Y58.215 E46.9768
G1 X55.571 Y56.99 E47.07517
G1 X55.768 Y55.964 E47.15857
G1 X56.05 Y54.907 E47.24589
G1 X56.402 Y53.896 E47.33135
G1 X56.777 Y53.012 E47.408
G1 X57.306 Y51.995 E47.49951
G1 X57.772 Y51.229 E47.57108
G1 X58.44 Y50.284 E47.66345
G1 X59.177 Y49.405 E47.75502
G0 F9000 X59.131 Y50.08
G1 F1125 X184.049 Y174.999 E61.8569
G1 F1500 E55.3569
G0 F9000 X181.787 Y174.999
G1 F1500 E61.8569
G1 F1125 X58.16 Y51.372 E75.81298
G1 F1500 E69.31298
G0 F9000 X57.332 Y52.807
G1 F1500 E75.81298
G1 F1125 X179.524 Y174.999 E89.60707
G1 F1500 E83.10707
G0 F9000 X177.261 Y174.999
G1 F1500 E89.60707
G1 F1125 X56.652 Y54.389 E103.22252
G1 F1500 E96.72252
G0 F9000 X56.14 Y56.14
G1 F1500 E103.22252
G1 F1125 X174.999 Y174.999 E116.64035
G1 F1500 E110.14035
G0 F9000 X172.736 Y174.999
G1 F1500 E116.64035
G1 F1125 X55.85 Y58.112 E129.83551
G1 F1500 E123.33551
G0 F9000 X55.799 Y60.325
G1 F1500 E129.83551
G1 F1125 X170.473 Y174.999 E142.7809
G1 F1500 E136.2809
G0 F9000 X168.21 Y174.999
G1 F1500 E142.7809
G1 F1125 X55.799 Y62.588 E155.47082
G1 F1500 E148.97082
G0 F9000 X55.799 Y64.85
G1 F1500 E155.47082
G1 F1125 X165.948 Y174.999 E167.90539
G1 F1500 E161.40539
G0 F9000 X163.685 Y174.999
G1 F1500 E167.90539
G1 F1125 X55.799 Y67.113 E180.0845
G1 F1500 E173.5845
G0 F9000 X55.799 Y69.376
G1 F1500 E180.0845
G1 F1125 X161.422 Y174.999 E192.00813
G1 F1500 E185.50813
G0 F9000 X159.159 Y174.999
G1 F1500 E192.00813
G1 F1125 X55.799 Y71.638 E203.67636
G1 F1500 E197.17636
G0 F9000 X55.799 Y73.901
G1 F1500 E203.67636
G1 F1125 X156.897 Y174.999 E215.08918
G1 F1500 E208.58918
G0 F9000 X154.634 Y174.999
G1 F1500 E215.08918
G1 F1125 X55.799 Y76.163 E226.24658
G1 F1500 E219.74658
G0 F9000 X55.799 Y78.426
G1 F1500 E226.24658
G1 F1125 X152.371 Y174.999 E237.14852
G1 F1500 E230.64852
G0 F9000 X150.108 Y174.999
G1 F1500 E237.14852
G1 F1125 X55.799 Y80.689 E247.79499
G1 F1500 E241.29499
G0 F9000 X55.799 Y82.952
G1 F1500 E247.79499
G1 F1125 X147.846 Y174.999 E258.18605
G1 F1500 E251.68605
G0 F9000 X145.583 Y174.999
G1 F1500 E258.18605
G1 F1125 X55.798 Y85.214 E268.32176
G1 F1500 E261.82176
G0 F9000 X55.798 Y87.476
G1 F1500 E268.32176
G1 F1125 X143.32 Y174.999 E278.20206
G1 F1500 E271.70206
G0 F9000 X141.057 Y174.999
G1 F1500 E278.20206
G1 F1125 X55.798 Y89.739 E287.82688
G1 F1500 E281.32688
G0 F9000 X55.798 Y92.002
G1 F1500 E287.82688
G1 F1125 X138.795 Y174.999 E297.1963
G1 F1500 E290.6963
G0 F9000 X136.532 Y174.999
G1 F1500 E297.1963
G1 F1125 X55.798 Y94.265 E306.31025
G1 F1500 E299.81025
G0 F9000 X55.797 Y96.527
G1 F1500 E306.31025
G1 F1125 X134.269 Y174.999 E315.16885
G1 F1500 E308.66885
G0 F9000 X132.006 Y174.999
G1 F1500 E315.16885
G1 F1125 X55.797 Y98.789 E323.77204
G1 F1500 E317.27204
G0 F9000 X55.797 Y101.052
G1 F1500 E323.77204
G1 F1125 X129.744 Y174.999 E332.11982
G1 F1500 E325.61982
G0 F9000 X127.481 Y174.999
G1 F1500 E332.11982
G1 F1125 X55.797 Y103.315 E340.21213
G1 F1500 E333.71213
G0 F9000 X55.797 Y105.578
G1 F1500 E340.21213
G1 F1125 X125.218 Y174.999 E348.04897
G1 F1500 E341.54897
G0 F9000 X122.955 Y174.999
G1 F1500 E348.04897
G1 F1125 X55.797 Y107.84 E355.6304
G1 F1500 E349.1304
G0 F9000 X55.797 Y110.102
G1 F1500 E355.6304
G1 F1125 X120.693 Y174.999 E362.95648
G1 F1500 E356.45648
G0 F9000 X118.43 Y174.999
G1 F1500 E362.95648
G1 F1125 X55.797 Y112.365 E370.02709
G1 F1500 E363.52709
G0 F9000 X55.797 Y114.628
G1 F1500 E370.02709
G1 F1125 X116.167 Y174.999 E376.84223
G1 F1500 E370.34223
G0 F9000 X113.905 Y174.999
G1 F1500 E376.84223
G1 F1125 X55.797 Y116.891 E383.40196
G1 F1500 E376.90196
G0 F9000 X55.797 Y119.153
G1 F1500 E383.40196
G1 F1125 X111.642 Y174.999 E389.70629
G1 F1500 E383.20629
G0 F9000 X109.378 Y174.998
G1 F1500 E389.70629
G1 F1125 X55.749 Y121.369 E395.76039
G1 F1500 E389.26039
G0 F9000 X55.288 Y123.17
G1 F1500 E395.76039
G1 F1125 X107.116 Y174.998 E401.61118
G1 F1500 E395.11118
G0 F9000 X104.853 Y174.998
G1 F1500 E401.61118
G1 F1125 X54.41 Y124.555 E407.30563
G1 F1500 E400.80563
G0 F9000 X53.209 Y125.617
G1 F1500 E407.30563
G1 F1125 X102.59 Y174.998 E412.88018
G1 F1500 E406.38018
G0 F9000 X100.327 Y174.998
G1 F1500 E412.88018
G1 F1125 X51.671 Y126.341 E418.37295
G1 F1500 E411.87295
G0 F9000 X49.666 Y126.599
G1 F1500 E418.37295
G1 F1125 X98.065 Y174.998 E423.83664
G1 F1500 E417.33664
G0 F9000 X95.802 Y174.998
G1 F1500 E423.83664
G1 F1125 X47.403 Y126.599 E429.30034
G1 F1500 E422.80034
G0 F9000 X45.14 Y126.599
G1 F1500 E429.30034
G1 F1125 X93.539 Y174.998 E434.76404
G1 F1500 E428.26404
G0 F9000 X91.276 Y174.998
G1 F1500 E434.76404
G1 F1125 X42.878 Y126.599 E440.22768
G1 F1500 E433.72768
G0 F9000 X40.615 Y126.599
G1 F1500 E440.22768
G1 F1125 X89.014 Y174.998 E445.69138
G1 F1500 E439.19138
G0 F9000 X86.751 Y174.998
G1 F1500 E445.69138
G1 F1125 X38.353 Y126.6 E451.15496
G1 F1500 E444.65496
G0 F9000 X36.09 Y126.6
G1 F1500 E451.15496
G1 F1125 X84.488 Y174.998 E456.61855
G1 F1500 E450.11855
G0 F9000 X82.225 Y174.998
G1 F1500 E456.61855
G1 F1125 X33.827 Y126.6 E462.08213
G1 F1500 E455.58213
G0 F9000 X31.565 Y126.6
G1 F1500 E462.08213
G1 F1125 X79.963 Y174.998 E467.54572
G1 F1500 E461.04572
G0 F9000 X77.7 Y174.998
G1 F1500 E467.54572
G1 F1125 X29.328 Y126.626 E473.00636
G1 F1500 E466.50636
G0 F9000 X27.302 Y126.863
G1 F1500 E473.00636
G1 F1125 X75.437 Y174.998 E478.44026
G1 F1500 E471.94026
G0 F9000 X73.174 Y174.998
G1 F1500 E478.44026
G1 F1125 X25.514 Y127.337 E483.82059
G1 F1500 E477.32059
G0 F9000 X23.9 Y127.987
G1 F1500 E483.82059
G1 F1125 X70.912 Y174.998 E489.12765
G1 F1500 E482.62765
G0 F9000 X68.649 Y174.998
G1 F1500 E489.12765
G1 F1125 X22.439 Y128.788 E494.34424
G1 F1500 E487.84424
G0 F9000 X21.121 Y129.733
G1 F1500 E494.34424
G1 F1125 X66.386 Y174.998 E499.45414
G1 F1500 E492.95414
G0 F9000 X64.123 Y174.998
G1 F1500 E499.45414
G1 F1125 X19.926 Y130.801 E504.44348
G1 F1500 E497.94348
G0 F9000 X18.862 Y131.999
G1 F1500 E504.44348
G1 F1125 X61.861 Y174.998 E509.29758
G1 F1500 E502.79758
G0 F9000 X59.598 Y174.998
G1 F1500 E509.29758
G1 F1125 X17.932 Y133.332 E514.0012
G1 F1500 E507.5012
G0 F9000 X17.133 Y134.795
G1 F1500 E514.0012
G1 F1125 X57.335 Y174.998 E518.5396
G1 F1500 E512.0396
G0 F9000 X55.073 Y174.998
G1 F1500 E518.5396
G1 F1125 X16.501 Y136.426 E522.89394
G1 F1500 E516.39394
G0 F9000 X16.046 Y138.234
G1 F1500 E522.89394
G1 F1125 X52.81 Y174.998 E527.04418
G1 F1500 E520.54418
G0 F9000 X50.547 Y174.998
G1 F1500 E527.04418
G1 F1125 X15.82 Y140.27 E530.96452
G1 F1500 E524.46452
G0 F9000 X15.799 Y142.513
G1 F1500 E530.96452
G1 F1125 X48.284 Y174.998 E534.63171
G1 F1500 E528.13171
G0 F9000 X46.022 Y174.998
G1 F1500 E534.63171
G1 F1125 X15.799 Y144.775 E538.04354
G1 F1500 E531.54354
G0 F9000 X15.799 Y147.038
G1 F1500 E538.04354
G1 F1125 X43.759 Y174.998 E541.19991
G1 F1500 E534.69991
G0 F9000 X41.496 Y174.998
G1 F1500 E541.19991
G1 F1125 X15.799 Y149.301 E544.10081
G1 F1500 E537.60081
G0 F9000 X15.799 Y151.564
G1 F1500 E544.10081
G1 F1125 X39.233 Y174.998 E546.74624
G1 F1500 E540.24624
G0 F9000 X36.971 Y174.998
G1 F1500 E546.74624
G1 F1125 X15.799 Y153.826 E549.13632
G1 F1500 E542.63632
G0 F9000 X15.799 Y156.089
G1 F1500 E549.13632
G1 F1125 X34.708 Y174.998 E551.27093
G1 F1500 E544.77093
G0 F9000 X32.445 Y174.998
G1 F1500 E551.27093
G1 F1125 X15.799 Y158.352 E553.15008
G1 F1500 E546.65008
G0 F9000 X15.799 Y160.615
G1 F1500 E553.15008
G1 F1125 X30.182 Y174.998 E554.77375
G1 F1500 E548.27375
G0 F9000 X27.73 Y174.808
G1 F1500 E554.77375
G1 F1125 X15.991 Y163.069 E556.09895
G1 F1500 E549.59895
G0 F9000 X16.889 Y166.23
G1 F1500 E556.09895
G1 F1125 X24.566 Y173.907 E556.9656
G1 F1500 E550.4656
G0 F9000 X23.994 Y175.257
G0 X22.257 Y174.413
G0 X20.519 Y173.266
G0 X19.486 Y172.408
G0 X18.032 Y170.903
G0 X17.201 Y169.823
G0 X16.122 Y168.057
G0 X15.55 Y166.838
G0 X14.879 Y164.873
G0 X14.583 Y163.558
G0 X14.354 Y161.487
G0 X14.374 Y139.743
G0 X14.521 Y138.417
G0 X14.973 Y136.39
G0 X15.413 Y135.1
G0 X16.295 Y133.22
G0 X56.387 Y51.457
G0 X57.534 Y49.719
G0 X57.776 Y49.427
G0 X59.055 Y47.997
G0 X60.225 Y48.911
G1 F1500 E556.9656
G1 F1125 X186.312 Y174.999 E571.19945
G1 F1500 E564.69945
G0 F9000 X188.575 Y174.999
G1 F1500 E571.19945
G1 F1125 X61.452 Y47.876 E585.55019
G1 F1500 E579.05019
G0 F9000 X62.809 Y46.97
G1 F1500 E585.55019
G1 F1125 X190.802 Y174.962 E599.99909
G1 F1500 E593.49909
G0 F9000 X192.811 Y174.709
G1 F1500 E599.99909
G1 F1125 X64.3 Y46.198 E614.50652
G1 F1500 E608.00652
G0 F9000 X65.964 Y45.599
G1 F1500 E614.50652
G1 F1125 X194.592 Y174.228 E629.02722
G1 F1500 E622.52722
G0 F9000 X196.195 Y173.567
G1 F1500 E629.02722
G1 F1125 X67.81 Y45.183 E643.52037
G1 F1500 E637.02037
G0 F9000 X69.892 Y45.002
G1 F1500 E643.52037
G1 F1125 X197.644 Y172.753 E657.94206
G1 F1500 E651.44206
G0 F9000 X198.957 Y171.804
G1 F1500 E657.94206
G1 F1125 X72.153 Y45 E672.25679
G1 F1500 E665.75679
G0 F9000 X74.416 Y45
G1 F1500 E672.25679
G1 F1125 X200.14 Y170.725 E686.44966
G1 F1500 E679.94966
G0 F9000 X201.2 Y169.522
G1 F1500 E686.44966
G1 F1125 X76.679 Y45 E700.50672
G1 F1500 E694.00672
G0 F9000 X78.942 Y45
G1 F1500 E700.50672
G1 F1125 X202.119 Y168.178 E714.41206
G1 F1500 E707.91206
G0 F9000 X202.907 Y166.703
G1 F1500 E714.41206
G1 F1125 X81.204 Y45 E728.15095
G1 F1500 E721.65095
G0 F9000 X83.467 Y45
G1 F1500 E728.15095
G1 F1125 X203.534 Y165.067 E741.70515
G1 F1500 E735.20515
G0 F9000 X203.976 Y163.246
G1 F1500 E741.70515
G1 F1125 X85.73 Y45 E755.05378
G1 F1500 E748.55378
G0 F9000 X87.993 Y45
G1 F1500 E755.05378
G1 F1125 X204.184 Y161.192 E768.17048
G1 F1500 E761.67048
G0 F9000 X204.199 Y158.944
G1 F1500 E768.17048
G1 F1125 X90.255 Y45 E781.03347
G1 F1500 E774.53347
G0 F9000 X92.518 Y45
G1 F1500 E781.03347
G1 F1125 X169.29 Y121.772 E789.70015
G1 F1500 E783.20015
G0 F9000 X169.199 Y119.419
G1 F1500 E789.70015
G1 F1125 X94.781 Y45 E798.10116
G1 F1500 E791.60116
G0 F9000 X97.044 Y45
G1 F1500 E798.10116
