;FLAVOR:Marlin
;TIME:11248
;Filament used: 8.70869m
;Layer height: 0.2
;MINX:49.594
;MINY:49.594
;MINZ:0.24
;MAXX:169.342
;MAXY:170.399
;MAXZ:6.09
;Generated with Cura_SteamEngine 5.4.0
M82 ;absolute extrusion mode
; Ender 3 Custom Start G-code
G92 E0 ; Reset Extruder
G28 ; Home all axes
M104 S175 ; Start heating up the nozzle most of the way
M190 S60 ; Start heating the bed, wait until target temperature reached
M109 S200 ; Finish heating the nozzle
G1 Z2.0 F3000 ; Move Z Axis up little to prevent scratching of Heat Bed
G1 X0.1 Y20 Z0.3 F5000.0 ; Move to start position
G1 X0.1 Y200.0 Z0.3 F1500.0 E15 ; Draw the first line
G1 X0.4 Y200.0 Z0.3 F5000.0 ; Move to side a little
G1 X0.4 Y20 Z0.3 F1500.0 E30 ; Draw the second line
G92 E0 ; Reset Extruder
G1 Z2.0 F3000 ; Move Z Axis up little to prevent scratching of Heat Bed
G1 X5 Y20 Z0.3 F5000.0 ; Move over to prevent blob squish
G92 E0
G92 E0
G1 F1500 E-6.5
;LAYER_COUNT:25
;LAYER:-6
M107
G0 F9000 X55.913 Y56.305 Z0.24
;TYPE:SUPPORT-INTERFACE
G1 F1500 E0
G1 F1125 X56.653 Y55.588 E0.08225
G1 X57.166 Y55.144 E0.13641
G1 X57.774 Y54.645 E0.19919
G1 X58.617 Y54.003 E0.28378
G1 X59.574 Y53.385 E0.37471
G1 X60.168 Y53.048 E0.42923
G1 X60.715 Y52.752 E0.47888
G1 X61.817 Y52.212 E0.57683
G1 X62.749 Y51.84 E0.65694
G1 X63.344 Y51.637 E0.70712
G1 X64.168 Y51.385 E0.7759
G1 X65.345 Y51.077 E0.87302
G1 X66.238 Y50.91 E0.94554
G1 X67.092 Y50.801 E1.01426
G1 X67.899 Y50.723 E1.07898
G1 X69.35 Y50.658 E1.19492
G1 X141.337 Y50.662 E6.94124
G1 X142.724 Y50.728 E7.05208
G1 X143.34 Y50.786 E7.10147
G1 X144.535 Y50.948 E7.19773
G1 X145.525 Y51.159 E7.27853
G1 X146.457 Y51.418 E7.35575
G1 X147.055 Y51.602 E7.40569
G1 X148.107 Y51.97 E7.49465
G1 X148.984 Y52.34 E7.57064
G1 X149.748 Y52.728 E7.63904
G1 X150.318 Y53.032 E7.6906
G1 X151.338 Y53.63 E7.78498
G1 X152.215 Y54.234 E7.86999
G1 X152.768 Y54.667 E7.92605
G1 X153.319 Y55.119 E7.98294
G1 X154.21 Y55.914 E8.07826
G1 X154.837 Y56.558 E8.15001
G1 X155.418 Y57.226 E8.22068
G1 X155.837 Y57.735 E8.2733
G1 X156.523 Y58.635 E8.36363
G1 X157.148 Y59.606 E8.45581
G1 X157.495 Y60.219 E8.51204
G1 X157.866 Y60.913 E8.57486
G1 X158.329 Y61.884 E8.66073
G1 X158.664 Y62.719 E8.73255
G1 X158.928 Y63.504 E8.79866
G1 X159.161 Y64.281 E8.86341
G1 X159.442 Y65.37 E8.95318
G1 X159.606 Y66.248 E9.02448
G1 X159.709 Y67.043 E9.08847
G1 X159.791 Y67.899 E9.15712
G1 X159.857 Y69.343 E9.2725
G1 X159.861 Y107.817 E12.34366
G1 X159.894 Y108.773 E12.42002
G1 X159.919 Y109.122 E12.44795
G1 X159.979 Y109.704 E12.49465
G1 X160.032 Y110.076 E12.52465
G1 X160.139 Y110.678 E12.57346
G1 X160.212 Y111.026 E12.60184
G1 X160.367 Y111.641 E12.65247
G1 X160.461 Y111.971 E12.67986
G1 X160.65 Y112.556 E12.72893
G1 X160.776 Y112.9 E12.75817
G1 X161.003 Y113.461 E12.80648
G1 X161.151 Y113.791 E12.83535
G1 X161.427 Y114.354 E12.8854
G1 X161.604 Y114.685 E12.91537
G1 X161.908 Y115.207 E12.96359
G1 X162.11 Y115.529 E12.99393
G1 X162.433 Y116.005 E13.03985
G1 X162.648 Y116.297 E13.06879
G1 X163.039 Y116.796 E13.1194
G1 X163.281 Y117.085 E13.14948
G1 X164.156 Y118.048 E13.25335
G1 X164.624 Y118.591 E13.31057
G1 X165.163 Y119.247 E13.37834
G1 X165.837 Y120.136 E13.4674
G1 X166.651 Y121.435 E13.58977
G1 X167.048 Y122.143 E13.65456
G1 X167.523 Y123.063 E13.73721
G1 X168.104 Y124.485 E13.85983
G1 X168.439 Y125.463 E13.94235
G1 X168.684 Y126.241 E14.00746
G1 X168.986 Y127.623 E14.12038
G1 X169.171 Y128.761 E14.21241
G1 X169.277 Y129.554 E14.27628
G1 X169.342 Y131.111 E14.40067
G1 X169.335 Y131.933 E14.46629
G1 X169.289 Y132.992 E14.5509
G1 X169.095 Y134.459 E14.66902
G1 X168.945 Y135.277 E14.73541
G1 X168.744 Y136.198 E14.81066
G1 X168.625 Y136.625 E14.84604
G1 X168.489 Y137.182 E14.89181
G1 X168.407 Y137.994 E14.95696
G1 X168.364 Y138.857 E15.02593
G1 X168.3 Y139.526 E15.07958
G1 X168.15 Y140.633 E15.16875
G1 X167.991 Y141.433 E15.23386
G1 X167.664 Y142.617 E15.33191
G1 X167.167 Y143.934 E15.44427
G1 X167.017 Y144.281 E15.47445
G1 X166.483 Y145.379 E15.57191
G1 X165.947 Y146.299 E15.65691
G1 X165.51 Y146.95 E15.71949
G1 X165.215 Y147.359 E15.75975
G1 X164.615 Y148.128 E15.83761
G1 X163.837 Y148.989 E15.93024
G1 X162.929 Y149.843 E16.02974
G1 X162.481 Y150.225 E16.07674
G1 X161.628 Y150.893 E16.16322
G1 X160.797 Y151.455 E16.2433
G1 X159.543 Y152.256 E16.36208
G1 X159.302 Y152.397 E16.38437
G1 X158.685 Y152.726 E16.44018
G1 X157.555 Y153.257 E16.53985
G1 X156.958 Y153.468 E16.59039
G1 X156.346 Y153.73 E16.64353
G1 X155.767 Y154.069 E16.69709
G1 X155.229 Y154.481 E16.75118
G1 X154.741 Y154.964 E16.80599
G1 X154.32 Y155.5 E16.86039
G1 X153.96 Y156.105 E16.91659
G1 X153.679 Y156.769 E16.97415
G1 X153.195 Y158.02 E17.08122
G1 X152.771 Y158.916 E17.16035
G1 X152.026 Y160.191 E17.27822
G1 X151.811 Y160.519 E17.30953
G1 X151.273 Y161.286 E17.38431
G1 X150.485 Y162.248 E17.48358
G1 X150.11 Y162.658 E17.52793
G1 X149.298 Y163.482 E17.62028
G1 X148.476 Y164.258 E17.71051
G1 X147.266 Y165.209 E17.83336
G1 X146.94 Y165.438 E17.86516
G1 X146.005 Y166.041 E17.95397
G1 X145.105 Y166.541 E18.03616
G1 X144.458 Y166.844 E18.09319
G1 X143.407 Y167.29 E18.18432
G1 X142.448 Y167.61 E18.26502
G1 X141.549 Y167.853 E18.33936
G1 X140.521 Y168.074 E18.4233
G1 X139.18 Y168.251 E18.53127
G1 X138.917 Y168.276 E18.55236
G1 X138.21 Y168.312 E18.60887
G1 X137.511 Y168.394 E18.66505
G1 X136.585 Y168.638 E18.74149
G1 X135.175 Y168.965 E18.85703
G1 X134.257 Y169.125 E18.93141
G1 X133.37 Y169.252 E19.00294
G1 X131.932 Y169.335 E19.11791
G1 X131.005 Y169.341 E19.19191
G1 X129.973 Y169.309 E19.27433
G1 X128.326 Y169.107 E19.40679
G1 X127.718 Y169.005 E19.456
G1 X126.623 Y168.781 E19.54522
G1 X125.28 Y168.38 E19.6571
G1 X124.507 Y168.117 E19.72227
G1 X123.511 Y167.723 E19.80777
G1 X122.038 Y166.991 E19.93907
G1 X121.329 Y166.591 E20.00406
G1 X120.455 Y166.056 E20.08585
G1 X119.235 Y165.152 E20.20706
G1 X118.669 Y164.69 E20.26538
G1 X118.064 Y164.17 E20.32906
G1 X117.073 Y163.272 E20.43582
G1 X116.798 Y163.04 E20.46454
G1 X116.329 Y162.67 E20.51222
G1 X116.02 Y162.443 E20.54283
G1 X115.537 Y162.115 E20.58943
G1 X115.218 Y161.914 E20.61953
G1 X114.69 Y161.607 E20.66828
G1 X114.361 Y161.43 E20.69811
G1 X113.813 Y161.161 E20.74684
G1 X113.476 Y161.009 E20.77635
G1 X112.912 Y160.781 E20.82491
G1 X112.581 Y160.659 E20.85307
G1 X112.001 Y160.469 E20.90178
G1 X111.668 Y160.374 E20.92943
G1 X111.053 Y160.219 E20.98005
G1 X110.692 Y160.141 E21.00954
G1 X110.101 Y160.036 E21.05745
G1 X109.72 Y159.981 E21.08818
G1 X109.164 Y159.923 E21.1328
G1 X108.787 Y159.895 E21.16298
G1 X107.618 Y159.857 E21.25634
G1 X69.176 Y159.852 E24.32495
G1 X67.788 Y159.786 E24.43587
G1 X67.173 Y159.728 E24.48518
G1 X65.979 Y159.565 E24.58137
G1 X64.88 Y159.329 E24.6711
G1 X64.234 Y159.149 E24.72463
G1 X63.529 Y158.936 E24.78342
G1 X62.405 Y158.543 E24.87847
G1 X61.674 Y158.234 E24.94182
G1 X60.886 Y157.849 E25.01183
G1 X60.129 Y157.444 E25.08036
G1 X59.234 Y156.922 E25.16307
G1 X58.311 Y156.289 E25.25241
G1 X57.742 Y155.843 E25.31012
G1 X57.144 Y155.35 E25.37198
G1 X56.308 Y154.602 E25.46153
G1 X55.67 Y153.952 E25.53423
G1 X54.788 Y152.923 E25.64241
G1 X54.006 Y151.903 E25.74501
G1 X53.379 Y150.931 E25.83734
G1 X53.044 Y150.341 E25.8915
G1 X52.753 Y149.801 E25.94047
G1 X52.177 Y148.609 E26.04614
G1 X51.838 Y147.762 E26.11897
G1 X51.58 Y146.986 E26.18425
G1 X51.379 Y146.325 E26.23939
G1 X51.077 Y145.17 E26.33469
G1 X50.912 Y144.288 E26.40632
G1 X50.804 Y143.46 E26.47297
G1 X50.728 Y142.712 E26.53299
G1 X50.657 Y141.209 E26.6531
G1 X50.658 Y69.337 E32.39023
G1 X50.729 Y67.787 E32.51409
G1 X50.789 Y67.149 E32.56524
G1 X50.949 Y65.978 E32.65958
G1 X51.152 Y65.017 E32.73799
G1 X51.367 Y64.23 E32.80311
G1 X51.642 Y63.345 E32.87709
G1 X51.913 Y62.556 E32.94368
G1 X52.341 Y61.53 E33.03242
G1 X52.682 Y60.855 E33.09279
G1 X53.032 Y60.197 E33.15228
G1 X53.63 Y59.177 E33.24666
G1 X54.233 Y58.3 E33.33162
G1 X54.652 Y57.765 E33.38587
G1 X55.119 Y57.196 E33.44462
G1 X55.913 Y56.305 E33.53989
G0 F9000 X56.395 Y56.395
G1 F1125 X154.569 Y154.569 E44.62262
G1 F1500 E38.12262
G0 F9000 X155.831 Y153.568
G1 F1500 E44.62262
G1 F1125 X57.582 Y55.319 E55.71382
G1 F1500 E49.21382
G0 F9000 X58.852 Y54.327
G1 F1500 E55.71382
G1 F1125 X157.409 Y152.883 E66.83973
G1 F1500 E60.33973
G0 F9000 X158.929 Y152.141
G1 F1500 E66.83973
G1 F1125 X60.249 Y53.461 E77.97958
G1 F1500 E71.47958
G0 F9000 X61.744 Y52.693
G1 F1500 E77.97958
G1 F1125 X160.329 Y151.278 E89.1087
G1 F1500 E82.6087
G0 F9000 X161.666 Y150.352
G1 F1500 E89.1087
G1 F1125 X63.366 Y52.052 E100.20566
G1 F1500 E93.70566
G0 F9000 X65.125 Y51.548
G1 F1500 E100.20566
G1 F1125 X162.898 Y149.321 E111.24312
G1 F1500 E104.74312
G0 F9000 X164.024 Y148.184
G1 F1500 E111.24312
G1 F1125 X67.049 Y51.21 E122.19044
G1 F1500 E115.69044
G0 F9000 X69.169 Y51.067
G1 F1500 E122.19044
G1 F1125 X165.031 Y146.929 E133.01217
G1 F1500 E126.51217
G0 F9000 X165.918 Y145.553
G1 F1500 E133.01217
G1 F1125 X71.423 Y51.058 E143.67958
G1 F1500 E137.17958
G0 F9000 X73.686 Y51.058
G1 F1500 E143.67958
G1 F1125 X166.679 Y144.052 E154.17749
G1 F1500 E147.67749
G0 F9000 X167.304 Y142.414
G1 F1500 E154.17749
G1 F1125 X75.948 Y51.058 E164.49055
G1 F1500 E157.99055
G0 F9000 X78.211 Y51.058
G1 F1500 E164.49055
G1 F1125 X167.749 Y140.596 E174.59837
G1 F1500 E168.09837
G0 F9000 X167.978 Y138.562
G1 F1500 E174.59837
G1 F1125 X80.474 Y51.058 E184.47658
G1 F1500 E177.97658
G0 F9000 X82.737 Y51.059
G1 F1500 E184.47658
G1 F1125 X168.231 Y136.552 E194.12782
G1 F1500 E187.62782
G0 F9000 X168.643 Y134.702
G1 F1500 E194.12782
G1 F1125 X85 Y51.059 E203.57017
G1 F1500 E197.07017
G0 F9000 X87.263 Y51.059
G1 F1500 E203.57017
G1 F1125 X168.901 Y132.697 E212.78617
G1 F1500 E206.28617
G0 F9000 X168.913 Y130.447
G1 F1500 E212.78617
G1 F1125 X89.526 Y51.059 E221.74812
G1 F1500 E215.24812
G0 F9000 X91.788 Y51.059
G1 F1500 E221.74812
G1 F1125 X168.625 Y127.895 E230.42208
G1 F1500 E223.92208
G0 F9000 X167.786 Y124.794
G1 F1500 E230.42208
G1 F1125 X94.052 Y51.06 E238.74582
G1 F1500 E232.24582
G0 F9000 X96.315 Y51.06
G1 F1500 E238.74582
G1 F1125 X165.158 Y119.903 E246.51741
G1 F1500 E240.01741
G0 F9000 X166.075 Y118.685
G0 X161.777 Y112.536
G0 X160.308 Y112.79
G1 F1500 E246.51741
G1 F1125 X98.577 Y51.06 E253.48608
G1 F1500 E246.98608
G0 F9000 X100.84 Y51.06
G1 F1500 E253.48608
G1 F1125 X159.589 Y109.809 E260.11818
G1 F1500 E253.61818
G0 F9000 X159.46 Y107.417
G1 F1500 E260.11818
G1 F1125 X103.103 Y51.06 E266.48024
G1 F1500 E259.98024
G0 F9000 X105.366 Y51.06
G1 F1500 E266.48024
G1 F1125 X159.46 Y105.154 E272.58684
G1 F1500 E266.08684
G0 F9000 X159.46 Y102.891
G1 F1500 E272.58684
G1 F1125 X107.629 Y51.06 E278.43797
G1 F1500 E271.93797
G0 F9000 X109.892 Y51.06
G1 F1500 E278.43797
G1 F1125 X159.459 Y100.628 E284.03358
G1 F1500 E277.53358
G0 F9000 X159.459 Y98.365
G1 F1500 E284.03358
G1 F1125 X112.154 Y51.06 E289.37377
G1 F1500 E282.87377
G0 F9000 X114.417 Y51.06
G1 F1500 E289.37377
G1 F1125 X159.459 Y96.102 E294.45851
G1 F1500 E287.95851
G0 F9000 X159.458 Y93.839
G1 F1500 E294.45851
G1 F1125 X116.68 Y51.06 E299.28771
G1 F1500 E292.78771
G0 F9000 X118.943 Y51.061
G1 F1500 E299.28771
G1 F1125 X159.458 Y91.576 E303.8614
G1 F1500 E297.3614
G0 F9000 X159.458 Y89.313
G1 F1500 E303.8614
G1 F1125 X121.206 Y51.061 E308.17961
G1 F1500 E301.67961
G0 F9000 X123.469 Y51.061
G1 F1500 E308.17961
G1 F1125 X159.458 Y87.05 E312.24236
G1 F1500 E305.74236
G0 F9000 X159.458 Y84.787
G1 F1500 E312.24236
G1 F1125 X125.732 Y51.061 E316.04964
G1 F1500 E309.54964
G0 F9000 X127.994 Y51.061
G1 F1500 E316.04964
G1 F1125 X159.458 Y82.525 E319.60157
G1 F1500 E313.10157
G0 F9000 X159.457 Y80.261
G1 F1500 E319.60157
G1 F1125 X130.258 Y51.062 E322.89781
G1 F1500 E316.39781
G0 F9000 X132.521 Y51.062
G1 F1500 E322.89781
G1 F1125 X159.457 Y77.998 E325.93858
G1 F1500 E319.43858
G0 F9000 X159.456 Y75.735
G1 F1500 E325.93858
G1 F1125 X134.783 Y51.062 E328.72388
G1 F1500 E322.22388
G0 F9000 X137.046 Y51.062
G1 F1500 E328.72388
G1 F1125 X159.456 Y73.472 E331.25371
G1 F1500 E324.75371
G0 F9000 X159.456 Y71.209
G1 F1500 E331.25371
G1 F1125 X139.309 Y51.062 E333.52808
G1 F1500 E327.02808
G0 F9000 X141.584 Y51.075
G1 F1500 E333.52808
G1 F1125 X159.437 Y68.927 E335.54342
G1 F1500 E329.04342
G0 F9000 X159.229 Y66.456
G1 F1500 E335.54342
G1 F1125 X144.06 Y51.287 E337.25583
G1 F1500 E330.75583
G0 F9000 X147.064 Y52.029
G1 F1500 E337.25583
G1 F1125 X158.488 Y63.453 E338.54547
G1 F1500 E332.04547
G0 F9000 X159.72 Y62.51
G0 X159.227 Y61.281
G0 X157.949 Y58.873
G0 X156.25 Y58.952
G1 F1500 E338.54547
G1 F1125 X151.584 Y54.286 E339.07221
G1 F1500 E332.57221
G0 F9000 X151.917 Y52.736
G0 X149.567 Y51.441
G0 X148.329 Y50.914
G0 X145.775 Y50.124
G0 X143.656 Y49.755
G0 X141.199 Y49.594
G0 X69.156 Y49.597
G0 X66.889 Y49.752
G0 X64.939 Y50.077
G0 X62.379 Y50.841
G0 X60.43 Y51.704
G0 X58.867 Y52.569
G0 X57.084 Y53.833
G0 X55.858 Y54.872
G0 X54.367 Y56.437
G0 X55.319 Y57.581
G1 F1500 E339.07221
G1 F1125 X153.624 Y155.887 E350.16978
G1 F1500 E343.66978
G0 F9000 X152.969 Y157.495
G1 F1500 E350.16978
G1 F1125 X54.333 Y58.858 E361.30472
G1 F1500 E354.80472
G0 F9000 X53.462 Y60.251
G1 F1500 E361.30472
G1 F1125 X152.241 Y159.029 E372.45569
G1 F1500 E365.95569
G0 F9000 X151.382 Y160.433
G1 F1500 E372.45569
G1 F1125 X52.687 Y61.738 E383.59724
G1 F1500 E377.09724
G0 F9000 X52.055 Y63.369
G1 F1500 E383.59724
G1 F1125 X150.403 Y161.716 E394.69955
G1 F1500 E388.19955
G0 F9000 X149.316 Y162.893
G1 F1500 E394.69955
G1 F1125 X51.539 Y65.116 E405.73747
G1 F1500 E399.23747
G0 F9000 X51.205 Y67.045
G1 F1500 E405.73747
G1 F1125 X148.157 Y163.997 E416.68225
G1 F1500 E410.18225
G0 F9000 X146.885 Y164.987
G1 F1500 E416.68225
G1 F1125 X51.065 Y69.167 E427.49924
G1 F1500 E420.99924
G0 F9000 X51.057 Y71.422
G1 F1500 E427.49924
G1 F1125 X145.498 Y165.863 E438.16055
G1 F1500 E431.66055
G0 F9000 X143.983 Y166.61
G1 F1500 E438.16055
G1 F1125 X51.057 Y73.684 E448.65084
G1 F1500 E442.15084
G0 F9000 X51.057 Y75.947
G1 F1500 E448.65084
G1 F1125 X142.334 Y167.225 E458.95504
G1 F1500 E452.45504
G0 F9000 X140.512 Y167.665
G1 F1500 E458.95504
G1 F1125 X51.057 Y78.21 E469.05349
G1 F1500 E462.55349
G0 F9000 X51.057 Y80.472
G1 F1500 E469.05349
G1 F1125 X138.48 Y167.896 E478.92261
G1 F1500 E472.42261
G0 F9000 X136.554 Y168.232
G1 F1500 E478.92261
G1 F1125 X51.057 Y82.735 E488.57425
G1 F1500 E482.07425
G0 F9000 X51.057 Y84.998
G1 F1500 E488.57425
G1 F1125 X134.699 Y168.64 E498.01648
G1 F1500 E491.51648
G0 F9000 X132.685 Y168.889
G1 F1500 E498.01648
G1 F1125 X51.057 Y87.261 E507.23136
G1 F1500 E500.73136
G0 F9000 X51.057 Y89.523
G1 F1500 E507.23136
G1 F1125 X130.456 Y168.922 E516.1946
G1 F1500 E509.6946
G0 F9000 X127.899 Y168.628
G1 F1500 E516.1946
G1 F1125 X51.057 Y91.786 E524.86919
G1 F1500 E518.36919
G0 F9000 X51.057 Y94.049
G1 F1500 E524.86919
G1 F1125 X124.801 Y167.793 E533.19405
G1 F1500 E526.69405
G0 F9000 X124.031 Y169.072
G0 X122.873 Y168.603
G0 X120.787 Y167.508
G0 X120.494 Y167.325
G0 X118.991 Y166.3
G0 X119.863 Y165.118
G1 F1500 E533.19405
G1 F1125 X51.057 Y96.312 E540.96147
G1 F1500 E534.46147
G0 F9000 X51.057 Y98.574
G1 F1500 E540.96147
G1 F1125 X112.79 Y160.308 E547.93048
G1 F1500 E541.43048
G0 F9000 X109.807 Y159.587
G1 F1500 E547.93048
G1 F1125 X51.057 Y100.837 E554.56268
G1 F1500 E548.06268
G0 F9000 X51.057 Y103.1
G1 F1500 E554.56268
G1 F1125 X107.412 Y159.455 E560.92452
G1 F1500 E554.42452
G0 F9000 X105.149 Y159.455
G1 F1500 E560.92452
G1 F1125 X51.057 Y105.363 E567.0309
G1 F1500 E560.5309
G0 F9000 X51.057 Y107.625
G1 F1500 E567.0309
G1 F1125 X102.886 Y159.455 E572.88186
G1 F1500 E566.38186
G0 F9000 X100.623 Y159.454
G1 F1500 E572.88186
G1 F1125 X51.057 Y109.888 E578.4773
G1 F1500 E571.9773
G0 F9000 X51.057 Y112.151
G1 F1500 E578.4773
G1 F1125 X98.36 Y159.454 E583.81727
G1 F1500 E577.31727
G0 F9000 X96.097 Y159.453
G1 F1500 E583.81727
G1 F1125 X51.057 Y114.414 E588.90172
G1 F1500 E582.40172
G0 F9000 X51.057 Y116.676
G1 F1500 E588.90172
G1 F1125 X93.834 Y159.453 E593.73075
G1 F1500 E587.23075
G0 F9000 X91.571 Y159.453
G1 F1500 E593.73075
G1 F1125 X51.057 Y118.939 E598.30432
G1 F1500 E591.80432
G0 F9000 X51.057 Y121.202
G1 F1500 E598.30432
