;FLAVOR:Marlin
;TIME:8892
;Filament used: 6.1898m
;Layer height: 0.2
;MINX:59.345
;MINY:59.345
;MINZ:0.24
;MAXX:160.655
;MAXY:160.655
;MAXZ:26.09
;Generated with Cura_SteamEngine 5.4.0
M82 ;absolute extrusion mode
; Ender 3 Custom Start G-code
G92 E0 ; Reset Extruder
G28 ; Home all axes
M104 S175 ; Start heating up the nozzle most of the way
M190 S60 ; Start heating the bed, wait until target temperature reached
M109 S200 ; Finish heating the nozzle
G1 Z2.0 F3000 ; Move Z Axis up little to prevent scratching of Heat Bed
G1 X0.1 Y20 Z0.3 F5000.0 ; Move to start position
G1 X0.1 Y200.0 Z0.3 F1500.0 E15 ; Draw the first line
G1 X0.4 Y200.0 Z0.3 F5000.0 ; Move to side a little
G1 X0.4 Y20 Z0.3 F1500.0 E30 ; Draw the second line
G92 E0 ; Reset Extruder
G1 Z2.0 F3000 ; Move Z Axis up little to prevent scratching of Heat Bed
G1 X5 Y20 Z0.3 F5000.0 ; Move over to prevent blob squish
G92 E0
G92 E0
G1 F1500 E-6.5
;LAYER_COUNT:125
;LAYER:-6
M107
G0 F9000 X75.275 Y74.593 Z0.24
;TYPE:SUPPORT-INTERFACE
G1 F1500 E0
G1 F1125 X76.815 Y73.145 E0.16874
G1 X77.606 Y72.453 E0.25263
G1 X79.096 Y71.213 E0.40737
G1 X79.823 Y70.646 E0.48096
G1 X81.401 Y69.485 E0.63734
G1 X82.134 Y68.977 E0.70853
G1 X83.942 Y67.803 E0.88061
G1 X84.779 Y67.3 E0.95856
G1 X86.554 Y66.298 E1.12127
G1 X87.381 Y65.865 E1.19578
G1 X89.288 Y64.938 E1.36504
G1 X90.067 Y64.587 E1.43324
G1 X92.074 Y63.753 E1.60673
G1 X92.784 Y63.489 E1.6672
G1 X94.813 Y62.788 E1.83856
G1 X95.535 Y62.558 E1.89904
G1 X97.713 Y61.951 E2.07953
G1 X98.547 Y61.745 E2.1481
G1 X100.644 Y61.297 E2.31927
G1 X101.55 Y61.132 E2.39278
G1 X103.7 Y60.81 E2.56632
G1 X104.507 Y60.711 E2.63122
G1 X106.638 Y60.514 E2.80205
G1 X107.455 Y60.471 E2.86736
G1 X109.621 Y60.408 E3.04033
G1 X110.496 Y60.409 E3.11017
G1 X112.545 Y60.471 E3.27381
G1 X113.362 Y60.514 E3.33912
G1 X115.587 Y60.721 E3.51749
G1 X116.3 Y60.804 E3.57479
G1 X118.54 Y61.147 E3.75568
G1 X119.42 Y61.31 E3.82712
G1 X121.453 Y61.745 E3.99308
G1 X122.286 Y61.951 E4.06158
G1 X124.466 Y62.563 E4.24232
G1 X125.189 Y62.789 E4.30279
G1 X127.216 Y63.489 E4.47397
G1 X127.926 Y63.753 E4.53443
G1 X129.932 Y64.586 E4.70782
G1 X130.816 Y64.987 E4.7853
G1 X132.679 Y65.895 E4.95074
G1 X133.439 Y66.294 E5.01926
G1 X135.224 Y67.298 E5.18274
G1 X136.057 Y67.805 E5.26058
G1 X137.866 Y68.977 E5.43264
G1 X138.599 Y69.485 E5.50383
G1 X140.296 Y70.737 E5.67217
G1 X140.903 Y71.213 E5.73374
G1 X142.397 Y72.45 E5.88857
G1 X143.178 Y73.138 E5.97165
G1 X144.723 Y74.591 E6.14095
G1 X145.407 Y75.275 E6.21817
G1 X146.855 Y76.815 E6.3869
G1 X147.547 Y77.606 E6.4708
G1 X148.79 Y79.101 E6.626
G1 X149.263 Y79.704 E6.68717
G1 X150.513 Y81.396 E6.85509
G1 X151.023 Y82.132 E6.92657
G1 X152.208 Y83.959 E7.1004
G1 X152.696 Y84.77 E7.17595
G1 X153.702 Y86.554 E7.33944
G1 X154.135 Y87.381 E7.41396
G1 X155.073 Y89.311 E7.58525
G1 X155.403 Y90.043 E7.64935
G1 X156.246 Y92.074 E7.82488
G1 X156.505 Y92.767 E7.88393
G1 X157.213 Y94.817 E8.05706
G1 X157.481 Y95.677 E8.12896
G1 X158.044 Y97.691 E8.29589
G1 X158.258 Y98.56 E8.36733
G1 X158.699 Y100.615 E8.53511
G1 X158.872 Y101.569 E8.6125
G1 X159.167 Y103.504 E8.76875
G1 X159.289 Y104.502 E8.849
G1 X159.482 Y106.613 E9.01822
G1 X159.529 Y107.446 E9.08482
G1 X159.592 Y109.615 E9.25803
G1 X159.591 Y110.496 E9.32835
G1 X159.529 Y112.544 E9.49191
G1 X159.487 Y113.262 E9.54932
G1 X159.279 Y115.588 E9.73573
G1 X159.213 Y116.164 E9.78201
G1 X158.853 Y118.54 E9.97384
G1 X158.697 Y119.387 E10.04259
G1 X158.26 Y121.431 E10.20944
G1 X158.044 Y122.303 E10.28115
G1 X157.486 Y124.324 E10.44851
G1 X157.217 Y125.175 E10.51975
G1 X156.512 Y127.214 E10.69197
G1 X156.246 Y127.926 E10.75264
G1 X155.458 Y129.835 E10.91749
G1 X155.018 Y130.806 E11.00259
G1 X154.135 Y132.618 E11.16349
G1 X153.697 Y133.455 E11.2389
G1 X152.702 Y135.225 E11.40098
G1 X152.207 Y136.04 E11.4771
G1 X151.042 Y137.838 E11.64812
G1 X150.526 Y138.584 E11.72052
G1 X149.354 Y140.177 E11.87839
G1 X148.789 Y140.902 E11.95176
G1 X147.55 Y142.398 E12.10682
G1 X146.862 Y143.178 E12.18984
G1 X145.409 Y144.723 E12.35914
G1 X144.725 Y145.407 E12.43636
G1 X143.185 Y146.855 E12.60509
G1 X142.394 Y147.547 E12.68899
G1 X140.904 Y148.787 E12.84372
G1 X140.177 Y149.354 E12.91732
G1 X138.601 Y150.513 E13.07348
G1 X137.866 Y151.023 E13.14489
G1 X136.058 Y152.197 E13.31697
G1 X135.221 Y152.7 E13.39492
G1 X133.451 Y153.699 E13.55716
G1 X132.619 Y154.135 E13.63214
G1 X130.712 Y155.062 E13.80139
G1 X129.933 Y155.413 E13.8696
G1 X127.926 Y156.246 E14.04306
G1 X127.216 Y156.511 E14.10355
G1 X125.163 Y157.219 E14.2769
G1 X124.465 Y157.442 E14.33539
G1 X122.287 Y158.049 E14.51588
G1 X121.453 Y158.255 E14.58445
G1 X119.356 Y158.703 E14.75562
G1 X118.45 Y158.868 E14.82913
G1 X116.3 Y159.19 E15.00267
G1 X115.493 Y159.289 E15.06757
G1 X113.362 Y159.486 E15.2384
G1 X112.547 Y159.529 E15.30355
G1 X110.379 Y159.592 E15.47668
G1 X109.504 Y159.591 E15.54653
G1 X107.453 Y159.529 E15.71032
G1 X106.638 Y159.486 E15.77547
G1 X104.413 Y159.279 E15.95384
G1 X103.7 Y159.196 E16.01114
G1 X101.46 Y158.853 E16.19203
G1 X100.58 Y158.69 E16.26347
G1 X98.547 Y158.255 E16.42943
G1 X97.714 Y158.049 E16.49793
G1 X95.534 Y157.437 E16.67867
G1 X94.812 Y157.211 E16.73906
G1 X92.784 Y156.511 E16.91032
G1 X92.074 Y156.246 E16.97081
G1 X90.068 Y155.413 E17.1442
G1 X89.18 Y155.011 E17.222
G1 X87.32 Y154.104 E17.38719
G1 X86.54 Y153.692 E17.45761
G1 X84.776 Y152.702 E17.61908
G1 X83.943 Y152.195 E17.69692
G1 X82.134 Y151.023 E17.86898
G1 X81.399 Y150.513 E17.94039
G1 X79.704 Y149.263 E18.1085
G1 X79.097 Y148.787 E18.17008
G1 X77.604 Y147.551 E18.3248
G1 X76.739 Y146.786 E18.41697
G1 X75.235 Y145.369 E18.58192
G1 X74.591 Y144.723 E18.65473
G1 X73.139 Y143.179 E18.82392
G1 X72.453 Y142.394 E18.90714
G1 X71.208 Y140.898 E19.0625
G1 X70.646 Y140.177 E19.13547
G1 X69.474 Y138.584 E19.29334
G1 X68.897 Y137.746 E19.37455
G1 X67.792 Y136.041 E19.53674
G1 X67.3 Y135.221 E19.61307
G1 X66.292 Y133.434 E19.77685
G1 X65.865 Y132.618 E19.85036
G1 X64.982 Y130.806 E20.01126
G1 X64.542 Y129.835 E20.09636
G1 X63.754 Y127.926 E20.26122
G1 X63.488 Y127.214 E20.32189
G1 X62.783 Y125.173 E20.49426
G1 X62.514 Y124.324 E20.56535
G1 X61.952 Y122.287 E20.73402
G1 X61.74 Y121.431 E20.80442
G1 X61.297 Y119.36 E20.97347
G1 X61.128 Y118.426 E21.04924
G1 X60.791 Y116.163 E21.23188
G1 X60.711 Y115.494 E21.28566
G1 X60.513 Y113.262 E21.46453
G1 X60.471 Y112.544 E21.52194
G1 X60.408 Y110.385 E21.69435
G1 X60.409 Y109.504 E21.76468
G1 X60.471 Y107.456 E21.92823
G1 X60.513 Y106.738 E21.98564
G1 X60.721 Y104.412 E22.17206
G1 X60.787 Y103.836 E22.21834
G1 X61.147 Y101.459 E22.41024
G1 X61.299 Y100.625 E22.47791
G1 X61.74 Y98.569 E22.64576
G1 X61.954 Y97.701 E22.71713
G1 X62.519 Y95.677 E22.88487
G1 X62.783 Y94.827 E22.95592
G1 X63.494 Y92.77 E23.12965
G1 X63.754 Y92.074 E23.18895
G1 X64.592 Y90.054 E23.36352
G1 X64.987 Y89.184 E23.43979
G1 X65.895 Y87.321 E23.60523
G1 X66.294 Y86.562 E23.67368
G1 X67.303 Y84.768 E23.83798
G1 X67.793 Y83.96 E23.91341
G1 X68.977 Y82.134 E24.08713
G1 X69.485 Y81.401 E24.15832
G1 X70.646 Y79.823 E24.3147
G1 X71.211 Y79.098 E24.38807
G1 X72.45 Y77.602 E24.54313
G1 X73.138 Y76.822 E24.62615
G1 X74.591 Y75.277 E24.79545
G1 X75.275 Y74.593 E24.87266
G0 F9000 X75.216 Y75.216
G1 F1125 X144.782 Y144.782 E32.72588
G1 F1500 E26.22588
G0 F9000 X145.89 Y143.627
G1 F1500 E32.72588
G1 F1125 X76.372 Y74.109 E40.57367
G1 F1500 E34.07367
G0 F9000 X77.554 Y73.029
G1 F1500 E40.57367
G1 F1125 X146.972 Y142.447 E48.41017
G1 F1500 E41.91017
G0 F9000 X148.007 Y141.219
G1 F1500 E48.41017
G1 F1125 X78.783 Y71.994 E56.22483
G1 F1500 E49.72483
G0 F9000 X80.037 Y70.986
G1 F1500 E56.22483
G1 F1125 X149.013 Y139.962 E64.01144
G1 F1500 E57.51144
G0 F9000 X149.973 Y138.66
G1 F1500 E64.01144
G1 F1125 X81.34 Y70.026 E71.75938
G1 F1500 E65.25938
G0 F9000 X82.677 Y69.101
G1 F1500 E71.75938
G1 F1125 X150.899 Y137.322 E79.46081
G1 F1500 E72.96081
G0 F9000 X151.788 Y135.949
G1 F1500 E79.46081
G1 F1125 X84.049 Y68.21 E87.10778
G1 F1500 E80.60778
G0 F9000 X85.47 Y67.368
G1 F1500 E87.10778
G1 F1125 X152.633 Y134.531 E94.68972
G1 F1500 E88.18972
G0 F9000 X153.442 Y133.078
G1 F1500 E94.68972
G1 F1125 X86.921 Y66.556 E102.19924
G1 F1500 E95.69924
G0 F9000 X88.428 Y65.801
G1 F1500 E102.19924
G1 F1125 X154.199 Y131.572 E109.62404
G1 F1500 E103.12404
G0 F9000 X154.927 Y130.036
G1 F1500 E109.62404
G1 F1125 X89.962 Y65.072 E116.95779
G1 F1500 E110.45779
G0 F9000 X91.554 Y64.401
G1 F1500 E116.95779
G1 F1125 X155.598 Y128.445 E124.18763
G1 F1500 E117.68763
G0 F9000 X156.228 Y126.812
G1 F1500 E124.18763
G1 F1125 X93.188 Y63.773 E131.30408
G1 F1500 E124.80408
G0 F9000 X94.87 Y63.192
G1 F1500 E131.30408
G1 F1125 X156.808 Y125.13 E138.29617
G1 F1500 E131.79617
G0 F9000 X157.329 Y123.388
G1 F1500 E138.29617
G1 F1125 X96.614 Y62.672 E145.15026
G1 F1500 E138.65026
G0 F9000 X98.398 Y62.194
G1 F1500 E145.15026
G1 F1125 X157.805 Y121.601 E151.85664
G1 F1500 E145.35664
G0 F9000 X158.21 Y119.744
G1 F1500 E151.85664
G1 F1125 X100.255 Y61.789 E158.3991
G1 F1500 E151.8991
G0 F9000 X102.172 Y61.443
G1 F1500 E158.3991
G1 F1125 X158.555 Y117.825 E164.76404
G1 F1500 E158.26404
G0 F9000 X158.845 Y115.853
G1 F1500 E164.76404
G1 F1125 X104.15 Y61.158 E170.93849
G1 F1500 E164.43849
G0 F9000 X106.21 Y60.955
G1 F1500 E170.93849
G1 F1125 X159.038 Y113.784 E176.90223
G1 F1500 E170.40223
G0 F9000 X159.155 Y111.638
G1 F1500 E176.90223
G1 F1125 X108.362 Y60.845 E182.63618
G1 F1500 E176.13618
G0 F9000 X110.592 Y60.812
G1 F1500 E182.63618
G1 F1125 X159.185 Y109.404 E188.12172
G1 F1500 E181.62172
G0 F9000 X159.106 Y107.063
G1 F1500 E188.12172
G1 F1125 X112.935 Y60.892 E193.3339
G1 F1500 E186.8339
G0 F9000 X115.413 Y61.107
G1 F1500 E193.3339
G1 F1125 X158.894 Y104.588 E198.24241
G1 F1500 E191.74241
G0 F9000 X158.525 Y101.957
G1 F1500 E198.24241
G1 F1125 X118.044 Y61.475 E202.81231
G1 F1500 E196.31231
G0 F9000 X120.858 Y62.027
G1 F1500 E202.81231
G1 F1125 X157.973 Y99.142 E207.00218
G1 F1500 E200.50218
G0 F9000 X157.179 Y96.085
G1 F1500 E207.00218
G1 F1125 X123.92 Y62.826 E210.75674
G1 F1500 E204.25674
G0 F9000 X127.307 Y63.95
G1 F1500 E210.75674
G1 F1125 X156.05 Y92.693 E214.0015
G1 F1500 E207.5015
G0 F9000 X154.341 Y88.722
G1 F1500 E214.0015
G1 F1125 X131.277 Y65.657 E216.60522
G1 F1500 E210.10522
G0 F9000 X131.917 Y64.339
G0 X133.564 Y65.165
G0 X136.66 Y66.926
G0 X136.362 Y68.479
G1 F1500 E216.60522
G1 F1125 X151.526 Y83.644 E218.31712
G1 F1500 E211.81712
G0 F9000 X153.074 Y83.34
G0 X155.087 Y86.903
G0 X156.382 Y89.626
G0 X157.547 Y92.517
G0 X158.502 Y95.37
G0 X159.295 Y98.326
G0 X159.923 Y101.402
G0 X160.348 Y104.397
G0 X160.592 Y107.404
G0 X160.655 Y110.52
G0 X160.537 Y113.52
G0 X160.222 Y116.635
G0 X159.745 Y119.585
G0 X159.074 Y122.575
G0 X158.23 Y125.503
G0 X157.189 Y128.429
G0 X155.979 Y131.265
G0 X154.635 Y133.958
G0 X153.074 Y136.66
G0 X151.39 Y139.209
G0 X149.551 Y141.652
G0 X147.569 Y143.982
G0 X146.373 Y145.227
G0 X144.632 Y146.958
G0 X143.626 Y145.889
G1 F1500 E218.31712
G1 F1125 X74.109 Y76.371 E226.16485
G1 F1500 E219.66485
G0 F9000 X73.026 Y77.551
G1 F1500 E226.16485
G1 F1125 X142.444 Y146.97 E234.00141
G1 F1500 E227.50141
G0 F9000 X141.216 Y148.004
G1 F1500 E234.00141
G1 F1125 X71.991 Y78.78 E241.81607
G1 F1500 E235.31607
G0 F9000 X70.985 Y80.036
G1 F1500 E241.81607
G1 F1125 X139.961 Y149.012 E249.60268
G1 F1500 E243.10268
G0 F9000 X138.658 Y149.972
G1 F1500 E249.60268
G1 F1125 X70.026 Y81.339 E257.35051
G1 F1500 E250.85051
G0 F9000 X69.1 Y82.677
G1 F1500 E257.35051
G1 F1125 X137.321 Y150.898 E265.05189
G1 F1500 E258.55189
G0 F9000 X135.949 Y151.788
G1 F1500 E265.05189
G1 F1125 X68.21 Y84.049 E272.69885
G1 F1500 E266.19885
G0 F9000 X67.366 Y85.468
G1 F1500 E272.69885
G1 F1125 X134.528 Y152.63 E280.28068
G1 F1500 E273.78068
G0 F9000 X133.077 Y153.442
G1 F1500 E280.28068
G1 F1125 X66.555 Y86.92 E287.79025
G1 F1500 E281.29025
G0 F9000 X65.799 Y88.427
G1 F1500 E287.79025
G1 F1125 X131.57 Y154.198 E295.21505
G1 F1500 E288.71505
G0 F9000 X130.036 Y154.927
G1 F1500 E295.21505
G1 F1125 X65.072 Y89.962 E302.54881
G1 F1500 E296.04881
G0 F9000 X64.401 Y91.554
G1 F1500 E302.54881
G1 F1125 X128.443 Y155.596 E309.77842
G1 F1500 E303.27842
G0 F9000 X126.81 Y156.226
G1 F1500 E309.77842
G1 F1125 X63.771 Y93.187 E316.89481
G1 F1500 E310.39481
G0 F9000 X63.191 Y94.869
G1 F1500 E316.89481
G1 F1125 X125.128 Y156.806 E323.88679
G1 F1500 E317.38679
G0 F9000 X123.385 Y157.326
G1 F1500 E323.88679
G1 F1125 X62.672 Y96.613 E330.7406
G1 F1500 E324.2406
G0 F9000 X62.193 Y98.397
G1 F1500 E330.7406
G1 F1125 X121.601 Y157.805 E337.44709
G1 F1500 E330.94709
G0 F9000 X119.743 Y158.21
G1 F1500 E337.44709
G1 F1125 X61.786 Y100.253 E343.98978
G1 F1500 E337.48978
G0 F9000 X61.443 Y102.172
G1 F1500 E343.98978
G1 F1125 X117.826 Y158.555 E350.35478
G1 F1500 E343.85478
G0 F9000 X115.848 Y158.84
G1 F1500 E350.35478
G1 F1125 X61.154 Y104.146 E356.52911
G1 F1500 E350.02911
G0 F9000 X60.96 Y106.215
G1 F1500 E356.52911
G1 F1125 X113.789 Y159.043 E362.49285
G1 F1500 E355.99285
G0 F9000 X111.635 Y159.153
G1 F1500 E362.49285
G1 F1125 X60.843 Y108.361 E368.22669
G1 F1500 E361.72669
G0 F9000 X60.814 Y110.594
G1 F1500 E368.22669
G1 F1125 X109.406 Y159.186 E373.71217
G1 F1500 E367.21217
G0 F9000 X107.063 Y159.106
G1 F1500 E373.71217
G1 F1125 X60.894 Y112.937 E378.92413
G1 F1500 E372.42413
G0 F9000 X61.104 Y115.41
G1 F1500 E378.92413
G1 F1125 X104.586 Y158.891 E383.83269
G1 F1500 E377.33269
G0 F9000 X101.954 Y158.523
G1 F1500 E383.83269
G1 F1125 X61.475 Y118.044 E388.40231
G1 F1500 E381.90231
G0 F9000 X62.025 Y120.857
G1 F1500 E388.40231
G1 F1125 X99.14 Y157.971 E392.59212
G1 F1500 E386.09212
G0 F9000 X96.078 Y157.172
G1 F1500 E392.59212
G1 F1125 X62.814 Y123.908 E396.34725
G1 F1500 E389.84725
G0 F9000 X63.949 Y127.306
G1 F1500 E396.34725
G1 F1125 X92.692 Y156.049 E399.592
G1 F1500 E393.092
G0 F9000 X88.722 Y154.342
G1 F1500 E399.592
G1 F1125 X65.655 Y131.275 E402.19601
G1 F1500 E395.69601
G0 F9000 X64.339 Y131.916
G0 X65.169 Y133.569
G0 X66.926 Y136.66
G0 X68.471 Y136.354
G1 F1500 E402.19601
G1 F1125 X83.637 Y151.519 E403.90802
M104 S200
G1 F1500 E397.40802
G0 F300 X83.637 Y151.519 Z0.54
G0 F9000 X83.34 Y153.074
G0 X86.903 Y155.087
G0 X89.639 Y156.387
G0 X92.517 Y157.546
G0 X95.401 Y158.51
G0 X98.376 Y159.307
G0 X101.378 Y159.919
G0 X104.397 Y160.348
G0 X107.414 Y160.593
G0 X110.52 Y160.655
G0 X113.546 Y160.534
G0 X116.635 Y160.222
G0 X119.631 Y159.735
G0 X122.61 Y159.064
G0 X125.521 Y158.224
G0 X128.431 Y157.189
G0 X131.275 Y155.974
G0 X133.985 Y154.62
G0 X136.151 Y153.369
G0 X139.101 Y151.465
G0 X138.365 Y150.19
;TIME_ELAPSED:319.862656
;LAYER:-5
;TYPE:SUPPORT
G1 F1500 E403.90802
G1 F1125 X140.06 Y148.939 E404.11822
G1 X140.657 Y148.471 E404.19391
G1 X142.248 Y147.147 E404.40044
G1 X142.921 Y146.554 E404.48995
G1 X144.444 Y145.122 E404.69854
G1 X145.088 Y144.48 E404.78927
G1 X146.491 Y142.989 E404.99355
G1 X147.15 Y142.244 E405.0928
G1 X148.476 Y140.652 E405.29953
G1 X148.95 Y140.046 E405.3763
G1 X150.206 Y138.345 E405.58728
G1 X150.321 Y138.177 E405.60759
G1 X138.182 Y150.317 E407.32061
G1 X137.534 Y150.764 E407.39916
G1 X135.763 Y151.907 E407.60948
G1 X135.029 Y152.351 E407.69507
G1 X134.352 Y152.732 E407.77259
G1 X152.728 Y134.356 E410.36564
G1 X153.357 Y133.242 E410.49329
G1 X153.748 Y132.498 E410.57715
G1 X154.292 Y131.378 E410.70139
G1 X131.379 Y154.291 E413.93466
G1 X130.541 Y154.697 E414.02758
G1 X129.766 Y155.048 E414.11247
G1 X128.812 Y155.444 E414.21553
G1 X155.443 Y128.813 E417.97345
G1 X155.824 Y127.896 E418.07254
G1 X156.14 Y127.064 E418.16134
G1 X156.331 Y126.511 E418.21972
G1 X126.51 Y156.332 E422.42778
G1 X125.051 Y156.834 E422.58174
G1 X124.386 Y157.042 E422.65126
G1 X157.042 Y124.386 E427.25938
G1 X157.597 Y122.417 E427.4635
G1 X122.415 Y157.599 E432.42806
G1 X121.374 Y157.861 E432.53517
G1 X120.564 Y158.035 E432.61784
G1 X158.035 Y120.564 E437.9054
G1 X158.309 Y119.291 E438.03533
G1 X158.402 Y118.783 E438.08686
G1 X118.783 Y158.402 E443.67753
G1 X118.388 Y158.474 E443.71759
G1 X117.101 Y158.669 E443.84747
G1 X158.668 Y117.103 E449.71296
G1 X158.77 Y116.432 E449.78068
G1 X158.888 Y115.469 E449.87749
