;FLAVOR:Marlin
;TIME:15419
;Filament used: 12.4273m
;Layer height: 0.2
;MINX:68.336
;MINY:31.854
;MINZ:0.24
;MAXX:151.664
;MAXY:189.165
;MAXZ:45.09
;Generated with Cura_SteamEngine 5.4.0
M82 ;absolute extrusion mode
; Ender 3 Custom Start G-code
G92 E0 ; Reset Extruder
G28 ; Home all axes
M104 S175 ; Start heating up the nozzle most of the way
M190 S60 ; Start heating the bed, wait until target temperature reached
M109 S200 ; Finish heating the nozzle
G1 Z2.0 F3000 ; Move Z Axis up little to prevent scratching of Heat Bed
G1 X0.1 Y20 Z0.3 F5000.0 ; Move to start position
G1 X0.1 Y200.0 Z0.3 F1500.0 E15 ; Draw the first line
G1 X0.4 Y200.0 Z0.3 F5000.0 ; Move to side a little
G1 X0.4 Y20 Z0.3 F1500.0 E30 ; Draw the second line
G92 E0 ; Reset Extruder
G1 Z2.0 F3000 ; Move Z Axis up little to prevent scratching of Heat Bed
G1 X5 Y20 Z0.3 F5000.0 ; Move over to prevent blob squish
G92 E0
G92 E0
G1 F1500 E-6.5
;LAYER_COUNT:220
;LAYER:-6
M107
G0 F9000 X91.777 Y41.312 Z0.24
;TYPE:SUPPORT-INTERFACE
G1 F1500 E0
G1 F1125 X92.306 Y40.295 E0.09151
G1 X92.772 Y39.529 E0.16308
G1 X93.44 Y38.584 E0.25546
G1 X94.177 Y37.705 E0.34702
G1 X94.799 Y37.059 E0.41861
G1 X95.594 Y36.338 E0.50428
G1 X96.434 Y35.683 E0.5893
G1 X97.325 Y35.083 E0.67505
G1 X98.392 Y34.484 E0.77273
G1 X99.211 Y34.099 E0.84497
G1 X100.204 Y33.715 E0.92995
G1 X101.21 Y33.405 E1.01398
G1 X102.28 Y33.159 E1.10162
G1 X103.304 Y33.003 E1.18431
G1 X104.56 Y32.908 E1.28485
G1 X104.961 Y32.901 E1.31687
G1 X115.007 Y32.901 E2.11878
G1 X116.145 Y32.949 E2.2097
G1 X117.208 Y33.071 E2.29511
G1 X118.236 Y33.268 E2.37866
G1 X119.304 Y33.554 E2.46692
G1 X120.303 Y33.902 E2.55137
G1 X121.193 Y34.28 E2.62855
G1 X122.205 Y34.806 E2.71959
G1 X122.971 Y35.272 E2.79116
G1 X123.916 Y35.94 E2.88354
G1 X124.795 Y36.677 E2.97511
G1 X125.441 Y37.299 E3.04669
G1 X126.154 Y38.084 E3.13134
G1 X126.817 Y38.934 E3.21739
G1 X127.42 Y39.831 E3.30367
G1 X128.016 Y40.892 E3.40081
G1 X128.398 Y41.704 E3.47244
G1 X128.781 Y42.692 E3.55703
G1 X129.121 Y43.797 E3.64932
G1 X129.367 Y44.915 E3.74069
G1 X129.515 Y45.976 E3.82621
G1 X129.592 Y47.048 E3.912
G1 X129.599 Y47.449 E3.94401
G1 X129.6 Y126.51 E10.255
G1 X129.644 Y127.189 E10.30932
G1 X129.767 Y127.836 E10.36189
G1 X129.986 Y128.507 E10.41823
G1 X130.269 Y129.106 E10.47112
G1 X130.653 Y129.705 E10.52791
G1 X131.067 Y130.201 E10.57948
G1 X131.597 Y130.694 E10.63727
G1 X132.139 Y131.081 E10.69043
G1 X132.737 Y131.403 E10.74464
G1 X133.371 Y131.65 E10.79896
G1 X134.037 Y131.814 E10.85371
G1 X134.969 Y131.899 E10.92841
G1 X136.007 Y131.901 E11.01127
G1 X137.145 Y131.949 E11.10219
G1 X138.208 Y132.071 E11.1876
G1 X139.236 Y132.268 E11.27115
G1 X140.304 Y132.554 E11.35941
G1 X141.303 Y132.902 E11.44385
G1 X142.193 Y133.28 E11.52104
G1 X143.205 Y133.806 E11.61208
G1 X143.971 Y134.272 E11.68365
G1 X144.916 Y134.94 E11.77603
G1 X145.795 Y135.677 E11.8676
G1 X146.441 Y136.299 E11.93918
G1 X147.154 Y137.084 E12.02383
G1 X147.817 Y137.934 E12.10988
G1 X148.42 Y138.831 E12.19616
G1 X149.016 Y139.892 E12.2933
G1 X149.398 Y140.704 E12.36493
G1 X149.781 Y141.692 E12.44952
G1 X150.121 Y142.797 E12.5418
G1 X150.367 Y143.915 E12.63318
G1 X150.515 Y144.976 E12.7187
G1 X150.592 Y146.048 E12.80449
G1 X150.599 Y146.449 E12.8365
G1 X150.6 Y173.486 E14.99471
G1 X150.563 Y174.485 E15.07451
G1 X150.429 Y175.71 E15.17288
G1 X150.232 Y176.737 E15.25635
G1 X150.005 Y177.61 E15.32836
G1 X149.644 Y178.693 E15.41948
G1 X149.223 Y179.687 E15.50565
G1 X148.694 Y180.705 E15.59723
G1 X148.228 Y181.471 E15.6688
G1 X147.56 Y182.416 E15.76118
G1 X146.823 Y183.295 E15.85275
G1 X146.201 Y183.941 E15.92433
G1 X145.406 Y184.662 E16.01
G1 X144.566 Y185.317 E16.09503
G1 X143.675 Y185.917 E16.18078
G1 X142.608 Y186.516 E16.27845
G1 X141.791 Y186.9 E16.35051
G1 X140.796 Y187.285 E16.43568
G1 X139.79 Y187.595 E16.51971
G1 X138.72 Y187.841 E16.60735
G1 X137.696 Y187.997 E16.69003
G1 X136.44 Y188.092 E16.79057
G1 X135.936 Y188.1 E16.83081
G1 X129.993 Y188.099 E17.30521
G1 X128.855 Y188.051 E17.39613
G1 X127.791 Y187.929 E17.48162
G1 X126.764 Y187.732 E17.56509
G1 X125.696 Y187.446 E17.65335
G1 X124.688 Y187.094 E17.73858
G1 X123.901 Y186.76 E17.80682
G1 X122.93 Y186.269 E17.89368
G1 X122.028 Y185.727 E17.97768
G1 X121.08 Y185.058 E18.0703
G1 X120.202 Y184.319 E18.1619
G1 X119.549 Y183.691 E18.23422
G1 X118.838 Y182.906 E18.31877
G1 X118.183 Y182.066 E18.40379
G1 X117.579 Y181.169 E18.49012
G1 X116.982 Y180.103 E18.58764
G1 X116.59 Y179.266 E18.66142
G1 X116.215 Y178.296 E18.74444
G1 X115.879 Y177.204 E18.83564
G1 X115.631 Y176.071 E18.92822
G1 X115.491 Y175.12 E19.00495
G1 X115.359 Y172.837 E19.18749
G1 X115.228 Y172.151 E19.24324
G1 X115.011 Y171.493 E19.29855
G1 X114.721 Y170.884 E19.35239
G1 X114.35 Y170.306 E19.40722
G1 X113.914 Y169.786 E19.46139
G1 X113.412 Y169.32 E19.51606
G1 X112.861 Y168.926 E19.57013
G1 X112.263 Y168.604 E19.62435
G1 X111.629 Y168.357 E19.67866
G1 X110.974 Y168.194 E19.73254
G1 X110.28 Y168.114 E19.78831
G1 X109.609 Y168.121 E19.84187
G1 X108.933 Y168.213 E19.89633
G1 X108.256 Y168.395 E19.95229
G1 X107.653 Y168.643 E20.00434
G1 X107.053 Y168.981 E20.05931
G1 X106.496 Y169.397 E20.1148
G1 X106.009 Y169.868 E20.16888
G1 X105.575 Y170.413 E20.2245
G1 X105.217 Y171 E20.27938
G1 X104.941 Y171.617 E20.33333
G1 X104.741 Y172.279 E20.38854
G1 X104.633 Y172.913 E20.43987
G1 X104.601 Y173.391 E20.47812
G1 X104.561 Y174.569 E20.5722
G1 X104.431 Y175.698 E20.66292
G1 X104.226 Y176.763 E20.74949
G1 X104.006 Y177.61 E20.81935
G1 X103.665 Y178.629 E20.90512
G1 X103.304 Y179.511 E20.9812
G1 X103.181 Y179.768 E21.00394
G1 X102.688 Y180.716 E21.08924
G1 X102.17 Y181.563 E21.16849
G1 X101.497 Y182.491 E21.25999
G1 X100.817 Y183.3 E21.34436
G1 X100.074 Y184.062 E21.42931
G1 X99.259 Y184.782 E21.51612
G1 X98.491 Y185.376 E21.59362
G1 X97.526 Y186.006 E21.68561
G1 X96.747 Y186.443 E21.75691
G1 X95.714 Y186.935 E21.84825
G1 X94.625 Y187.344 E21.9411
G1 X93.88 Y187.574 E22.00334
G1 X93.631 Y187.639 E22.02388
G1 X92.725 Y187.84 E22.09796
G1 X91.61 Y188.011 E22.18801
G1 X90.465 Y188.091 E22.27963
G1 X90.072 Y188.098 E22.31101
G1 X83.993 Y188.099 E22.79626
G1 X82.855 Y188.051 E22.88718
G1 X81.791 Y187.929 E22.97267
G1 X80.764 Y187.732 E23.05614
G1 X79.696 Y187.446 E23.1444
G1 X78.688 Y187.094 E23.22963
G1 X77.901 Y186.76 E23.29787
G1 X76.93 Y186.269 E23.38473
G1 X76.028 Y185.727 E23.46873
G1 X75.08 Y185.058 E23.56135
G1 X74.202 Y184.319 E23.65295
G1 X73.549 Y183.691 E23.72527
G1 X72.838 Y182.906 E23.80982
G1 X72.183 Y182.066 E23.89484
G1 X71.579 Y181.169 E23.98117
G1 X70.982 Y180.103 E24.0787
G1 X70.59 Y179.266 E24.15247
G1 X70.215 Y178.296 E24.23549
G1 X69.879 Y177.204 E24.32669
G1 X69.631 Y176.071 E24.41927
G1 X69.501 Y175.185 E24.49075
G1 X69.408 Y173.94 E24.59041
G1 X69.4 Y173.442 E24.63017
G1 X69.4 Y146.514 E26.77968
G1 X69.437 Y145.515 E26.85948
G1 X69.571 Y144.29 E26.95784
G1 X69.768 Y143.264 E27.04124
G1 X70.05 Y142.207 E27.12857
G1 X70.402 Y141.196 E27.21402
G1 X70.777 Y140.312 E27.29067
G1 X71.306 Y139.295 E27.38218
G1 X71.772 Y138.529 E27.45375
G1 X72.44 Y137.584 E27.54613
G1 X73.177 Y136.705 E27.63769
G1 X73.799 Y136.059 E27.70928
G1 X74.594 Y135.338 E27.79495
G1 X75.434 Y134.683 E27.87998
G1 X76.325 Y134.083 E27.96572
G1 X77.392 Y133.484 E28.0634
G1 X78.211 Y133.099 E28.13564
G1 X79.204 Y132.715 E28.22062
G1 X80.21 Y132.405 E28.30465
G1 X81.28 Y132.159 E28.39229
G1 X82.304 Y132.003 E28.47498
G1 X83.558 Y131.908 E28.57536
G1 X85.031 Y131.9 E28.69295
G1 X85.69 Y131.856 E28.74567
G1 X86.341 Y131.732 E28.79857
G1 X86.982 Y131.523 E28.85239
G1 X87.593 Y131.237 E28.90624
G1 X88.189 Y130.859 E28.96257
G1 X88.726 Y130.409 E29.0185
G1 X89.196 Y129.901 E29.07375
G1 X89.565 Y129.385 E29.12438
G1 X89.907 Y128.754 E29.18167
G1 X90.146 Y128.14 E29.23427
G1 X90.316 Y127.448 E29.29115
G1 X90.399 Y126.527 E29.36497
G1 X90.401 Y47.514 E35.67213
G1 X90.437 Y46.515 E35.75192
G1 X90.571 Y45.29 E35.85029
G1 X90.768 Y44.264 E35.93369
G1 X91.05 Y43.207 E36.02101
G1 X91.402 Y42.196 E36.10646
G1 X91.777 Y41.312 E36.18312
G0 F9000 X91.877 Y42.096
G1 F1125 X129.199 Y79.418 E40.39635
G1 F1500 E33.89635
G0 F9000 X129.199 Y81.681
G1 F1500 E40.39635
G1 F1125 X91.307 Y43.789 E44.67392
G1 F1500 E38.17392
G0 F9000 X90.93 Y45.675
G1 F1500 E44.67392
G1 F1125 X129.199 Y83.944 E48.99406
G1 F1500 E42.49406
G0 F9000 X129.199 Y86.206
G1 F1500 E48.99406
G1 F1125 X90.799 Y47.807 E53.32893
G1 F1500 E46.82893
G0 F9000 X90.799 Y50.07
G1 F1500 E53.32893
G1 F1125 X129.199 Y88.469 E57.66379
G1 F1500 E51.16379
G0 F9000 X129.199 Y90.732
G1 F1500 E57.66379
G1 F1125 X90.799 Y52.332 E61.99872
G1 F1500 E55.49872
G0 F9000 X90.799 Y54.595
G1 F1500 E61.99872
G1 F1125 X129.199 Y92.995 E66.33364
G1 F1500 E59.83364
G0 F9000 X129.199 Y95.257
G1 F1500 E66.33364
G1 F1125 X90.799 Y56.858 E70.66851
G1 F1500 E64.16851
G0 F9000 X90.799 Y59.121
G1 F1500 E70.66851
G1 F1125 X129.199 Y97.52 E75.00338
G1 F1500 E68.50338
G0 F9000 X129.199 Y99.783
G1 F1500 E75.00338
G1 F1125 X90.799 Y61.383 E79.3383
G1 F1500 E72.8383
G0 F9000 X90.799 Y63.646
G1 F1500 E79.3383
G1 F1125 X129.199 Y102.046 E83.67322
G1 F1500 E77.17322
G0 F9000 X129.199 Y104.308
G1 F1500 E83.67322
G1 F1125 X90.799 Y65.909 E88.00809
G1 F1500 E81.50809
G0 F9000 X90.799 Y68.172
G1 F1500 E88.00809
G1 F1125 X129.199 Y106.571 E92.34296
G1 F1500 E85.84296
G0 F9000 X129.199 Y108.834
G1 F1500 E92.34296
G1 F1125 X90.799 Y70.434 E96.67788
G1 F1500 E90.17788
G0 F9000 X90.799 Y72.697
G1 F1500 E96.67788
G1 F1125 X129.199 Y111.097 E101.01281
G1 F1500 E94.51281
G0 F9000 X129.199 Y113.359
G1 F1500 E101.01281
G1 F1125 X90.799 Y74.96 E105.34767
G1 F1500 E98.84767
G0 F9000 X90.799 Y77.223
G1 F1500 E105.34767
G1 F1125 X129.199 Y115.622 E109.68254
G1 F1500 E103.18254
G0 F9000 X129.199 Y117.885
G1 F1500 E109.68254
G1 F1125 X90.799 Y79.485 E114.01746
G1 F1500 E107.51746
G0 F9000 X90.799 Y81.748
G1 F1500 E114.01746
G1 F1125 X129.199 Y120.148 E118.35239
G1 F1500 E111.85239
G0 F9000 X129.199 Y122.41
G1 F1500 E118.35239
G1 F1125 X90.799 Y84.011 E122.68726
G1 F1500 E116.18726
G0 F9000 X90.799 Y86.274
G1 F1500 E122.68726
G1 F1125 X129.199 Y124.673 E127.02212
G1 F1500 E120.52212
G0 F9000 X129.228 Y126.965
G1 F1500 E127.02212
G1 F1125 X90.798 Y88.536 E131.36038
G1 F1500 E124.86038
G0 F9000 X90.798 Y90.798
G1 F1500 E131.36038
G1 F1125 X150.199 Y150.199 E138.06607
G1 F1500 E131.56607
G0 F9000 X150.199 Y152.462
G1 F1500 E138.06607
G1 F1125 X90.798 Y93.061 E144.77177
G1 F1500 E138.27177
G0 F9000 X90.798 Y95.324
G1 F1500 E144.77177
G1 F1125 X150.199 Y154.724 E151.47741
G1 F1500 E144.97741
G0 F9000 X150.199 Y156.987
G1 F1500 E151.47741
G1 F1125 X90.798 Y97.587 E158.18306
G1 F1500 E151.68306
G0 F9000 X90.798 Y99.849
G1 F1500 E158.18306
G1 F1125 X150.199 Y159.25 E164.88875
G1 F1500 E158.38875
G0 F9000 X150.2 Y161.513
G1 F1500 E164.88875
G1 F1125 X90.798 Y102.112 E171.59451
G1 F1500 E165.09451
G0 F9000 X90.798 Y104.375
G1 F1500 E171.59451
G1 F1125 X150.2 Y163.776 E178.30026
G1 F1500 E171.80026
G0 F9000 X150.2 Y166.039
G1 F1500 E178.30026
G1 F1125 X90.798 Y106.638 E185.00602
G1 F1500 E178.50602
G0 F9000 X90.798 Y108.9
G1 F1500 E185.00602
G1 F1125 X150.2 Y168.302 E191.71183
G1 F1500 E185.21183
G0 F9000 X150.2 Y170.564
G1 F1500 E191.71183
G1 F1125 X90.798 Y111.163 E198.41758
G1 F1500 E191.91758
G0 F9000 X90.798 Y113.426
G1 F1500 E198.41758
G1 F1125 X150.2 Y172.827 E205.12334
G1 F1500 E198.62334
G0 F9000 X150.105 Y174.995
G1 F1500 E205.12334
G1 F1125 X90.798 Y115.689 E211.81837
G1 F1500 E205.31837
G0 F9000 X90.798 Y117.951
G1 F1500 E211.81837
G1 F1125 X149.77 Y176.923 E218.47564
G1 F1500 E211.97564
G0 F9000 X149.229 Y178.645
G1 F1500 E218.47564
G1 F1125 X90.798 Y120.214 E225.07183
G1 F1500 E218.57183
G0 F9000 X90.798 Y122.477
G1 F1500 E225.07183
G1 F1125 X148.51 Y180.189 E231.58686
G1 F1500 E225.08686
G0 F9000 X147.651 Y181.592
G1 F1500 E231.58686
G1 F1125 X90.798 Y124.74 E238.00487
G1 F1500 E231.50487
G0 F9000 X90.757 Y126.961
G1 F1500 E238.00487
G1 F1125 X146.661 Y182.864 E244.31574
G1 F1500 E237.81574
G0 F9000 X145.536 Y184.002
G1 F1500 E244.31574
G1 F1125 X90.32 Y128.787 E250.54894
G1 F1500 E244.04894
G0 F9000 X89.468 Y130.197
G1 F1500 E250.54894
G1 F1125 X144.29 Y185.019 E256.73772
G1 F1500 E250.23772
G0 F9000 X142.899 Y185.892
G1 F1500 E256.73772
G1 F1125 X88.281 Y131.273 E262.90353
G1 F1500 E256.40353
G0 F9000 X86.759 Y132.014
G1 F1500 E262.90353
G1 F1125 X141.375 Y186.63 E269.06905
G1 F1500 E262.56905
G0 F9000 X139.688 Y187.205
G1 F1500 E269.06905
G1 F1125 X84.782 Y132.3 E275.26726
G1 F1500 E268.76726
G0 F9000 X82.601 Y132.381
G1 F1500 E275.26726
G1 F1125 X137.795 Y187.575 E281.49804
G1 F1500 E274.99804
G0 F9000 X135.655 Y187.698
G1 F1500 E281.49804
G1 F1125 X80.667 Y132.71 E287.70556
G1 F1500 E281.20556
G0 F9000 X78.939 Y133.245
G1 F1500 E287.70556
G1 F1125 X133.392 Y187.698 E293.85268
G1 F1500 E287.35268
G0 F9000 X131.129 Y187.697
G1 F1500 E293.85268
G1 F1125 X115.645 Y172.213 E295.60065
G1 F1500 E289.10065
G0 F9000 X115.866 Y174.697
G1 F1500 E295.60065
G1 F1125 X128.81 Y187.642 E297.06194
G1 F1500 E290.56194
G0 F9000 X126.024 Y187.118
G1 F1500 E297.06194
G1 F1125 X116.38 Y177.474 E298.15064
G1 F1500 E291.65064
G0 F9000 X115.144 Y178.458
G0 X115.617 Y179.7
G0 X116.4 Y181.223
G0 X117.201 Y182.523
G0 X118.626 Y181.983
G1 F1500 E298.15064
G1 F1125 X121.522 Y184.879 E298.47756
G1 F1500 E291.97756
G0 F9000 X120.352 Y185.838
G0 X104.812 Y178.566
G0 X103.422 Y178.093
G1 F1500 E298.47756
G1 F1125 X69.938 Y144.608 E302.25758
G1 F1500 E295.75758
G0 F9000 X70.323 Y142.731
G1 F1500 E302.25758
G1 F1125 X103.905 Y176.313 E306.04861
G1 F1500 E299.54861
G0 F9000 X104.169 Y174.314
G1 F1500 E306.04861
G1 F1125 X70.899 Y141.044 E309.80441
G1 F1500 E303.30441
G0 F9000 X71.639 Y139.521
G1 F1500 E309.80441
G1 F1125 X104.344 Y172.227 E313.49649
G1 F1500 E306.99649
G0 F9000 X104.989 Y170.608
G1 F1500 E313.49649
G1 F1125 X72.529 Y138.148 E317.16086
G1 F1500 E310.66086
G0 F9000 X73.544 Y136.9
G1 F1500 E317.16086
G1 F1125 X105.981 Y169.337 E320.82263
G1 F1500 E314.32263
G0 F9000 X107.291 Y168.385
G1 F1500 E320.82263
G1 F1125 X74.693 Y135.787 E324.50257
G1 F1500 E318.00257
G0 F9000 X75.971 Y134.802
G1 F1500 E324.50257
G1 F1125 X108.972 Y167.804 E328.22806
G1 F1500 E321.72806
G0 F9000 X111.292 Y167.861
G1 F1500 E328.22806
G1 F1125 X77.38 Y133.948 E332.0564
G1 F1500 E325.5564
G0 F9000 X76.661 Y132.669
G0 X74.977 Y133.701
G0 X73.897 Y134.532
G0 X72.392 Y135.986
G0 X71.534 Y137.019
G0 X70.387 Y138.757
G0 X69.769 Y139.962
G0 X69.036 Y141.88
G0 X68.694 Y143.184
G0 X68.446 Y144.872
G0 X68.336 Y146.489
G0 X69.799 Y146.733
G1 F1500 E332.0564
G1 F1125 X102.766 Y179.699 E335.77794
G1 F1500 E329.27794
G0 F9000 X101.954 Y181.15
G1 F1500 E335.77794
G1 F1125 X69.799 Y148.995 E339.40788
G1 F1500 E332.90788
G0 F9000 X69.799 Y151.258
G1 F1500 E339.40788
G1 F1125 X101.001 Y182.459 E342.93017
G1 F1500 E336.43017
G0 F9000 X99.922 Y183.644
G1 F1500 E342.93017
G1 F1125 X69.799 Y153.521 E346.33072
G1 F1500 E339.83072
G0 F9000 X69.799 Y155.784
G1 F1500 E346.33072
G1 F1125 X98.713 Y184.697 E349.59472
G1 F1500 E343.09472
G0 F9000 X97.377 Y185.624
G1 F1500 E349.59472
G1 F1125 X69.799 Y158.046 E352.70797
G1 F1500 E346.20797
G0 F9000 X69.799 Y160.309
G1 F1500 E352.70797
G1 F1125 X95.894 Y186.404 E355.6538
G1 F1500 E349.1538
G0 F9000 X94.262 Y187.035
G1 F1500 E355.6538
G1 F1125 X69.799 Y162.572 E358.41539
G1 F1500 E351.91539
G0 F9000 X69.799 Y164.835
G1 F1500 E358.41539
G1 F1125 X92.442 Y187.478 E360.97153
G1 F1500 E354.47153
G0 F9000 X90.392 Y187.69
G1 F1500 E360.97153
G1 F1125 X69.799 Y167.097 E363.29624
G1 F1500 E356.79624
G0 F9000 X69.799 Y169.36
G1 F1500 E363.29624
G1 F1125 X88.136 Y187.697 E365.36628
G1 F1500 E358.86628
G0 F9000 X85.873 Y187.697
G1 F1500 E365.36628
G1 F1125 X69.799 Y171.623 E367.18085
G1 F1500 E360.68085
G0 F9000 X69.807 Y173.893
G1 F1500 E367.18085
G1 F1125 X83.594 Y187.68 E368.73725
G1 F1500 E362.23725
G0 F9000 X81.025 Y187.374
G1 F1500 E368.73725
G1 F1125 X70.13 Y176.479 E369.96717
G1 F1500 E363.46717
G0 F9000 X71.375 Y179.986
G1 F1500 E369.96717
G1 F1125 X77.492 Y186.104 E370.65777
G1 F1500 E364.15777
G0 F9000 X76.82 Y187.411
