;FLAVOR:Marlin
;TIME:14876
;Filament used: 10.1379m
;Layer height: 0.2
;MINX:68.335
;MINY:28.637
;MINZ:0.24
;MAXX:151.664
;MAXY:189.165
;MAXZ:44.29
;Generated with Cura_SteamEngine 5.4.0
M82 ;absolute extrusion mode
; Ender 3 Custom Start G-code
G92 E0 ; Reset Extruder
G28 ; Home all axes
M104 S175 ; Start heating up the nozzle most of the way
M190 S60 ; Start heating the bed, wait until target temperature reached
M109 S200 ; Finish heating the nozzle
G1 Z2.0 F3000 ; Move Z Axis up little to prevent scratching of Heat Bed
G1 X0.1 Y20 Z0.3 F5000.0 ; Move to start position
G1 X0.1 Y200.0 Z0.3 F1500.0 E15 ; Draw the first line
G1 X0.4 Y200.0 Z0.3 F5000.0 ; Move to side a little
G1 X0.4 Y20 Z0.3 F1500.0 E30 ; Draw the second line
G92 E0 ; Reset Extruder
G1 Z2.0 F3000 ; Move Z Axis up little to prevent scratching of Heat Bed
G1 X5 Y20 Z0.3 F5000.0 ; Move over to prevent blob squish
G92 E0
G92 E0
G1 F1500 E-6.5
;LAYER_COUNT:216
;LAYER:-6
M107
G0 F9000 X94.305 Y39.548 Z0.24
;TYPE:SUPPORT-INTERFACE
G1 F1500 E0
G1 F1125 X94.48 Y39.183 E0.03231
G1 X94.931 Y38.327 E0.10954
G1 X95.472 Y37.449 E0.19187
G1 X95.766 Y37.01 E0.23404
G1 X96.311 Y36.249 E0.30876
G1 X97.116 Y35.285 E0.40901
G1 X97.625 Y34.754 E0.46773
G1 X98.015 Y34.367 E0.51159
G1 X98.88 Y33.58 E0.60494
G1 X99.726 Y32.92 E0.69059
G1 X100.484 Y32.408 E0.7636
G1 X101.426 Y31.858 E0.85068
G1 X102.02 Y31.544 E0.90431
G1 X103.052 Y31.055 E0.99547
G1 X104.402 Y30.544 E1.11069
G1 X104.871 Y30.396 E1.14995
G1 X105.632 Y30.174 E1.21323
G1 X106.003 Y30.086 E1.24366
G1 X106.977 Y29.896 E1.32288
G1 X107.912 Y29.772 E1.39817
G1 X109.213 Y29.708 E1.50215
G1 X110.545 Y29.704 E1.60847
G1 X111.68 Y29.749 E1.69914
G1 X112.864 Y29.889 E1.79431
G1 X113.441 Y29.988 E1.84105
G1 X113.95 Y30.096 E1.88258
G1 X114.906 Y30.331 E1.96116
G1 X116.123 Y30.722 E2.0632
G1 X117.575 Y31.338 E2.18911
G1 X117.862 Y31.477 E2.21456
G1 X118.853 Y32.006 E2.30423
G1 X119.762 Y32.58 E2.39005
G1 X120.532 Y33.14 E2.46605
G1 X121.089 Y33.583 E2.52286
G1 X121.781 Y34.171 E2.59535
G1 X122.542 Y34.907 E2.67985
G1 X122.706 Y35.08 E2.69888
G1 X123.206 Y35.546 E2.75344
G1 X123.597 Y35.838 E2.7924
G1 X124.002 Y36.119 E2.83174
G1 X124.776 Y36.727 E2.91031
G1 X125.605 Y37.489 E3.00019
G1 X126.002 Y37.882 E3.04479
G1 X126.743 Y38.69 E3.1323
G1 X127.484 Y39.623 E3.22741
G1 X128.105 Y40.518 E3.31436
G1 X128.941 Y41.98 E3.4488
G1 X129.525 Y43.216 E3.55792
G1 X129.888 Y44.167 E3.63917
G1 X130.272 Y45.485 E3.74876
G1 X130.434 Y46.187 E3.80627
G1 X130.571 Y46.849 E3.86023
G1 X130.73 Y47.978 E3.95124
G1 X130.798 Y49.353 E4.06113
G1 X130.8 Y50.612 E4.16163
G1 X130.763 Y51.611 E4.24143
G1 X130.646 Y52.736 E4.33172
G1 X130.369 Y54.148 E4.44658
G1 X130.3 Y54.418 E4.46882
G1 X129.891 Y55.797 E4.58364
G1 X129.753 Y56.183 E4.61636
G1 X129.335 Y57.241 E4.70717
G1 X128.824 Y58.279 E4.79952
G1 X128.373 Y59.063 E4.87172
G1 X128.066 Y59.653 E4.92481
G1 X127.826 Y60.302 E4.98005
G1 X127.672 Y60.979 E5.03547
G1 X127.601 Y61.816 E5.10252
G1 X127.6 Y95.307 E7.77592
G1 X127.644 Y95.96 E7.82816
G1 X127.768 Y96.611 E7.88106
G1 X127.982 Y97.265 E7.93599
G1 X128.292 Y97.915 E7.99348
G1 X128.783 Y98.853 E8.07799
G1 X129.104 Y99.529 E8.13772
G1 X129.481 Y100.393 E8.21297
G1 X129.585 Y100.652 E8.23525
G1 X129.863 Y101.446 E8.3024
G1 X130.148 Y102.506 E8.39002
G1 X130.386 Y103.734 E8.48987
G1 X130.457 Y104.259 E8.53216
G1 X130.57 Y105.424 E8.62559
G1 X130.599 Y106.357 E8.70011
G1 X130.598 Y107.944 E8.82679
G1 X130.557 Y109.081 E8.91761
G1 X130.425 Y110.223 E9.00937
G1 X130.22 Y111.279 E9.09524
G1 X129.976 Y112.209 E9.17199
G1 X129.51 Y113.528 E9.28366
G1 X129.242 Y114.189 E9.34059
G1 X128.793 Y115.183 E9.42766
G1 X128.335 Y116.027 E9.50431
G1 X128.044 Y116.602 E9.55575
G1 X127.806 Y117.267 E9.61213
G1 X127.664 Y117.913 E9.66493
G1 X127.601 Y118.717 E9.7293
G1 X127.6 Y126.495 E10.35018
G1 X127.644 Y127.183 E10.40521
G1 X127.77 Y127.843 E10.45884
G1 X127.977 Y128.476 E10.51201
G1 X128.263 Y129.087 E10.56586
G1 X128.645 Y129.688 E10.6227
G1 X129.082 Y130.211 E10.67711
G1 X129.578 Y130.672 E10.73116
G1 X130.126 Y131.067 E10.78508
G1 X130.737 Y131.397 E10.84051
G1 X131.381 Y131.647 E10.89566
G1 X132.036 Y131.808 E10.9495
G1 X132.956 Y131.893 E11.02325
G1 X135.957 Y131.9 E11.2628
G1 X137.181 Y131.952 E11.3606
G1 X138.063 Y132.051 E11.43144
G1 X139.193 Y132.254 E11.52309
G1 X140.3 Y132.551 E11.61458
G1 X141.169 Y132.85 E11.68794
G1 X142.037 Y133.21 E11.76295
G1 X142.367 Y133.368 E11.79216
G1 X143.239 Y133.826 E11.87078
G1 X144.159 Y134.398 E11.95725
G1 X144.886 Y134.919 E12.02865
G1 X145.816 Y135.698 E12.12549
G1 X146.583 Y136.447 E12.21107
G1 X147.298 Y137.26 E12.29749
G1 X147.931 Y138.093 E12.381
G1 X148.51 Y138.981 E12.46562
G1 X148.943 Y139.754 E12.53635
G1 X149.404 Y140.723 E12.62201
G1 X149.823 Y141.801 E12.71433
G1 X150.147 Y142.907 E12.80632
G1 X150.376 Y143.965 E12.89273
G1 X150.511 Y144.905 E12.96854
G1 X150.6 Y146.557 E13.1006
G1 X150.6 Y173.486 E15.25019
G1 X150.563 Y174.485 E15.32999
G1 X150.429 Y175.71 E15.42836
G1 X150.232 Y176.737 E15.51183
G1 X150.005 Y177.61 E15.58383
G1 X149.644 Y178.693 E15.67496
G1 X149.223 Y179.687 E15.76113
G1 X148.694 Y180.705 E15.85271
G1 X148.228 Y181.471 E15.92428
G1 X147.56 Y182.416 E16.01666
G1 X146.823 Y183.295 E16.10822
G1 X146.201 Y183.941 E16.17981
G1 X145.406 Y184.662 E16.26548
G1 X144.566 Y185.317 E16.35051
G1 X143.675 Y185.917 E16.43625
G1 X142.608 Y186.516 E16.53393
G1 X141.791 Y186.9 E16.60599
G1 X140.796 Y187.285 E16.69115
G1 X139.79 Y187.595 E16.77518
G1 X138.72 Y187.841 E16.86282
G1 X137.696 Y187.997 E16.94551
G1 X136.44 Y188.092 E17.04605
G1 X135.936 Y188.1 E17.08629
G1 X129.993 Y188.099 E17.56068
G1 X128.855 Y188.051 E17.6516
G1 X127.791 Y187.929 E17.73709
G1 X126.764 Y187.732 E17.82057
G1 X125.696 Y187.446 E17.90882
G1 X124.688 Y187.094 E17.99405
G1 X123.901 Y186.76 E18.0623
G1 X122.93 Y186.269 E18.14915
G1 X122.028 Y185.727 E18.23315
G1 X121.08 Y185.058 E18.32577
G1 X120.202 Y184.319 E18.41738
G1 X119.549 Y183.691 E18.4897
G1 X118.838 Y182.906 E18.57424
G1 X118.183 Y182.066 E18.65927
G1 X117.579 Y181.169 E18.74559
G1 X116.982 Y180.103 E18.84312
G1 X116.59 Y179.266 E18.9169
G1 X116.215 Y178.296 E18.99991
G1 X115.879 Y177.204 E19.09111
G1 X115.631 Y176.071 E19.1837
G1 X115.491 Y175.12 E19.26043
G1 X115.359 Y172.837 E19.44297
G1 X115.228 Y172.151 E19.49872
G1 X115.011 Y171.493 E19.55403
G1 X114.721 Y170.884 E19.60787
G1 X114.35 Y170.306 E19.66269
G1 X113.914 Y169.786 E19.71686
G1 X113.423 Y169.329 E19.77041
G1 X112.874 Y168.934 E19.82439
G1 X112.263 Y168.604 E19.87983
G1 X111.619 Y168.354 E19.93497
G1 X110.964 Y168.192 E19.98883
G1 X110.281 Y168.114 E20.04371
G1 X109.614 Y168.121 E20.09695
G1 X108.939 Y168.212 E20.15132
G1 X108.259 Y168.394 E20.20751
G1 X107.637 Y168.65 E20.2612
G1 X107.061 Y168.977 E20.31407
G1 X106.495 Y169.398 E20.37038
G1 X106.009 Y169.868 E20.42435
G1 X105.575 Y170.413 E20.47996
G1 X105.217 Y171 E20.53485
G1 X104.941 Y171.617 E20.5888
G1 X104.741 Y172.279 E20.64401
G1 X104.633 Y172.913 E20.69534
G1 X104.601 Y173.391 E20.73358
G1 X104.561 Y174.569 E20.82767
G1 X104.431 Y175.698 E20.91839
G1 X104.226 Y176.763 E21.00496
G1 X104.006 Y177.61 E21.07482
G1 X103.665 Y178.629 E21.16059
G1 X103.304 Y179.511 E21.23667
G1 X103.181 Y179.768 E21.25941
G1 X102.688 Y180.716 E21.3447
G1 X102.17 Y181.563 E21.42396
G1 X101.497 Y182.491 E21.51546
G1 X100.817 Y183.3 E21.59982
G1 X100.074 Y184.062 E21.68478
G1 X99.259 Y184.782 E21.77159
G1 X98.491 Y185.376 E21.84909
G1 X97.526 Y186.006 E21.94108
G1 X96.747 Y186.443 E22.01238
G1 X95.714 Y186.935 E22.10371
G1 X94.625 Y187.344 E22.19657
G1 X93.88 Y187.574 E22.25881
G1 X93.631 Y187.639 E22.27935
G1 X92.725 Y187.84 E22.35343
G1 X91.61 Y188.011 E22.44348
G1 X90.465 Y188.091 E22.5351
G1 X90.072 Y188.098 E22.56647
G1 X83.993 Y188.099 E23.05173
G1 X82.855 Y188.051 E23.14265
G1 X81.791 Y187.929 E23.22814
G1 X80.764 Y187.732 E23.31161
G1 X79.696 Y187.446 E23.39987
G1 X78.688 Y187.094 E23.48509
G1 X77.901 Y186.76 E23.55334
G1 X76.93 Y186.269 E23.6402
G1 X76.028 Y185.727 E23.7242
G1 X75.08 Y185.058 E23.81681
G1 X74.202 Y184.319 E23.90842
G1 X73.549 Y183.691 E23.98074
G1 X72.838 Y182.906 E24.06528
G1 X72.183 Y182.066 E24.15031
G1 X71.579 Y181.169 E24.23663
G1 X70.982 Y180.103 E24.33416
G1 X70.59 Y179.266 E24.40794
G1 X70.215 Y178.296 E24.49095
G1 X69.879 Y177.204 E24.58216
G1 X69.631 Y176.071 E24.67474
G1 X69.501 Y175.185 E24.74622
G1 X69.408 Y173.94 E24.84588
G1 X69.4 Y173.442 E24.88564
G1 X69.4 Y146.514 E27.03515
G1 X69.437 Y145.515 E27.11494
G1 X69.571 Y144.29 E27.21331
G1 X69.768 Y143.264 E27.29671
G1 X70.05 Y142.207 E27.38403
G1 X70.402 Y141.196 E27.46949
G1 X70.777 Y140.312 E27.54614
G1 X71.306 Y139.295 E27.63765
G1 X71.772 Y138.529 E27.70922
G1 X72.44 Y137.584 E27.80159
G1 X73.177 Y136.705 E27.89316
G1 X73.799 Y136.059 E27.96474
G1 X74.594 Y135.338 E28.05042
G1 X75.434 Y134.683 E28.13544
G1 X76.325 Y134.083 E28.22119
G1 X77.392 Y133.484 E28.31887
G1 X78.211 Y133.099 E28.39111
G1 X79.204 Y132.715 E28.47609
G1 X80.21 Y132.405 E28.56012
G1 X81.28 Y132.159 E28.64776
G1 X82.304 Y132.003 E28.73044
G1 X83.56 Y131.908 E28.83099
G1 X83.961 Y131.901 E28.863
G1 X87.031 Y131.9 E29.10807
G1 X87.67 Y131.859 E29.15918
G1 X88.336 Y131.733 E29.21328
G1 X88.999 Y131.517 E29.26895
G1 X89.616 Y131.225 E29.32343
G1 X90.184 Y130.862 E29.37724
G1 X90.716 Y130.419 E29.4325
G1 X91.186 Y129.913 E29.48763
G1 X91.569 Y129.38 E29.54002
G1 X91.891 Y128.787 E29.59389
G1 X92.146 Y128.14 E29.6494
G1 X92.316 Y127.448 E29.70628
G1 X92.399 Y126.531 E29.77978
G1 X92.4 Y47.514 E36.08726
G1 X92.437 Y46.515 E36.16706
G1 X92.571 Y45.29 E36.26543
G1 X92.768 Y44.263 E36.3489
G1 X92.999 Y43.375 E36.42214
G1 X93.235 Y42.675 E36.48111
G1 X93.522 Y41.728 E36.5601
G1 X93.656 Y41.25 E36.59973
G1 X93.939 Y40.43 E36.66897
G1 X94.305 Y39.548 E36.7452
G0 F9000 X94.477 Y40.172
G1 F1125 X127.2 Y72.894 E40.4392
G1 F1500 E33.9392
G0 F9000 X127.2 Y75.156
G1 F1500 E40.4392
G1 F1125 X93.9 Y41.857 E44.19833
G1 F1500 E37.69833
G0 F9000 X93.358 Y43.578
G1 F1500 E44.19833
G1 F1125 X127.2 Y77.419 E48.01865
G1 F1500 E41.51865
G0 F9000 X127.2 Y79.683
G1 F1500 E48.01865
G1 F1125 X92.956 Y45.438 E51.88447
G1 F1500 E45.38447
G0 F9000 X92.799 Y47.544
G1 F1500 E51.88447
G1 F1125 X127.2 Y81.945 E55.76795
G1 F1500 E49.26795
G0 F9000 X127.2 Y84.208
G1 F1500 E55.76795
G1 F1125 X92.799 Y49.807 E59.65143
G1 F1500 E53.15143
G0 F9000 X92.799 Y52.069
G1 F1500 E59.65143
G1 F1125 X127.2 Y86.471 E63.53497
G1 F1500 E57.03497
G0 F9000 X127.2 Y88.734
G1 F1500 E63.53497
G1 F1125 X92.799 Y54.332 E67.41851
G1 F1500 E60.91851
G0 F9000 X92.799 Y56.595
G1 F1500 E67.41851
G1 F1125 X127.2 Y90.996 E71.30199
G1 F1500 E64.80199
G0 F9000 X127.2 Y93.259
G1 F1500 E71.30199
G1 F1125 X92.799 Y58.858 E75.18547
G1 F1500 E68.68547
G0 F9000 X92.799 Y61.12
G1 F1500 E75.18547
G1 F1125 X127.214 Y95.536 E79.07059
G1 F1500 E72.57059
G0 F9000 X128.397 Y98.982
G1 F1500 E79.07059
G1 F1125 X92.799 Y63.383 E83.08926
G1 F1500 E76.58926
G0 F9000 X92.799 Y65.646
G1 F1500 E83.08926
G1 F1125 X129.759 Y102.606 E87.26162
G1 F1500 E80.76162
G0 F9000 X130.152 Y105.262
G1 F1500 E87.26162
G1 F1125 X92.799 Y67.909 E91.47835
G1 F1500 E84.97835
G0 F9000 X92.799 Y70.171
G1 F1500 E91.47835
G1 F1125 X130.197 Y107.57 E95.70022
G1 F1500 E89.20022
G0 F9000 X130.08 Y109.716
G1 F1500 E95.70022
G1 F1125 X92.799 Y72.434 E99.90888
G1 F1500 E93.40888
G0 F9000 X92.799 Y74.697
G1 F1500 E99.90888
G1 F1125 X129.717 Y111.615 E104.0765
G1 F1500 E97.5765
G0 F9000 X129.158 Y113.319
G1 F1500 E104.0765
G1 F1125 X92.799 Y76.96 E108.18102
G1 F1500 E101.68102
G0 F9000 X92.799 Y79.222
G1 F1500 E108.18102
G1 F1125 X128.479 Y114.903 E112.20894
G1 F1500 E105.70894
G0 F9000 X127.704 Y116.391
G1 F1500 E112.20894
G1 F1125 X92.799 Y81.485 E116.14937
G1 F1500 E109.64937
G0 F9000 X92.799 Y83.748
G1 F1500 E116.14937
G1 F1125 X127.239 Y118.188 E120.03726
G1 F1500 E113.53726
G0 F9000 X127.199 Y120.411
G1 F1500 E120.03726
G1 F1125 X92.799 Y86.011 E123.92063
G1 F1500 E117.42063
G0 F9000 X92.799 Y88.273
G1 F1500 E123.92063
G1 F1125 X127.199 Y122.673 E127.804
G1 F1500 E121.304
G0 F9000 X127.199 Y124.936
G1 F1500 E127.804
G1 F1125 X92.799 Y90.536 E131.68737
G1 F1500 E125.18737
G0 F9000 X92.799 Y92.799
G1 F1500 E131.68737
G1 F1125 X127.248 Y127.248 E135.57627
G1 F1500 E129.07627
G0 F9000 X128.804 Y127.58
G0 X132.223 Y130.758
G0 X132.226 Y132.226
G1 F1500 E135.57627
G1 F1125 X150.2 Y150.2 E137.60533
G1 F1500 E131.10533
G0 F9000 X150.2 Y152.462
G1 F1500 E137.60533
G1 F1125 X92.799 Y95.062 E144.08519
G1 F1500 E137.58519
G0 F9000 X92.799 Y97.324
G1 F1500 E144.08519
G1 F1125 X150.2 Y154.725 E150.56511
G1 F1500 E144.06511
G0 F9000 X150.2 Y156.988
G1 F1500 E150.56511
G1 F1125 X92.799 Y99.587 E157.04503
G1 F1500 E150.54503
G0 F9000 X92.799 Y101.85
G1 F1500 E157.04503
G1 F1125 X150.2 Y159.251 E163.52495
G1 F1500 E157.02495
G0 F9000 X150.2 Y161.513
G1 F1500 E163.52495
G1 F1125 X92.799 Y104.112 E170.00488
G1 F1500 E163.50488
G0 F9000 X92.799 Y106.375
G1 F1500 E170.00488
G1 F1125 X150.2 Y163.776 E176.4848
G1 F1500 E169.9848
G0 F9000 X150.2 Y166.039
G1 F1500 E176.4848
G1 F1125 X92.799 Y108.638 E182.96472
G1 F1500 E176.46472
G0 F9000 X92.799 Y110.901
G1 F1500 E182.96472
G1 F1125 X150.2 Y168.302 E189.44464
G1 F1500 E182.94464
G0 F9000 X150.2 Y170.564
G1 F1500 E189.44464
G1 F1125 X92.799 Y113.163 E195.92456
G1 F1500 E189.42456
G0 F9000 X92.799 Y115.426
G1 F1500 E195.92456
G1 F1125 X150.2 Y172.827 E202.40448
G1 F1500 E195.90448
G0 F9000 X150.105 Y174.995
G1 F1500 E202.40448
G1 F1125 X92.799 Y117.689 E208.87368
G1 F1500 E202.37368
G0 F9000 X92.799 Y119.952
G1 F1500 E208.87368
G1 F1125 X149.77 Y176.923 E215.30506
G1 F1500 E208.80506
G0 F9000 X149.229 Y178.645
G1 F1500 E215.30506
G1 F1125 X92.799 Y122.214 E221.67542
G1 F1500 E215.17542
G0 F9000 X92.799 Y124.477
G1 F1500 E221.67542
G1 F1125 X148.51 Y180.189 E227.96461
G1 F1500 E221.46461
G0 F9000 X147.651 Y181.592
G1 F1500 E227.96461
G1 F1125 X92.783 Y126.724 E234.15859
G1 F1500 E227.65859
G0 F9000 X92.393 Y128.597
G1 F1500 E234.15859
G1 F1125 X146.661 Y182.864 E240.28477
G1 F1500 E233.78477
G0 F9000 X145.536 Y184.002
G1 F1500 E240.28477
G1 F1125 X91.58 Y130.046 E246.37579
G1 F1500 E239.87579
G0 F9000 X90.44 Y131.169
G1 F1500 E246.37579
G1 F1125 X144.29 Y185.019 E252.45485
G1 F1500 E245.95485
G0 F9000 X142.899 Y185.892
G1 F1500 E252.45485
G1 F1125 X88.956 Y131.948 E258.54445
G1 F1500 E252.04445
G0 F9000 X87.044 Y132.298
G1 F1500 E258.54445
G1 F1125 X141.375 Y186.63 E264.67786
G1 F1500 E258.17786
G0 F9000 X139.688 Y187.205
G1 F1500 E264.67786
G1 F1125 X84.787 Y132.304 E270.87556
G1 F1500 E264.37556
G0 F9000 X82.601 Y132.381
G1 F1500 E270.87556
G1 F1125 X137.795 Y187.575 E277.10634
G1 F1500 E270.60634
G0 F9000 X135.655 Y187.698
G1 F1500 E277.10634
G1 F1125 X80.667 Y132.71 E283.31386
G1 F1500 E276.81386
G0 F9000 X78.939 Y133.245
G1 F1500 E283.31386
G1 F1125 X133.392 Y187.698 E289.46098
G1 F1500 E282.96098
G0 F9000 X131.129 Y187.697
G1 F1500 E289.46098
G1 F1125 X115.645 Y172.213 E291.20895
G1 F1500 E284.70895
G0 F9000 X115.866 Y174.697
G1 F1500 E291.20895
G1 F1125 X128.81 Y187.642 E292.67024
G1 F1500 E286.17024
G0 F9000 X126.024 Y187.118
G1 F1500 E292.67024
G1 F1125 X116.38 Y177.474 E293.75894
G1 F1500 E287.25894
G0 F9000 X115.144 Y178.458
G0 X115.617 Y179.7
G0 X116.4 Y181.223
G0 X117.201 Y182.523
G0 X118.626 Y181.983
G1 F1500 E293.75894
G1 F1125 X121.522 Y184.879 E294.08586
G1 F1500 E287.58586
G0 F9000 X120.352 Y185.838
G0 X104.812 Y178.566
G0 X103.422 Y178.093
G1 F1500 E294.08586
G1 F1125 X69.938 Y144.608 E297.86588
G1 F1500 E291.36588
G0 F9000 X70.323 Y142.731
G1 F1500 E297.86588
G1 F1125 X103.905 Y176.313 E301.65691
G1 F1500 E295.15691
G0 F9000 X104.169 Y174.314
G1 F1500 E301.65691
G1 F1125 X70.899 Y141.044 E305.41271
G1 F1500 E298.91271
G0 F9000 X71.639 Y139.521
G1 F1500 E305.41271
G1 F1125 X104.344 Y172.227 E309.10479
G1 F1500 E302.60479
G0 F9000 X104.989 Y170.608
G1 F1500 E309.10479
G1 F1125 X72.529 Y138.148 E312.76916
G1 F1500 E306.26916
G0 F9000 X73.544 Y136.9
G1 F1500 E312.76916
G1 F1125 X105.981 Y169.337 E316.43093
G1 F1500 E309.93093
G0 F9000 X107.292 Y168.386
