;FLAVOR:Marlin
;TIME:31172
;Filament used: 21.018m
;Layer height: 0.2
;MINX:68.751
;MINY:11.928
;MINZ:0.24
;MAXX:151.914
;MAXY:209.902
;MAXZ:44.29
;Generated with Cura_SteamEngine 5.4.0
M82 ;absolute extrusion mode
; Ender 3 Custom Start G-code
G92 E0 ; Reset Extruder
G28 ; Home all axes
M104 S175 ; Start heating up the nozzle most of the way
M190 S60 ; Start heating the bed, wait until target temperature reached
M109 S200 ; Finish heating the nozzle
G1 Z2.0 F3000 ; Move Z Axis up little to prevent scratching of Heat Bed
G1 X0.1 Y20 Z0.3 F5000.0 ; Move to start position
G1 X0.1 Y200.0 Z0.3 F1500.0 E15 ; Draw the first line
G1 X0.4 Y200.0 Z0.3 F5000.0 ; Move to side a little
G1 X0.4 Y20 Z0.3 F1500.0 E30 ; Draw the second line
G92 E0 ; Reset Extruder
G1 Z2.0 F3000 ; Move Z Axis up little to prevent scratching of Heat Bed
G1 X5 Y20 Z0.3 F5000.0 ; Move over to prevent blob squish
G92 E0
G92 E0
G1 F1500 E-6.5
;LAYER_COUNT:216
;LAYER:-6
M107
G0 F9000 X92.3 Y24.8 Z0.24
;TYPE:SUPPORT-INTERFACE
G1 F1500 E0
G1 F1125 X92.652 Y23.789 E0.08545
G1 X93.027 Y22.905 E0.16211
G1 X93.556 Y21.888 E0.25361
G1 X94.022 Y21.122 E0.32518
G1 X94.69 Y20.177 E0.41756
G1 X95.427 Y19.298 E0.50913
G1 X96.049 Y18.652 E0.58071
G1 X96.844 Y17.931 E0.66638
G1 X97.796 Y17.196 E0.76239
G1 X98.222 Y16.911 E0.8033
G1 X99.685 Y15.776 E0.95111
G1 X100.575 Y15.176 E1.03679
G1 X101.642 Y14.577 E1.13446
G1 X102.461 Y14.192 E1.2067
G1 X103.454 Y13.808 E1.29169
G1 X104.46 Y13.498 E1.37572
G1 X105.53 Y13.252 E1.46336
G1 X106.554 Y13.096 E1.54604
G1 X107.81 Y13.001 E1.64659
G1 X108.209 Y12.994 E1.67844
G1 X111.257 Y12.994 E1.92175
G1 X112.395 Y13.042 E2.01267
G1 X113.458 Y13.164 E2.09808
G1 X114.486 Y13.361 E2.18163
G1 X115.554 Y13.647 E2.26989
G1 X116.553 Y13.995 E2.35433
G1 X117.443 Y14.373 E2.43152
G1 X118.455 Y14.899 E2.52256
G1 X119.221 Y15.365 E2.59413
G1 X120.171 Y16.035 E2.68693
G1 X120.744 Y16.512 E2.74644
G1 X121.188 Y16.845 E2.79074
G1 X121.38 Y16.971 E2.80908
G1 X122.231 Y17.588 E2.89298
G1 X123.045 Y18.271 E2.9778
G1 X123.691 Y18.893 E3.04939
G1 X124.404 Y19.678 E3.13404
G1 X125.067 Y20.528 E3.22009
G1 X125.667 Y21.419 E3.30583
G1 X126.266 Y22.486 E3.40351
G1 X126.648 Y23.298 E3.47514
G1 X127.031 Y24.286 E3.55973
G1 X127.371 Y25.391 E3.65201
G1 X127.617 Y26.509 E3.74339
G1 X127.765 Y27.57 E3.82891
G1 X127.842 Y28.642 E3.9147
G1 X127.849 Y29.039 E3.94639
G1 X127.846 Y35.445 E4.45775
G1 X127.866 Y36.124 E4.51197
G1 X127.97 Y36.769 E4.56412
G1 X128.165 Y37.452 E4.62082
G1 X128.376 Y37.949 E4.66392
G1 X128.62 Y38.444 E4.70797
G1 X128.726 Y38.687 E4.72914
G1 X129.102 Y39.633 E4.8104
G1 X129.43 Y40.706 E4.89996
G1 X129.608 Y41.43 E4.95947
G1 X129.759 Y42.181 E5.02062
G1 X129.828 Y42.577 E5.05271
G1 X129.993 Y43.25 E5.10802
G1 X130.23 Y43.87 E5.16101
G1 X130.553 Y44.478 E5.21596
G1 X130.938 Y45.019 E5.26897
G1 X131.398 Y45.522 E5.32338
G1 X131.925 Y45.969 E5.37854
G1 X132.505 Y46.346 E5.43376
G1 X133.009 Y46.595 E5.47863
G1 X133.359 Y46.743 E5.50896
G1 X134.456 Y47.307 E5.60743
G1 X135.221 Y47.772 E5.67889
G1 X136.166 Y48.44 E5.77127
G1 X137.045 Y49.177 E5.86283
G1 X137.691 Y49.799 E5.93442
G1 X138.404 Y50.584 E6.01907
G1 X139.067 Y51.434 E6.10512
G1 X139.667 Y52.325 E6.19086
G1 X140.266 Y53.392 E6.28854
G1 X140.648 Y54.204 E6.36017
G1 X141.031 Y55.192 E6.44476
G1 X141.371 Y56.297 E6.53704
G1 X141.617 Y57.415 E6.62842
G1 X141.765 Y58.476 E6.71394
G1 X141.842 Y59.548 E6.79973
G1 X141.847 Y59.822 E6.8216
G1 X141.899 Y60.467 E6.87326
G1 X141.967 Y60.997 E6.91591
G1 X142.042 Y62.048 E7.00002
G1 X142.049 Y62.448 E7.03195
G1 X142.05 Y84.984 E8.83087
G1 X142.041 Y85.224 E8.85005
G1 X142.057 Y85.891 E8.9033
G1 X142.164 Y86.59 E8.95975
G1 X142.353 Y87.249 E9.01448
G1 X142.635 Y87.894 E9.07067
G1 X142.95 Y88.431 E9.12037
G1 X143.385 Y88.995 E9.17722
G1 X143.856 Y89.467 E9.23045
G1 X144.287 Y89.812 E9.27452
G1 X145.251 Y90.512 E9.36962
G1 X146.055 Y91.187 E9.45341
G1 X146.686 Y91.793 E9.52325
G1 X147.41 Y92.592 E9.60932
G1 X148.076 Y93.443 E9.69558
G1 X148.663 Y94.321 E9.77988
G1 X149.187 Y95.24 E9.86433
G1 X149.693 Y96.303 E9.95831
G1 X150.066 Y97.281 E10.04186
G1 X150.39 Y98.38 E10.13332
G1 X150.62 Y99.435 E10.21951
G1 X150.76 Y100.39 E10.29656
G1 X150.842 Y101.548 E10.38923
G1 X150.849 Y101.949 E10.42124
G1 X150.85 Y168.488 E15.73267
G1 X150.813 Y169.487 E15.81247
G1 X150.679 Y170.712 E15.91084
G1 X150.482 Y171.742 E15.99455
G1 X150.38 Y172.389 E16.04683
G1 X150.354 Y172.935 E16.09047
G1 X150.455 Y188.826 E17.35898
G1 X150.522 Y189.618 E17.42243
G1 X150.686 Y190.81 E17.51847
G1 X150.75 Y192.249 E17.63346
G1 X150.75 Y192.948 E17.68925
G1 X150.713 Y193.947 E17.76905
G1 X150.579 Y195.172 E17.86742
G1 X150.385 Y196.202 E17.95108
G1 X150.208 Y196.9 E18.00857
G1 X149.886 Y197.947 E18.096
G1 X149.503 Y198.935 E18.18059
G1 X149.113 Y199.762 E18.25358
G1 X148.608 Y200.671 E18.33658
G1 X147.967 Y201.65 E18.42999
G1 X147.147 Y202.692 E18.53584
G1 X146.332 Y203.585 E18.63234
G1 X145.479 Y204.375 E18.72515
G1 X144.66 Y205.031 E18.80891
G1 X143.789 Y205.63 E18.89329
G1 X142.927 Y206.14 E18.97324
G1 X142.375 Y206.408 E19.02222
G1 X140.859 Y207.252 E19.16073
G1 X140.041 Y207.637 E19.23289
G1 X139.046 Y208.022 E19.31806
G1 X138.04 Y208.332 E19.40209
G1 X136.97 Y208.578 E19.48973
G1 X135.946 Y208.734 E19.57241
G1 X134.69 Y208.829 E19.67296
G1 X134.291 Y208.836 E19.70481
G1 X131.238 Y208.836 E19.94852
G1 X130.1 Y208.788 E20.03944
G1 X129.036 Y208.666 E20.12493
G1 X128.009 Y208.469 E20.2084
G1 X126.941 Y208.183 E20.29666
G1 X125.933 Y207.831 E20.38188
G1 X125.145 Y207.497 E20.4502
G1 X124.3 Y207.078 E20.52549
G1 X124.043 Y206.933 E20.54905
G1 X123.544 Y206.629 E20.59569
G1 X123.127 Y206.402 E20.63359
G1 X122.55 Y206.114 E20.68506
G1 X121.726 Y205.643 E20.76083
G1 X120.735 Y204.956 E20.85708
G1 X119.918 Y204.298 E20.94082
G1 X119.132 Y203.565 E21.02661
G1 X118.53 Y202.924 E21.09681
G1 X117.791 Y202.021 E21.18995
G1 X117.133 Y201.061 E21.28285
G1 X116.602 Y200.147 E21.36723
G1 X116.188 Y199.322 E21.44091
G1 X115.86 Y198.554 E21.50758
G1 X115.481 Y197.517 E21.59571
G1 X115.189 Y196.501 E21.68009
G1 X115.125 Y196.251 E21.70069
G1 X115.046 Y195.83 E21.73489
G1 X114.86 Y195.147 E21.79139
G1 X114.597 Y194.516 E21.84596
G1 X114.268 Y193.937 E21.89912
G1 X113.847 Y193.375 E21.95517
G1 X113.39 Y192.906 E22.00744
G1 X112.848 Y192.473 E22.06282
G1 X112.269 Y192.121 E22.11691
G1 X111.648 Y191.841 E22.17128
G1 X110.989 Y191.64 E22.22628
G1 X110.341 Y191.531 E22.27873
G1 X109.653 Y191.5 E22.33371
G1 X108.939 Y191.56 E22.3909
G1 X108.271 Y191.704 E22.44545
G1 X107.66 Y191.919 E22.49716
G1 X107.021 Y192.239 E22.5542
G1 X106.451 Y192.621 E22.60898
G1 X105.93 Y193.081 E22.66445
G1 X105.499 Y193.568 E22.71637
G1 X105.113 Y194.133 E22.77099
G1 X104.8 Y194.741 E22.82557
G1 X104.574 Y195.369 E22.87885
G1 X104.446 Y195.888 E22.92152
G1 X104.385 Y196.202 E22.94705
G1 X104.208 Y196.9 E23.00454
G1 X103.886 Y197.947 E23.09198
G1 X103.503 Y198.935 E23.17656
G1 X103.113 Y199.762 E23.24955
G1 X102.608 Y200.671 E23.33255
G1 X101.967 Y201.65 E23.42596
G1 X101.147 Y202.692 E23.53181
G1 X100.332 Y203.585 E23.62831
G1 X99.479 Y204.375 E23.72112
G1 X98.66 Y205.031 E23.80488
G1 X97.789 Y205.63 E23.88926
G1 X96.927 Y206.14 E23.96921
G1 X96.371 Y206.409 E24.01852
G1 X94.859 Y207.252 E24.1567
G1 X94.041 Y207.637 E24.22887
G1 X93.046 Y208.022 E24.31403
G1 X92.04 Y208.332 E24.39806
G1 X90.97 Y208.578 E24.4857
G1 X89.946 Y208.734 E24.56839
G1 X88.69 Y208.829 E24.66893
G1 X88.291 Y208.836 E24.70079
G1 X85.238 Y208.836 E24.94449
G1 X84.1 Y208.788 E25.03541
G1 X83.036 Y208.666 E25.1209
G1 X82.009 Y208.469 E25.20437
G1 X80.941 Y208.183 E25.29263
G1 X79.933 Y207.831 E25.37786
G1 X79.145 Y207.497 E25.44618
G1 X78.3 Y207.078 E25.52147
G1 X78.043 Y206.933 E25.54502
G1 X77.542 Y206.629 E25.5918
G1 X77.127 Y206.402 E25.62956
G1 X76.55 Y206.114 E25.68104
G1 X75.726 Y205.643 E25.7568
G1 X74.735 Y204.956 E25.85305
G1 X73.918 Y204.298 E25.93679
G1 X73.132 Y203.565 E26.02258
G1 X72.53 Y202.924 E26.09278
G1 X71.791 Y202.021 E26.18592
G1 X71.133 Y201.061 E26.27882
G1 X70.602 Y200.147 E26.3632
G1 X70.188 Y199.322 E26.43688
G1 X69.86 Y198.554 E26.50355
G1 X69.481 Y197.516 E26.59175
G1 X69.218 Y196.627 E26.66576
G1 X69.13 Y196.257 E26.69612
G1 X68.938 Y195.271 E26.7763
G1 X68.816 Y194.349 E26.85054
G1 X68.752 Y192.998 E26.95851
G1 X68.751 Y192.267 E27.01686
G1 X68.789 Y191.202 E27.10192
G1 X68.94 Y189.935 E27.20378
G1 X69.062 Y189.164 E27.26609
G1 X69.132 Y188.331 E27.33282
G1 X69.155 Y172.357 E28.60793
G1 X69.217 Y171.069 E28.71086
G1 X69.331 Y169.892 E28.80526
G1 X69.479 Y168.816 E28.89196
G1 X69.683 Y167.861 E28.96991
G1 X69.881 Y167.123 E29.0309
G1 X70.229 Y165.972 E29.12689
G1 X70.596 Y164.914 E29.21628
G1 X70.955 Y164.066 E29.28979
G1 X71.331 Y163.308 E29.35733
G1 X71.881 Y162.279 E29.45046
G1 X72.428 Y161.353 E29.53631
G1 X72.986 Y160.532 E29.61555
G1 X73.516 Y159.842 E29.68501
G1 X74.07 Y159.165 E29.75483
G1 X74.988 Y158.129 E29.86533
G1 X75.627 Y157.505 E29.93662
G1 X76.274 Y156.942 E30.00508
G1 X77.186 Y156.195 E30.09919
G1 X78.069 Y155.53 E30.18742
G1 X78.934 Y154.971 E30.26964
G1 X79.497 Y154.651 E30.32133
G1 X80.575 Y154.074 E30.41893
G1 X81.599 Y153.58 E30.50969
G1 X82.597 Y153.185 E30.59536
G1 X83.314 Y152.949 E30.65562
G1 X84.401 Y152.622 E30.74623
G1 X85.488 Y152.346 E30.83575
G1 X86.396 Y152.178 E30.90946
G1 X87.14 Y152.084 E30.96932
G1 X87.778 Y152.021 E31.0205
G1 X88.475 Y151.904 E31.07691
G1 X89.12 Y151.712 E31.13063
G1 X89.744 Y151.435 E31.18513
G1 X90.32 Y151.088 E31.23881
G1 X90.863 Y150.66 E31.294
G1 X91.341 Y150.171 E31.34858
G1 X91.74 Y149.646 E31.40122
G1 X92.095 Y149.032 E31.45784
G1 X92.35 Y148.418 E31.51091
G1 X92.535 Y147.758 E31.56562
G1 X92.633 Y147.087 E31.61975
G1 X92.65 Y146.653 E31.65442
G1 X92.65 Y142.746 E31.9663
G1 X92.61 Y142.1 E32.01796
G1 X92.481 Y141.413 E32.07376
G1 X92.266 Y140.755 E32.12902
G1 X91.987 Y140.163 E32.18126
G1 X91.62 Y139.582 E32.23611
G1 X91.292 Y139.174 E32.2779
G1 X90.806 Y138.633 E32.33595
G1 X90.477 Y138.244 E32.37662
G1 X89.871 Y137.476 E32.45471
G1 X89.274 Y136.602 E32.5392
G1 X88.781 Y135.768 E32.61654
G1 X88.517 Y135.278 E32.66097
G1 X88.127 Y134.509 E32.72979
G1 X87.963 Y134.145 E32.76166
G1 X87.616 Y133.267 E32.83702
G1 X87.336 Y132.413 E32.90876
G1 X87.041 Y131.229 E33.00617
G1 X86.868 Y130.262 E33.08458
G1 X86.718 Y129.098 E33.17826
G1 X86.698 Y128.845 E33.19852
G1 X86.651 Y127.626 E33.2959
G1 X86.652 Y126.106 E33.41723
G1 X86.689 Y125.068 E33.50014
G1 X86.809 Y123.912 E33.59292
G1 X87.006 Y122.863 E33.67812
G1 X87.321 Y121.685 E33.77545
G1 X87.518 Y121.049 E33.8286
G1 X87.878 Y120.03 E33.91487
G1 X88.313 Y119.043 E34.00097
G1 X88.82 Y118.088 E34.08728
G1 X89.39 Y117.182 E34.17272
G1 X90.039 Y116.3 E34.26013
G1 X90.49 Y115.736 E34.31778
G1 X91.214 Y114.91 E34.40546
G1 X91.639 Y114.39 E34.45906
G1 X92.006 Y113.801 E34.51446
G1 X92.29 Y113.182 E34.56882
G1 X92.492 Y112.538 E34.6227
G1 X92.611 Y111.892 E34.67513
G1 X92.65 Y111.277 E34.72433
G1 X92.651 Y91.419 E36.30948
G1 X92.606 Y90.734 E36.36427
G1 X92.43 Y89.903 E36.43208
G1 X92.146 Y88.957 E36.51092
G1 X91.881 Y87.77 E36.60801
G1 X91.751 Y86.885 E36.67941
G1 X91.658 Y85.64 E36.77907
G1 X91.65 Y85.142 E36.81883
G1 X91.651 Y62.314 E38.64106
G1 X91.687 Y61.315 E38.72085
G1 X91.821 Y60.09 E38.81922
G1 X92.018 Y59.063 E38.90269
G1 X92.248 Y58.182 E38.97538
G1 X92.366 Y57.814 E39.00622
G1 X92.537 Y57.185 E39.05826
G1 X92.634 Y56.514 E39.11238
G1 X92.65 Y56.092 E39.14609
G1 X92.65 Y41.524 E40.30897
G1 X92.607 Y40.844 E40.36336
G1 X92.43 Y40.008 E40.43157
G1 X92.146 Y39.062 E40.51041
G1 X91.881 Y37.875 E40.6075
G1 X91.751 Y36.99 E40.6789
G1 X91.658 Y35.745 E40.77856
G1 X91.65 Y35.247 E40.81831
G1 X91.651 Y29.107 E41.30843
G1 X91.687 Y28.108 E41.38823
G1 X91.821 Y26.883 E41.4866
G1 X92.018 Y25.857 E41.56999
G1 X92.3 Y24.8 E41.65732
G0 F9000 X92.712 Y24.83
G1 F1125 X141.649 Y73.766 E47.1817
G1 F1500 E40.6817
G0 F9000 X141.649 Y71.504
G1 F1500 E47.1817
G1 F1125 X93.338 Y23.193 E52.63546
G1 F1500 E46.13546
G0 F9000 X94.126 Y21.718
G1 F1500 E52.63546
G1 F1125 X141.649 Y69.241 E58.00027
G1 F1500 E51.50027
G0 F9000 X141.649 Y66.978
G1 F1500 E58.00027
G1 F1125 X95.044 Y20.373 E63.26144
G1 F1500 E56.76144
G0 F9000 X96.104 Y19.171
G1 F1500 E63.26144
G1 F1125 X141.649 Y64.715 E68.4029
G1 F1500 E61.9029
G0 F9000 X141.648 Y62.452
G1 F1500 E68.4029
G1 F1125 X97.288 Y18.092 E73.41064
G1 F1500 E66.91064
G0 F9000 X98.589 Y17.131
G1 F1500 E73.41064
G1 F1125 X141.458 Y60 E78.25006
G1 F1500 E71.75006
G0 F9000 X141.225 Y57.504
G1 F1500 E78.25006
G1 F1125 X99.864 Y16.143 E82.91925
G1 F1500 E76.41925
G0 F9000 X101.243 Y15.259
G1 F1500 E82.91925
G1 F1125 X129.773 Y43.789 E86.13996
G1 F1500 E79.63996
G0 F9000 X129.037 Y40.79
G1 F1500 E86.13996
G1 F1125 X102.754 Y14.507 E89.10701
G1 F1500 E82.60701
G0 F9000 X104.434 Y13.925
G1 F1500 E89.10701
G1 F1125 X127.661 Y37.152 E91.72908
G1 F1500 E85.22908
G0 F9000 X127.446 Y34.673
G1 F1500 E91.72908
G1 F1125 X106.31 Y13.538 E94.11504
G1 F1500 E87.61504
G0 F9000 X108.429 Y13.394
G1 F1500 E94.11504
G1 F1125 X127.446 Y32.411 E96.26184
G1 F1500 E89.76184
G0 F9000 X127.448 Y30.15
G1 F1500 E96.26184
G1 F1125 X110.691 Y13.394 E98.15346
G1 F1500 E91.65346
G0 F9000 X113.084 Y13.524
G1 F1500 E98.15346
G1 F1125 X127.381 Y27.821 E99.76743
G1 F1500 E93.26743
G0 F9000 X126.835 Y25.011
G1 F1500 E99.76743
G1 F1125 X116.077 Y14.253 E100.98188
G1 F1500 E94.48188
G0 F9000 X116.95 Y13.006
G0 X118.83 Y13.888
G0 X119.768 Y14.462
G0 X122.731 Y16.628
G0 X122.019 Y17.933
G1 F1500 E100.98188
G1 F1125 X124.362 Y20.276 E101.24638
G1 F1500 E94.74638
G0 F9000 X125.923 Y19.893
G0 X126.665 Y21.012
G0 X127.625 Y22.877
G0 X128.106 Y24.136
G0 X128.405 Y25.282
G0 X133.473 Y45.636
G0 X133.017 Y47.033
G1 F1500 E101.24638
G1 F1125 X140.22 Y54.236 E102.05952
G1 F1500 E95.55952
G0 F9000 X141.7 Y53.961
G0 X142.371 Y55.927
G0 X142.667 Y57.242
G0 X142.896 Y59.31
G0 X143.093 Y62.228
G0 X143.115 Y76.029
G0 X141.649 Y76.029
G1 F1500 E102.05952
G1 F1125 X92.271 Y26.651 E107.63373
G1 F1500 E101.13373
G0 F9000 X92.064 Y28.707
G1 F1500 E107.63373
G1 F1125 X141.649 Y78.292 E113.23132
G1 F1500 E106.73132
G0 F9000 X141.649 Y80.555
G1 F1500 E113.23132
G1 F1125 X92.049 Y30.955 E118.83059
G1 F1500 E112.33059
G0 F9000 X92.049 Y33.217
G1 F1500 E118.83059
G1 F1125 X141.649 Y82.817 E124.42987
G1 F1500 E117.92987
G0 F9000 X141.645 Y85.076
G1 F1500 E124.42987
G1 F1125 X92.052 Y35.484 E130.0283
G1 F1500 E123.5283
G0 F9000 X92.321 Y38.016
G1 F1500 E130.0283
G1 F1125 X142.193 Y87.887 E135.65822
G1 F1500 E129.15822
G0 F9000 X143.57 Y87.382
G0 X146.618 Y90.261
G0 X145.894 Y91.588
G1 F1500 E135.65822
G1 F1125 X146.591 Y92.285 E135.73691
G1 F1500 E129.23691
G0 F9000 X148.225 Y91.905
G0 X149.037 Y92.956
G0 X150.131 Y94.746
G0 X150.294 Y95.094
G0 X151.033 Y96.829
G0 X149.785 Y97.741
G1 F1500 E135.73691
G1 F1125 X93.012 Y40.969 E142.14588
G1 F1500 E135.64588
G0 F9000 X93.048 Y43.268
G1 F1500 E142.14588
G1 F1125 X150.372 Y100.592 E148.61711
G1 F1500 E142.11711
G0 F9000 X150.448 Y102.931
G1 F1500 E148.61711
G1 F1125 X93.048 Y45.531 E155.09692
G1 F1500 E148.59692
G0 F9000 X93.048 Y47.794
G1 F1500 E155.09692
G1 F1125 X150.448 Y105.194 E161.57672
G1 F1500 E155.07672
G0 F9000 X150.448 Y107.456
G1 F1500 E161.57672
G1 F1125 X93.048 Y50.056 E168.05653
G1 F1500 E161.55653
G0 F9000 X93.048 Y52.319
G1 F1500 E168.05653
G1 F1125 X150.448 Y109.719 E174.53634
G1 F1500 E168.03634
G0 F9000 X150.448 Y111.982
G1 F1500 E174.53634
G1 F1125 X93.048 Y54.582 E181.01615
G1 F1500 E174.51615
G0 F9000 X92.995 Y56.791
G1 F1500 E181.01615
G1 F1125 X150.448 Y114.245 E187.502
G1 F1500 E181.002
G0 F9000 X150.448 Y116.507
G1 F1500 E187.502
G1 F1125 X92.548 Y58.607 E194.03825
G1 F1500 E187.53825
G0 F9000 X92.177 Y60.498
G1 F1500 E194.03825
G1 F1125 X150.448 Y118.77 E200.61644
G1 F1500 E194.11644
G0 F9000 X150.448 Y121.033
G1 F1500 E200.61644
G1 F1125 X92.049 Y62.634 E207.20902
G1 F1500 E200.70902
G0 F9000 X92.049 Y64.896
G1 F1500 E207.20902
G1 F1125 X150.448 Y123.296 E213.80166
G1 F1500 E207.30166
G0 F9000 X150.449 Y125.559
G1 F1500 E213.80166
G1 F1125 X92.049 Y67.159 E220.39436
