;FLAVOR:Marlin
;TIME:28977
;Filament used: 20.3374m
;Layer height: 0.2
;MINX:67.835
;MINY:18.638
;MINZ:0.24
;MAXX:152.165
;MAXY:199.165
;MAXZ:44.29
;Generated with Cura_SteamEngine 5.4.0
M82 ;absolute extrusion mode
; Ender 3 Custom Start G-code
G92 E0 ; Reset Extruder
G28 ; Home all axes
M104 S175 ; Start heating up the nozzle most of the way
M190 S60 ; Start heating the bed, wait until target temperature reached
M109 S200 ; Finish heating the nozzle
G1 Z2.0 F3000 ; Move Z Axis up little to prevent scratching of Heat Bed
G1 X0.1 Y20 Z0.3 F5000.0 ; Move to start position
G1 X0.1 Y200.0 Z0.3 F1500.0 E15 ; Draw the first line
G1 X0.4 Y200.0 Z0.3 F5000.0 ; Move to side a little
G1 X0.4 Y20 Z0.3 F1500.0 E30 ; Draw the second line
G92 E0 ; Reset Extruder
G1 Z2.0 F3000 ; Move Z Axis up little to prevent scratching of Heat Bed
G1 X5 Y20 Z0.3 F5000.0 ; Move over to prevent blob squish
G92 E0
G92 E0
G1 F1500 E-6.5
;LAYER_COUNT:216
;LAYER:-6
M107
G0 F9000 X94.141 Y31.319 Z0.24
;TYPE:SUPPORT-INTERFACE
G1 F1500 E0
G1 F1125 X94.471 Y30.369 E0.08028
G1 X95.156 Y28.867 E0.21205
G1 X95.313 Y28.57 E0.23887
G1 X95.819 Y27.677 E0.3208
G1 X96.683 Y26.419 E0.44262
G1 X97.373 Y25.568 E0.53008
G1 X98.036 Y24.845 E0.60838
G1 X98.342 Y24.542 E0.64276
G1 X99.06 Y23.869 E0.72131
G1 X99.998 Y23.11 E0.81763
G1 X101.01 Y22.4 E0.91631
G1 X102.08 Y21.778 E1.01511
G1 X102.502 Y21.551 E1.05336
G1 X103.403 Y21.112 E1.13336
G1 X104.513 Y20.662 E1.22897
G1 X105.871 Y20.254 E1.34216
G1 X106.295 Y20.149 E1.37703
G1 X107.464 Y19.905 E1.47235
G1 X108.406 Y19.776 E1.54825
G1 X110.001 Y19.701 E1.67571
G1 X111.024 Y19.702 E1.75737
G1 X112.059 Y19.74 E1.84004
G1 X113.159 Y19.854 E1.92832
G1 X114.096 Y20.01 E2.00414
G1 X115.25 Y20.286 E2.09886
G1 X116.24 Y20.591 E2.18155
G1 X116.638 Y20.729 E2.21518
G1 X117.793 Y21.189 E2.31442
G1 X118.733 Y21.645 E2.39781
G1 X119.541 Y22.108 E2.47215
G1 X120.173 Y22.517 E2.53224
G1 X120.544 Y22.779 E2.5685
G1 X121.52 Y23.527 E2.66666
G1 X121.867 Y23.816 E2.7027
G1 X122.653 Y24.527 E2.78731
G1 X123.519 Y25.448 E2.88822
G1 X123.758 Y25.723 E2.9173
G1 X124.343 Y26.448 E2.99167
G1 X125.059 Y27.478 E3.0918
G1 X125.595 Y28.398 E3.17679
G1 X126.155 Y29.54 E3.27832
G1 X126.241 Y29.751 E3.29651
G1 X126.467 Y30.227 E3.33857
G1 X126.926 Y31.305 E3.4321
G1 X127.243 Y32.223 E3.50962
G1 X127.531 Y33.319 E3.60008
G1 X127.613 Y33.746 E3.63479
G1 X127.869 Y34.932 E3.73164
G1 X128.015 Y35.975 E3.81571
G1 X128.092 Y37.048 E3.90158
G1 X128.099 Y37.449 E3.93359
G1 X128.1 Y44.679 E4.51072
G1 X128.144 Y45.332 E4.56297
G1 X128.268 Y45.983 E4.61587
G1 X128.484 Y46.643 E4.6713
G1 X128.79 Y47.283 E4.72793
G1 X129.222 Y48.056 E4.79861
G1 X129.46 Y48.538 E4.84153
G1 X129.852 Y49.374 E4.91523
G1 X130.304 Y50.46 E5.00913
G1 X130.595 Y51.319 E5.08153
G1 X130.89 Y52.438 E5.1739
G1 X131.102 Y53.643 E5.27157
G1 X131.162 Y54.09 E5.30757
G1 X131.271 Y55.217 E5.39795
G1 X131.299 Y56.23 E5.47884
G1 X131.29 Y57.407 E5.5728
G1 X131.234 Y58.535 E5.66295
G1 X131.106 Y59.577 E5.74675
G1 X130.938 Y60.452 E5.81788
G1 X130.651 Y61.557 E5.90901
G1 X130.159 Y62.914 E6.02423
G1 X129.89 Y63.568 E6.08068
G1 X129.405 Y64.618 E6.173
G1 X128.972 Y65.41 E6.24505
G1 X128.859 Y65.6 E6.2627
G1 X128.55 Y66.203 E6.31679
G1 X128.321 Y66.828 E6.36992
G1 X128.171 Y67.48 E6.42333
G1 X128.101 Y68.328 E6.49125
G1 X128.1 Y68.65 E6.51695
G1 X128.144 Y69.305 E6.56935
G1 X128.271 Y69.963 E6.62285
G1 X128.483 Y70.615 E6.67757
G1 X128.777 Y71.232 E6.73213
G1 X129.207 Y71.888 E6.79474
G1 X129.423 Y72.184 E6.82399
G1 X129.916 Y72.926 E6.89511
G1 X130.516 Y73.994 E6.99289
G1 X130.898 Y74.806 E7.06452
G1 X131.282 Y75.796 E7.14928
G1 X131.567 Y76.703 E7.22518
G1 X131.638 Y76.976 E7.24769
G1 X131.867 Y78.017 E7.33278
G1 X132.015 Y79.078 E7.41829
G1 X132.092 Y80.15 E7.50408
G1 X132.1 Y83.088 E7.73861
G1 X132.063 Y84.087 E7.81841
G1 X131.929 Y85.312 E7.91677
G1 X131.732 Y86.338 E8.00017
G1 X131.452 Y87.393 E8.0873
G1 X131.098 Y88.405 E8.17288
G1 X130.723 Y89.29 E8.24961
G1 X130.194 Y90.307 E8.34111
G1 X129.734 Y91.062 E8.41169
G1 X129.099 Y91.963 E8.49967
G1 X128.746 Y92.53 E8.55299
G1 X128.466 Y93.142 E8.60671
G1 X128.255 Y93.804 E8.66218
G1 X128.135 Y94.481 E8.71706
G1 X128.1 Y95.06 E8.76336
G1 X128.1 Y95.624 E8.80838
G1 X128.14 Y96.27 E8.86005
G1 X128.269 Y96.958 E8.91592
G1 X128.482 Y97.612 E8.97083
G1 X128.766 Y98.211 E9.02374
G1 X129.207 Y98.888 E9.08824
G1 X129.423 Y99.184 E9.11749
G1 X129.916 Y99.926 E9.1886
G1 X130.516 Y100.994 E9.28639
G1 X130.898 Y101.806 E9.35802
G1 X131.281 Y102.794 E9.4426
G1 X131.621 Y103.899 E9.53489
G1 X131.867 Y105.017 E9.62627
G1 X132.015 Y106.078 E9.71178
G1 X132.092 Y107.15 E9.79757
G1 X132.1 Y109.806 E10.00959
G1 X132.142 Y110.475 E10.0631
G1 X132.263 Y111.118 E10.11532
G1 X132.419 Y111.647 E10.15935
G1 X132.67 Y112.594 E10.23755
G1 X132.886 Y113.735 E10.33025
G1 X132.957 Y114.258 E10.37238
G1 X133.07 Y115.423 E10.46581
G1 X133.099 Y116.356 E10.54033
G1 X133.098 Y117.936 E10.66645
G1 X133.057 Y119.073 E10.75727
G1 X132.925 Y120.215 E10.84903
G1 X132.721 Y121.27 E10.93481
G1 X132.448 Y122.283 E11.01855
G1 X132.032 Y123.464 E11.1185
G1 X131.755 Y124.154 E11.17786
G1 X131.303 Y125.153 E11.26538
G1 X130.894 Y125.923 E11.33498
G1 X130.276 Y126.917 E11.42841
G1 X129.534 Y127.909 E11.5273
G1 X129.316 Y128.177 E11.55487
G1 X128.928 Y128.718 E11.60802
G1 X128.596 Y129.33 E11.6636
G1 X128.346 Y129.974 E11.71874
G1 X128.183 Y130.65 E11.77425
G1 X128.101 Y131.56 E11.84718
G1 X128.1 Y136.505 E12.24191
G1 X128.14 Y137.151 E12.29358
G1 X128.269 Y137.838 E12.34938
G1 X128.477 Y138.477 E12.40302
G1 X128.769 Y139.101 E12.45801
G1 X129.134 Y139.674 E12.51224
G1 X129.582 Y140.212 E12.56813
G1 X130.078 Y140.673 E12.62218
G1 X130.626 Y141.068 E12.67611
G1 X131.237 Y141.398 E12.73154
G1 X131.881 Y141.648 E12.78668
G1 X132.536 Y141.809 E12.84052
G1 X133.458 Y141.894 E12.91443
G1 X136.452 Y141.9 E13.15343
G1 X137.486 Y141.938 E13.23602
G1 X138.552 Y142.049 E13.32157
G1 X139.69 Y142.253 E13.41386
G1 X140.799 Y142.551 E13.50553
G1 X141.8 Y142.9 E13.59015
G1 X142.63 Y143.254 E13.66218
G1 X143.581 Y143.736 E13.74728
G1 X144.579 Y144.341 E13.84044
G1 X145.495 Y145.006 E13.9308
G1 X146.32 Y145.701 E14.01691
G1 X147.079 Y146.442 E14.10158
G1 X147.664 Y147.098 E14.17174
G1 X148.327 Y147.948 E14.25779
G1 X148.919 Y148.831 E14.34265
G1 X149.442 Y149.751 E14.42713
G1 X149.94 Y150.8 E14.51982
G1 X150.317 Y151.786 E14.60409
G1 X150.645 Y152.9 E14.69678
G1 X150.871 Y153.941 E14.78182
G1 X151.011 Y154.89 E14.85839
G1 X151.1 Y156.559 E14.99181
G1 X151.1 Y183.486 E17.14124
G1 X151.063 Y184.485 E17.22104
G1 X150.929 Y185.71 E17.3194
G1 X150.732 Y186.737 E17.40288
G1 X150.505 Y187.61 E17.47488
G1 X150.144 Y188.693 E17.56601
G1 X149.723 Y189.687 E17.65218
G1 X149.194 Y190.705 E17.74375
G1 X148.728 Y191.471 E17.81533
G1 X148.06 Y192.416 E17.9077
G1 X147.323 Y193.295 E17.99927
G1 X146.701 Y193.941 E18.07085
G1 X145.906 Y194.662 E18.15652
G1 X145.066 Y195.317 E18.24155
G1 X144.175 Y195.917 E18.3273
G1 X143.108 Y196.516 E18.42497
G1 X142.291 Y196.9 E18.49704
G1 X141.296 Y197.285 E18.5822
G1 X140.29 Y197.595 E18.66623
G1 X139.22 Y197.841 E18.75387
G1 X138.196 Y197.997 E18.83655
G1 X136.94 Y198.092 E18.9371
G1 X136.436 Y198.1 E18.97733
G1 X130.493 Y198.099 E19.45173
G1 X129.355 Y198.051 E19.54265
G1 X128.291 Y197.929 E19.62814
G1 X127.264 Y197.732 E19.71161
G1 X126.196 Y197.446 E19.79987
G1 X125.188 Y197.094 E19.8851
G1 X124.401 Y196.76 E19.95334
G1 X123.43 Y196.269 E20.0402
G1 X122.528 Y195.727 E20.1242
G1 X121.58 Y195.058 E20.21682
G1 X120.702 Y194.319 E20.30843
G1 X120.049 Y193.691 E20.38074
G1 X119.338 Y192.906 E20.46529
G1 X118.683 Y192.066 E20.55032
G1 X118.079 Y191.169 E20.63664
G1 X117.482 Y190.103 E20.73417
G1 X117.09 Y189.266 E20.80794
G1 X116.715 Y188.296 E20.89096
G1 X116.379 Y187.204 E20.98216
G1 X116.131 Y186.071 E21.07474
G1 X115.991 Y185.12 E21.15147
G1 X115.859 Y182.837 E21.33402
G1 X115.728 Y182.151 E21.38977
G1 X115.511 Y181.493 E21.44507
G1 X115.221 Y180.884 E21.49892
G1 X114.85 Y180.306 E21.55374
G1 X114.414 Y179.786 E21.60791
G1 X113.923 Y179.329 E21.66145
G1 X113.374 Y178.934 E21.71544
G1 X112.763 Y178.604 E21.77087
G1 X112.119 Y178.354 E21.82602
G1 X111.464 Y178.192 E21.87988
G1 X110.781 Y178.114 E21.93475
G1 X110.105 Y178.121 E21.98872
G1 X109.444 Y178.211 E22.04197
G1 X108.758 Y178.394 E22.09864
G1 X108.127 Y178.655 E22.15315
G1 X107.561 Y178.977 E22.20513
G1 X106.996 Y179.397 E22.26133
G1 X106.509 Y179.868 E22.31541
G1 X106.075 Y180.413 E22.37102
G1 X105.717 Y181 E22.4259
G1 X105.441 Y181.617 E22.47986
G1 X105.241 Y182.279 E22.53506
G1 X105.133 Y182.914 E22.58648
G1 X105.101 Y183.391 E22.62464
G1 X105.061 Y184.569 E22.71873
G1 X104.931 Y185.698 E22.80944
G1 X104.726 Y186.763 E22.89602
G1 X104.506 Y187.61 E22.96587
G1 X104.165 Y188.629 E23.05165
G1 X103.804 Y189.511 E23.12772
G1 X103.681 Y189.768 E23.15046
G1 X103.188 Y190.716 E23.23576
G1 X102.67 Y191.563 E23.31501
G1 X101.997 Y192.491 E23.40652
G1 X101.317 Y193.3 E23.49088
G1 X100.574 Y194.062 E23.57583
G1 X99.759 Y194.782 E23.66264
G1 X98.991 Y195.376 E23.74014
G1 X98.026 Y196.006 E23.83214
G1 X97.247 Y196.443 E23.90344
G1 X96.214 Y196.935 E23.99477
G1 X95.125 Y197.344 E24.08763
G1 X94.38 Y197.574 E24.14987
G1 X94.131 Y197.639 E24.17041
G1 X93.225 Y197.84 E24.24449
G1 X92.11 Y198.011 E24.33453
G1 X90.965 Y198.091 E24.42615
G1 X90.572 Y198.098 E24.45753
G1 X84.493 Y198.099 E24.94278
G1 X83.355 Y198.051 E25.0337
G1 X82.291 Y197.929 E25.11919
G1 X81.264 Y197.732 E25.20267
G1 X80.196 Y197.446 E25.29092
G1 X79.188 Y197.094 E25.37615
G1 X78.401 Y196.76 E25.4444
G1 X77.43 Y196.269 E25.53125
G1 X76.528 Y195.727 E25.61525
G1 X75.58 Y195.058 E25.70787
G1 X74.702 Y194.319 E25.79948
G1 X74.049 Y193.691 E25.8718
G1 X73.338 Y192.906 E25.95634
G1 X72.683 Y192.066 E26.04137
G1 X72.079 Y191.169 E26.12769
G1 X71.482 Y190.103 E26.22522
G1 X71.09 Y189.266 E26.299
G1 X70.715 Y188.296 E26.38201
G1 X70.379 Y187.204 E26.47321
G1 X70.131 Y186.071 E26.56579
G1 X69.992 Y185.127 E26.64196
G1 X69.9 Y183.488 E26.773
G1 X69.799 Y164.351 E28.30062
G1 X69.752 Y163.676 E28.35463
G1 X69.575 Y162.859 E28.42136
G1 X69.36 Y162.121 E28.48272
G1 X69.131 Y161.071 E28.5685
G1 X69.001 Y160.185 E28.63999
G1 X68.908 Y158.94 E28.73964
G1 X68.9 Y158.442 E28.7794
G1 X68.9 Y92.014 E34.08197
G1 X68.937 Y91.015 E34.16177
G1 X69.071 Y89.79 E34.26014
G1 X69.268 Y88.764 E34.34354
G1 X69.551 Y87.706 E34.43096
G1 X69.828 Y86.888 E34.4999
G1 X70.274 Y85.818 E34.59243
G1 X70.806 Y84.795 E34.68447
G1 X71.272 Y84.029 E34.75605
G1 X71.94 Y83.084 E34.84842
G1 X72.677 Y82.205 E34.93999
G1 X73.299 Y81.559 E35.01157
G1 X74.094 Y80.838 E35.09724
G1 X74.934 Y80.183 E35.18227
G1 X75.825 Y79.583 E35.26802
G1 X76.892 Y78.984 E35.36569
G1 X77.711 Y78.599 E35.43793
G1 X78.704 Y78.215 E35.52292
G1 X79.71 Y77.905 E35.60695
G1 X80.78 Y77.659 E35.69459
G1 X81.804 Y77.503 E35.77727
G1 X83.06 Y77.408 E35.87782
G1 X83.461 Y77.401 E35.90983
G1 X87.505 Y77.4 E36.23264
G1 X88.169 Y77.359 E36.28575
G1 X88.849 Y77.23 E36.341
G1 X89.482 Y77.023 E36.39416
G1 X90.106 Y76.731 E36.44915
G1 X90.69 Y76.358 E36.50447
G1 X91.214 Y75.921 E36.55893
G1 X91.677 Y75.424 E36.61315
G1 X92.078 Y74.866 E36.668
G1 X92.41 Y74.247 E36.72407
G1 X92.647 Y73.636 E36.77639
G1 X92.811 Y72.98 E36.83036
G1 X92.899 Y72.031 E36.90644
G1 X92.901 Y37.514 E39.66174
G1 X92.937 Y36.515 E39.74153
G1 X93.071 Y35.29 E39.8399
G1 X93.268 Y34.264 E39.9233
G1 X93.542 Y33.229 E40.00876
G1 X93.732 Y32.679 E40.05521
G1 X93.971 Y31.908 E40.11964
G1 X94.141 Y31.319 E40.16858
G0 F9000 X94.591 Y31.235
G1 F1125 X128.603 Y65.246 E44.00809
G1 F1500 E37.50809
G0 F9000 X129.366 Y63.747
G1 F1500 E44.00809
G1 F1125 X95.247 Y29.627 E47.8598
G1 F1500 E41.3598
G0 F9000 X96.018 Y28.135
G1 F1500 E47.8598
G1 F1125 X130.016 Y62.134 E51.69784
G1 F1500 E45.19784
G0 F9000 X130.539 Y60.394
G1 F1500 E51.69784
G1 F1125 X96.921 Y26.776 E55.49293
G1 F1500 E48.99293
G0 F9000 X97.943 Y25.535
G1 F1500 E55.49293
G1 F1125 X130.838 Y58.43 E59.2064
G1 F1500 E52.7064
G0 F9000 X130.898 Y56.228
G1 F1500 E59.2064
G1 F1125 X99.074 Y24.403 E62.79903
G1 F1500 E56.29903
G0 F9000 X100.312 Y23.379
G1 F1500 E62.79903
G1 F1125 X130.717 Y53.783 E66.23135
G1 F1500 E59.73135
G0 F9000 X129.998 Y50.802
G1 F1500 E66.23135
G1 F1125 X101.673 Y22.477 E69.42892
G1 F1500 E62.92892
G0 F9000 X103.142 Y21.684
G1 F1500 E69.42892
G1 F1125 X128.048 Y46.589 E72.24047
G1 F1500 E65.74047
G0 F9000 X127.7 Y43.979
G1 F1500 E72.24047
G1 F1125 X104.735 Y21.013 E74.83301
G1 F1500 E68.33301
G0 F9000 X106.499 Y20.515
G1 F1500 E74.83301
G1 F1125 X127.699 Y41.715 E77.22625
G1 F1500 E70.72625
G0 F9000 X127.699 Y39.452
G1 F1500 E77.22625
G1 F1125 X108.424 Y20.177 E79.40218
G1 F1500 E72.90218
G0 F9000 X110.612 Y20.102
G1 F1500 E79.40218
G1 F1125 X127.693 Y37.183 E81.33043
G1 F1500 E74.83043
G0 F9000 X127.392 Y34.619
G1 F1500 E81.33043
G1 F1125 X113.014 Y20.241 E82.95354
G1 F1500 E76.45354
G0 F9000 X115.959 Y20.923
G1 F1500 E82.95354
G1 F1125 X126.588 Y31.553 E84.15349
G1 F1500 E77.65349
G0 F9000 X127.845 Y30.731
G0 X126.443 Y27.728
G0 X125.317 Y25.971
G0 X124.106 Y26.808
G1 F1500 E84.15349
G1 F1125 X120.7 Y23.402 E84.53799
G1 F1500 E78.03799
G0 F9000 X121.227 Y21.961
G0 X120.094 Y21.198
G0 X118.236 Y20.219
G0 X116.575 Y19.579
G0 X114.515 Y19.015
G0 X112.35 Y18.694
G0 X109.808 Y18.64
G0 X108.21 Y18.729
G0 X106.052 Y19.112
G0 X104.042 Y19.705
G0 X102.02 Y20.603
G0 X100.345 Y21.565
G0 X98.495 Y22.95
G0 X97.285 Y24.094
G0 X95.894 Y25.703
G0 X94.852 Y27.222
G0 X94.129 Y28.543
G0 X93.504 Y29.95
G0 X92.723 Y32.325
G0 X94.056 Y32.962
G1 F1500 E84.53799
G1 F1125 X127.914 Y66.82 E88.36018
G1 F1500 E81.86018
G0 F9000 X127.714 Y68.882
G1 F1500 E88.36018
G1 F1125 X93.58 Y34.749 E92.21346
G1 F1500 E85.71346
G0 F9000 X93.327 Y36.758
G1 F1500 E92.21346
G1 F1125 X129.319 Y72.75 E96.27655
G1 F1500 E89.77655
G0 F9000 X130.819 Y72.362
G0 X131.466 Y73.516
G0 X131.602 Y73.812
G0 X132.355 Y75.642
G0 X131.202 Y76.897
G1 F1500 E96.27655
G1 F1125 X93.299 Y38.994 E100.55537
G1 F1500 E94.05537
G0 F9000 X93.299 Y41.256
G1 F1500 E100.55537
G1 F1125 X131.651 Y79.608 E104.88487
G1 F1500 E98.38487
G0 F9000 X131.696 Y81.916
G1 F1500 E104.88487
G1 F1125 X93.299 Y43.519 E109.21946
G1 F1500 E102.71946
G0 F9000 X93.299 Y45.782
G1 F1500 E109.21946
G1 F1125 X131.654 Y84.137 E113.5493
G1 F1500 E107.0493
G0 F9000 X131.367 Y86.112
G1 F1500 E113.5493
G1 F1125 X93.299 Y48.044 E117.84675
G1 F1500 E111.34675
G0 F9000 X93.299 Y50.307
G1 F1500 E117.84675
G1 F1125 X130.861 Y87.869 E122.08707
G1 F1500 E115.58707
G0 F9000 X130.185 Y89.456
G1 F1500 E122.08707
G1 F1125 X93.299 Y52.569 E126.25114
G1 F1500 E119.75114
G0 F9000 X93.298 Y54.831
G1 F1500 E126.25114
G1 F1125 X129.361 Y90.895 E130.3223
G1 F1500 E123.8223
G0 F9000 X128.451 Y92.247
G1 F1500 E130.3223
G1 F1125 X93.298 Y57.094 E134.29067
G1 F1500 E127.79067
G0 F9000 X93.298 Y59.357
G1 F1500 E134.29067
G1 F1125 X127.833 Y93.892 E138.18928
G1 F1500 E131.68928
G0 F9000 X127.725 Y96.047
G1 F1500 E138.18928
G1 F1125 X93.298 Y61.62 E142.0757
G1 F1500 E135.5757
G0 F9000 X93.297 Y63.882
G1 F1500 E142.0757
G1 F1125 X129.605 Y100.189 E146.1744
G1 F1500 E139.6744
G0 F9000 X131.255 Y104.103
G1 F1500 E146.1744
G1 F1125 X93.297 Y66.144 E150.45948
G1 F1500 E143.95948
G0 F9000 X93.297 Y68.407
G1 F1500 E150.45948
G1 F1125 X131.663 Y106.773 E154.79057
G1 F1500 E148.29057
G0 F9000 X131.697 Y109.069
G1 F1500 E154.79057
G1 F1125 X93.297 Y70.67 E159.12544
G1 F1500 E152.62544
G0 F9000 X93.223 Y72.858
G1 F1500 E159.12544
G1 F1125 X131.997 Y111.632 E163.50258
G1 F1500 E157.00258
G0 F9000 X132.576 Y114.474
G1 F1500 E163.50258
G1 F1125 X92.681 Y74.579 E168.00627
G1 F1500 E161.50627
G0 F9000 X91.758 Y75.919
G1 F1500 E168.00627
G1 F1125 X132.698 Y116.859 E172.62793
G1 F1500 E166.12793
G0 F9000 X132.653 Y119.077
G1 F1500 E172.62793
G1 F1125 X90.518 Y76.941 E177.38455
G1 F1500 E170.88455
G0 F9000 X88.934 Y77.62
G1 F1500 E177.38455
G1 F1125 X132.356 Y121.043 E182.28646
G1 F1500 E175.78646
G0 F9000 X131.844 Y122.793
G1 F1500 E182.28646
G1 F1125 X86.851 Y77.8 E187.36566
G1 F1500 E180.86566
G0 F9000 X84.589 Y77.8
G1 F1500 E187.36566
