;FLAVOR:Marlin
;TIME:30396
;Filament used: 20.7262m
;Layer height: 0.2
;MINX:68.085
;MINY:11.93
;MINZ:0.24
;MAXX:152.311
;MAXY:209.902
;MAXZ:44.29
;Generated with Cura_SteamEngine 5.4.0
M82 ;absolute extrusion mode
; Ender 3 Custom Start G-code
G92 E0 ; Reset Extruder
G28 ; Home all axes
M104 S175 ; Start heating up the nozzle most of the way
M190 S60 ; Start heating the bed, wait until target temperature reached
M109 S200 ; Finish heating the nozzle
G1 Z2.0 F3000 ; Move Z Axis up little to prevent scratching of Heat Bed
G1 X0.1 Y20 Z0.3 F5000.0 ; Move to start position
G1 X0.1 Y200.0 Z0.3 F1500.0 E15 ; Draw the first line
G1 X0.4 Y200.0 Z0.3 F5000.0 ; Move to side a little
G1 X0.4 Y20 Z0.3 F1500.0 E30 ; Draw the second line
G92 E0 ; Reset Extruder
G1 Z2.0 F3000 ; Move Z Axis up little to prevent scratching of Heat Bed
G1 X5 Y20 Z0.3 F5000.0 ; Move over to prevent blob squish
G92 E0
G92 E0
G1 F1500 E-6.5
;LAYER_COUNT:216
;LAYER:-6
M107
G0 F9000 X92.8 Y24.799 Z0.24
;TYPE:SUPPORT-INTERFACE
G1 F1500 E0
G1 F1125 X93.152 Y23.788 E0.08545
G1 X93.527 Y22.904 E0.16211
G1 X94.056 Y21.887 E0.25361
G1 X94.522 Y21.121 E0.32518
G1 X95.19 Y20.176 E0.41756
G1 X95.927 Y19.297 E0.50913
G1 X96.549 Y18.651 E0.58071
G1 X97.344 Y17.93 E0.66638
G1 X98.191 Y17.27 E0.7521
G1 X98.747 Y16.892 E0.80576
G1 X100.184 Y15.777 E0.95095
G1 X101.081 Y15.174 E1.03723
G1 X102.142 Y14.578 E1.13437
G1 X102.961 Y14.193 E1.20661
G1 X103.954 Y13.809 E1.2916
G1 X104.96 Y13.499 E1.37563
G1 X106.03 Y13.253 E1.46327
G1 X107.054 Y13.097 E1.54595
G1 X108.31 Y13.002 E1.64649
G1 X108.709 Y12.995 E1.67835
G1 X111.757 Y12.995 E1.92165
G1 X112.895 Y13.043 E2.01257
G1 X113.958 Y13.165 E2.09799
G1 X114.986 Y13.362 E2.18154
G1 X116.054 Y13.648 E2.26979
G1 X117.053 Y13.996 E2.35424
G1 X117.943 Y14.374 E2.43142
G1 X118.955 Y14.9 E2.52247
G1 X119.721 Y15.366 E2.59404
G1 X120.591 Y15.979 E2.67899
G1 X121.238 Y16.509 E2.74575
G1 X121.699 Y16.852 E2.79162
G1 X121.891 Y16.979 E2.81
G1 X122.731 Y17.588 E2.89282
G1 X123.545 Y18.271 E2.97764
G1 X124.191 Y18.893 E3.04922
G1 X124.904 Y19.678 E3.13387
G1 X125.567 Y20.528 E3.21992
G1 X126.167 Y21.419 E3.30567
G1 X126.766 Y22.486 E3.40335
G1 X127.148 Y23.298 E3.47498
G1 X127.531 Y24.286 E3.55956
G1 X127.871 Y25.391 E3.65185
G1 X128.117 Y26.509 E3.74323
G1 X128.265 Y27.57 E3.82874
G1 X128.342 Y28.642 E3.91453
G1 X128.349 Y29.043 E3.94655
G1 X128.35 Y35.291 E4.44529
G1 X128.313 Y36.29 E4.52509
G1 X128.179 Y37.515 E4.62346
G1 X127.982 Y38.542 E4.70693
G1 X127.752 Y39.423 E4.77961
G1 X127.634 Y39.791 E4.81046
G1 X127.455 Y40.46 E4.86574
G1 X127.366 Y41.091 E4.91661
G1 X127.35 Y41.513 E4.95032
G1 X127.35 Y111.25 E10.51703
G1 X127.39 Y111.896 E10.5687
G1 X127.519 Y112.583 E10.62449
G1 X127.734 Y113.241 E10.67975
G1 X128.013 Y113.833 E10.73199
G1 X128.381 Y114.415 E10.78696
G1 X128.766 Y114.886 E10.83552
G1 X128.947 Y115.082 E10.85681
G1 X129.661 Y115.912 E10.94421
G1 X130.398 Y116.898 E11.04247
G1 X131.135 Y118.089 E11.15427
G1 X131.461 Y118.68 E11.20815
G1 X131.898 Y119.552 E11.28601
G1 X132.353 Y120.639 E11.38007
G1 X132.701 Y121.721 E11.4708
G1 X132.955 Y122.764 E11.55649
G1 X133.16 Y123.937 E11.65154
G1 X133.291 Y124.973 E11.7349
G1 X133.349 Y126.378 E11.84715
G1 X133.345 Y128.032 E11.97918
G1 X133.296 Y129.127 E12.06667
G1 X133.192 Y130.08 E12.1432
G1 X132.994 Y131.135 E12.22888
G1 X132.679 Y132.315 E12.32638
G1 X132.482 Y132.951 E12.37952
G1 X132.122 Y133.97 E12.46579
G1 X131.687 Y134.957 E12.55189
G1 X131.179 Y135.913 E12.63831
G1 X130.668 Y136.738 E12.71577
G1 X129.965 Y137.696 E12.81062
G1 X129.52 Y138.252 E12.86747
G1 X128.786 Y139.09 E12.9564
G1 X128.371 Y139.597 E13.0087
G1 X127.994 Y140.199 E13.0654
G1 X127.71 Y140.818 E13.11976
G1 X127.508 Y141.462 E13.17364
G1 X127.387 Y142.118 E13.22688
G1 X127.35 Y142.723 E13.27527
G1 X127.35 Y146.655 E13.58914
G1 X127.39 Y147.301 E13.6408
G1 X127.519 Y147.988 E13.6966
G1 X127.734 Y148.646 E13.75186
G1 X128.013 Y149.238 E13.8041
G1 X128.387 Y149.828 E13.85986
G1 X128.83 Y150.36 E13.91512
G1 X129.326 Y150.822 E13.96923
G1 X129.885 Y151.224 E14.02419
G1 X130.485 Y151.547 E14.07858
G1 X131.127 Y151.797 E14.13358
G1 X131.77 Y151.955 E14.18643
G1 X132.212 Y152.019 E14.22208
G1 X132.711 Y152.062 E14.26206
G1 X133.922 Y152.227 E14.35963
G1 X134.911 Y152.436 E14.44031
G1 X135.597 Y152.623 E14.49707
G1 X136.691 Y152.951 E14.58824
G1 X137.836 Y153.346 E14.68493
G1 X138.687 Y153.707 E14.75872
G1 X139.47 Y154.096 E14.82851
G1 X140.448 Y154.62 E14.91707
G1 X141.492 Y155.238 E15.01392
G1 X142.217 Y155.735 E15.08408
G1 X142.908 Y156.266 E15.15365
G1 X143.585 Y156.82 E15.22347
G1 X144.621 Y157.738 E15.33397
G1 X145.245 Y158.377 E15.40526
G1 X145.808 Y159.024 E15.47372
G1 X146.488 Y159.851 E15.55919
G1 X147.221 Y160.819 E15.65611
G1 X147.776 Y161.678 E15.73775
G1 X148.113 Y162.272 E15.79226
G1 X148.677 Y163.325 E15.88762
G1 X149.17 Y164.349 E15.97834
G1 X149.564 Y165.342 E16.06361
G1 X149.727 Y165.828 E16.10453
G1 X150.127 Y167.159 E16.21547
G1 X150.402 Y168.226 E16.30343
G1 X150.572 Y169.14 E16.37764
G1 X150.667 Y169.886 E16.43767
G1 X150.784 Y171.096 E16.53471
G1 X150.85 Y172.455 E16.64332
G1 X150.922 Y188.623 E17.93393
G1 X151.003 Y189.517 E18.00558
G1 X151.166 Y190.608 E18.09364
G1 X151.247 Y192.124 E18.21483
G1 X151.249 Y192.949 E18.28068
G1 X151.213 Y193.947 E18.3604
G1 X151.079 Y195.172 E18.45876
G1 X150.885 Y196.202 E18.54243
G1 X150.708 Y196.9 E18.59991
G1 X150.386 Y197.947 E18.68735
G1 X150.003 Y198.935 E18.77193
G1 X149.613 Y199.762 E18.84492
G1 X149.108 Y200.671 E18.92793
G1 X148.467 Y201.65 E19.02134
G1 X147.647 Y202.692 E19.12718
G1 X146.832 Y203.585 E19.22369
G1 X145.979 Y204.375 E19.31649
G1 X145.16 Y205.031 E19.40026
G1 X144.289 Y205.63 E19.48464
G1 X143.427 Y206.14 E19.56459
G1 X142.875 Y206.408 E19.61357
G1 X141.359 Y207.252 E19.75207
G1 X140.541 Y207.637 E19.82424
G1 X139.546 Y208.022 E19.9094
G1 X138.54 Y208.332 E19.99343
G1 X137.47 Y208.578 E20.08107
G1 X136.446 Y208.734 E20.16376
G1 X135.19 Y208.829 E20.2643
G1 X134.791 Y208.836 E20.29616
G1 X131.738 Y208.836 E20.53986
G1 X130.6 Y208.788 E20.63078
G1 X129.536 Y208.666 E20.71627
G1 X128.509 Y208.469 E20.79975
G1 X127.441 Y208.183 E20.888
G1 X126.433 Y207.831 E20.97323
G1 X125.645 Y207.497 E21.04155
G1 X124.8 Y207.078 E21.11684
G1 X124.543 Y206.933 E21.14039
G1 X124.044 Y206.629 E21.18703
G1 X123.627 Y206.402 E21.22493
G1 X123.05 Y206.114 E21.27641
G1 X122.226 Y205.643 E21.35217
G1 X121.235 Y204.956 E21.44843
G1 X120.418 Y204.298 E21.53217
G1 X119.632 Y203.565 E21.61796
G1 X119.03 Y202.924 E21.68815
G1 X118.291 Y202.021 E21.78129
G1 X117.633 Y201.061 E21.8742
G1 X117.102 Y200.147 E21.95858
G1 X116.688 Y199.322 E22.03226
G1 X116.36 Y198.554 E22.09892
G1 X115.981 Y197.517 E22.18705
G1 X115.689 Y196.501 E22.27144
G1 X115.625 Y196.251 E22.29204
G1 X115.546 Y195.83 E22.32623
G1 X115.364 Y195.158 E22.3818
G1 X115.097 Y194.516 E22.43731
G1 X114.768 Y193.937 E22.49047
G1 X114.347 Y193.375 E22.54652
G1 X113.89 Y192.906 E22.59879
G1 X113.347 Y192.472 E22.65428
G1 X112.766 Y192.119 E22.70855
G1 X112.155 Y191.844 E22.76203
G1 X111.492 Y191.641 E22.81738
G1 X110.829 Y191.529 E22.87105
G1 X110.127 Y191.5 E22.92714
G1 X109.458 Y191.557 E22.98073
G1 X108.788 Y191.699 E23.0354
G1 X108.142 Y191.926 E23.09006
G1 X107.51 Y192.245 E23.14657
G1 X106.947 Y192.624 E23.20075
G1 X106.43 Y193.081 E23.25583
G1 X105.999 Y193.568 E23.30774
G1 X105.613 Y194.133 E23.36236
G1 X105.299 Y194.742 E23.41706
G1 X105.064 Y195.401 E23.4729
G1 X104.946 Y195.888 E23.5129
G1 X104.885 Y196.202 E23.53844
G1 X104.708 Y196.9 E23.59592
G1 X104.386 Y197.947 E23.68336
G1 X104.003 Y198.935 E23.76794
G1 X103.613 Y199.762 E23.84093
G1 X103.108 Y200.671 E23.92394
G1 X102.467 Y201.65 E24.01734
G1 X101.647 Y202.692 E24.12319
G1 X100.832 Y203.585 E24.2197
G1 X99.979 Y204.375 E24.3125
G1 X99.16 Y205.031 E24.39626
G1 X98.289 Y205.63 E24.48065
G1 X97.427 Y206.14 E24.5606
G1 X96.871 Y206.409 E24.6099
G1 X95.359 Y207.252 E24.74808
G1 X94.541 Y207.637 E24.82025
G1 X93.546 Y208.022 E24.90542
G1 X92.54 Y208.332 E24.98945
G1 X91.47 Y208.578 E25.07709
G1 X90.446 Y208.734 E25.15977
G1 X89.19 Y208.829 E25.26031
G1 X88.791 Y208.836 E25.29217
G1 X85.738 Y208.836 E25.53587
G1 X84.6 Y208.788 E25.62679
G1 X83.536 Y208.666 E25.71228
G1 X82.509 Y208.469 E25.79576
G1 X81.441 Y208.183 E25.88401
G1 X80.433 Y207.831 E25.96924
G1 X79.645 Y207.497 E26.03756
G1 X78.8 Y207.078 E26.11285
G1 X78.543 Y206.933 E26.1364
G1 X78.059 Y206.638 E26.18165
G1 X77.627 Y206.402 E26.22094
G1 X77.05 Y206.114 E26.27242
G1 X76.226 Y205.643 E26.34818
G1 X75.235 Y204.956 E26.44444
G1 X74.418 Y204.298 E26.52818
G1 X73.632 Y203.565 E26.61397
G1 X73.03 Y202.924 E26.68416
G1 X72.291 Y202.021 E26.7773
G1 X71.633 Y201.061 E26.87021
G1 X71.102 Y200.147 E26.95459
G1 X70.688 Y199.322 E27.02827
G1 X70.36 Y198.554 E27.09493
G1 X69.981 Y197.516 E27.18314
G1 X69.718 Y196.627 E27.25714
G1 X69.63 Y196.257 E27.2875
G1 X69.438 Y195.271 E27.36769
G1 X69.316 Y194.349 E27.44193
G1 X69.252 Y192.998 E27.54989
G1 X69.251 Y192.268 E27.60816
G1 X69.291 Y191.172 E27.69571
G1 X69.466 Y189.756 E27.8096
G1 X69.539 Y189.327 E27.84434
G1 X69.612 Y188.47 E27.91299
G1 X69.653 Y172.915 E29.15467
G1 X69.614 Y172.255 E29.20744
G1 X69.526 Y171.739 E29.24923
G1 X69.381 Y171.072 E29.30371
G1 X69.251 Y170.185 E29.37527
G1 X69.158 Y168.94 E29.47493
G1 X69.15 Y168.442 E29.51469
G1 X69.151 Y102.015 E34.81718
G1 X69.187 Y101.016 E34.89697
G1 X69.321 Y99.791 E34.99534
G1 X69.518 Y98.765 E35.07874
G1 X69.8 Y97.708 E35.16606
G1 X70.152 Y96.697 E35.25152
G1 X70.527 Y95.813 E35.32817
G1 X71.056 Y94.796 E35.41968
G1 X71.522 Y94.03 E35.49125
G1 X72.19 Y93.085 E35.58363
G1 X72.927 Y92.206 E35.67519
G1 X73.549 Y91.56 E35.74677
G1 X74.344 Y90.839 E35.83245
G1 X75.185 Y90.183 E35.91759
G1 X75.734 Y89.812 E35.97048
G1 X76.254 Y89.42 E36.02246
G1 X76.778 Y88.91 E36.08083
G1 X77.173 Y88.408 E36.13182
G1 X77.528 Y87.828 E36.1861
G1 X77.818 Y87.177 E36.24299
G1 X78.004 Y86.555 E36.29481
G1 X78.121 Y85.868 E36.35044
G1 X78.15 Y85.322 E36.39409
G1 X78.15 Y66.365 E37.90732
G1 X78.157 Y65.908 E37.9438
G1 X78.151 Y64.013 E38.09507
G1 X78.187 Y63.015 E38.17478
G1 X78.321 Y61.79 E38.27315
G1 X78.518 Y60.764 E38.35655
G1 X78.8 Y59.707 E38.44387
G1 X79.152 Y58.696 E38.52933
G1 X79.527 Y57.812 E38.60598
G1 X80.056 Y56.795 E38.69749
G1 X80.522 Y56.029 E38.76906
G1 X81.19 Y55.084 E38.86143
G1 X81.927 Y54.205 E38.953
G1 X82.549 Y53.559 E39.02458
G1 X83.344 Y52.838 E39.11026
G1 X84.184 Y52.183 E39.19528
G1 X85.075 Y51.583 E39.28103
G1 X86.144 Y50.984 E39.37885
G1 X86.878 Y50.639 E39.44359
G1 X87.458 Y50.317 E39.49654
G1 X88.011 Y49.913 E39.55121
G1 X88.497 Y49.454 E39.60457
G1 X88.934 Y48.921 E39.65959
G1 X89.298 Y48.34 E39.71432
G1 X89.58 Y47.735 E39.7676
G1 X89.783 Y47.102 E39.82066
G1 X89.91 Y46.433 E39.87502
G1 X89.951 Y45.847 E39.92191
G1 X89.96 Y44.925 E39.99551
G1 X90.011 Y43.827 E40.08325
G1 X90.172 Y42.575 E40.18402
G1 X90.239 Y42.143 E40.21891
G1 X90.51 Y40.892 E40.32109
G1 X90.807 Y39.882 E40.40513
G1 X91.153 Y38.948 E40.48463
G1 X91.653 Y37.879 E40.57884
G1 X91.897 Y37.249 E40.63277
G1 X92.065 Y36.589 E40.68713
G1 X92.147 Y35.915 E40.74133
G1 X92.155 Y35.498 E40.77462
G1 X92.151 Y29.106 E41.28486
G1 X92.187 Y28.107 E41.36466
G1 X92.321 Y26.882 E41.46302
G1 X92.518 Y25.856 E41.54642
G1 X92.8 Y24.799 E41.63374
G0 F9000 X93.101 Y25.218
G1 F1125 X126.949 Y59.067 E45.45486
G1 F1500 E38.95486
G0 F9000 X126.949 Y61.33
G1 F1500 E45.45486
G1 F1125 X92.7 Y27.08 E49.32124
G1 F1500 E42.82124
G0 F9000 X92.55 Y29.193
G1 F1500 E49.32124
G1 F1125 X126.949 Y63.592 E53.20449
G1 F1500 E46.70449
G0 F9000 X126.949 Y65.855
G1 F1500 E53.20449
G1 F1125 X92.551 Y31.457 E57.08764
G1 F1500 E50.58764
G0 F9000 X92.553 Y33.721
G1 F1500 E57.08764
G1 F1125 X126.949 Y68.118 E60.97061
G1 F1500 E54.47061
G0 F9000 X126.949 Y70.381
G1 F1500 E60.97061
G1 F1125 X92.541 Y35.972 E64.85494
G1 F1500 E58.35494
G0 F9000 X92.109 Y37.803
G1 F1500 E64.85494
G1 F1125 X126.949 Y72.643 E68.78798
G1 F1500 E62.28798
G0 F9000 X126.949 Y74.906
G1 F1500 E68.78798
G1 F1125 X91.419 Y39.376 E72.79891
G1 F1500 E66.29891
G0 F9000 X90.874 Y41.094
G1 F1500 E72.79891
G1 F1125 X126.949 Y77.169 E76.87137
G1 F1500 E70.37137
G0 F9000 X126.949 Y79.432
G1 F1500 E76.87137
G1 F1125 X90.518 Y43.001 E80.98402
G1 F1500 E74.48402
G0 F9000 X90.356 Y45.102
G1 F1500 E80.98402
G1 F1125 X126.949 Y81.694 E85.11489
G1 F1500 E78.61489
G0 F9000 X126.949 Y83.957
G1 F1500 E85.11489
G1 F1125 X90.173 Y47.18 E89.26654
G1 F1500 E82.76654
G0 F9000 X89.498 Y48.769
G1 F1500 E89.26654
G1 F1125 X126.949 Y86.22 E93.49434
G1 F1500 E86.99434
G0 F9000 X126.949 Y88.483
G1 F1500 E93.49434
G1 F1125 X88.482 Y50.015 E97.83688
G1 F1500 E91.33688
G0 F9000 X87.149 Y50.945
G1 F1500 E97.83688
G1 F1125 X126.949 Y90.745 E102.32985
G1 F1500 E95.82985
G0 F9000 X126.949 Y93.008
G1 F1500 E102.32985
G1 F1125 X85.656 Y51.715 E106.99136
G1 F1500 E100.49136
G0 F9000 X84.287 Y52.609
G1 F1500 E106.99136
G1 F1125 X126.949 Y95.271 E111.80741
G1 F1500 E105.30741
G0 F9000 X126.949 Y97.534
G1 F1500 E111.80741
G1 F1125 X83.055 Y53.639 E116.7626
G1 F1500 E110.2626
G0 F9000 X81.95 Y54.797
G1 F1500 E116.7626
G1 F1125 X126.949 Y99.796 E121.84248
G1 F1500 E115.34248
G0 F9000 X126.949 Y102.059
G1 F1500 E121.84248
G1 F1125 X80.972 Y56.082 E127.03276
G1 F1500 E120.53276
G0 F9000 X80.134 Y57.507
G1 F1500 E127.03276
G1 F1125 X126.949 Y104.322 E132.31764
G1 F1500 E125.81764
G0 F9000 X126.949 Y106.585
G1 F1500 E132.31764
G1 F1125 X79.441 Y59.076 E137.68081
G1 F1500 E131.18081
G0 F9000 X78.916 Y60.814
G1 F1500 E137.68081
G1 F1125 X126.949 Y108.847 E143.10319
G1 F1500 E136.60319
G0 F9000 X126.949 Y111.11
G1 F1500 E143.10319
G1 F1125 X78.614 Y62.774 E148.55972
G1 F1500 E142.05972
G0 F9000 X78.553 Y64.976
G1 F1500 E148.55972
G1 F1125 X127.763 Y114.187 E154.11503
G1 F1500 E147.61503
G0 F9000 X129.258 Y113.807
G0 X130.642 Y115.444
G0 X131.346 Y116.406
G0 X132.205 Y117.85
G0 X132.959 Y119.315
G0 X131.893 Y120.579
G1 F1500 E154.11503
G1 F1125 X78.548 Y67.235 E160.13702
G1 F1500 E153.63702
G0 F9000 X78.548 Y69.497
G1 F1500 E160.13702
G1 F1125 X132.704 Y123.653 E166.25061
G1 F1500 E159.75061
G0 F9000 X132.938 Y126.15
G1 F1500 E166.25061
G1 F1125 X78.548 Y71.76 E172.39063
G1 F1500 E165.89063
G0 F9000 X78.548 Y74.023
G1 F1500 E172.39063
G1 F1125 X132.927 Y128.402 E178.5294
G1 F1500 E172.0294
G0 F9000 X132.714 Y130.452
G1 F1500 E178.5294
G1 F1125 X78.548 Y76.286 E184.64412
G1 F1500 E178.14412
G0 F9000 X78.548 Y78.548
G1 F1500 E184.64412
G1 F1125 X132.273 Y132.273 E190.70907
G1 F1500 E184.20907
G0 F9000 X131.692 Y133.955
G1 F1500 E190.70907
G1 F1125 X78.548 Y80.811 E196.70842
G1 F1500 E190.20842
G0 F9000 X78.548 Y83.074
G1 F1500 E196.70842
G1 F1125 X130.955 Y135.48 E202.62452
G1 F1500 E196.12452
G0 F9000 X130.077 Y136.866
G1 F1500 E202.62452
G1 F1125 X78.548 Y85.337 E208.44156
G1 F1500 E201.94156
G0 F9000 X78.21 Y87.261
G1 F1500 E208.44156
G1 F1125 X129.087 Y138.138 E214.18499
G1 F1500 E207.68499
G0 F9000 X128.047 Y139.361
G1 F1500 E214.18499
G1 F1125 X77.42 Y88.734 E219.90021
G1 F1500 E213.40021
G0 F9000 X76.304 Y89.881
G1 F1500 E219.90021
G1 F1125 X127.28 Y140.857 E225.65482
G1 F1500 E219.15482
G0 F9000 X126.951 Y142.79
G1 F1500 E225.65482
G1 F1125 X74.997 Y90.836 E231.51983
G1 F1500 E225.01983
G0 F9000 X73.786 Y91.888
G1 F1500 E231.51983
G1 F1125 X126.951 Y145.053 E237.52156
G1 F1500 E231.02156
G0 F9000 X126.995 Y147.36
G1 F1500 E237.52156
G1 F1125 X72.714 Y93.079 E243.64927
G1 F1500 E237.14927
G0 F9000 X71.767 Y94.395
G1 F1500 E243.64927
G1 F1125 X150.453 Y173.08 E252.53197
G1 F1500 E246.03197
G0 F9000 X150.463 Y175.353
G1 F1500 E252.53197
G1 F1125 X70.958 Y95.849 E261.50712
G1 F1500 E255.00712
G0 F9000 X70.309 Y97.461
G1 F1500 E261.50712
G1 F1125 X150.473 Y177.626 E270.55678
G1 F1500 E264.05678
G0 F9000 X150.483 Y179.899
G1 F1500 E270.55678
G1 F1125 X69.831 Y99.247 E279.66148
G1 F1500 E273.16148
G0 F9000 X69.578 Y101.256
G1 F1500 E279.66148
G1 F1125 X150.494 Y182.172 E288.79598
G1 F1500 E282.29598
G0 F9000 X150.504 Y184.445
G1 F1500 E288.79598
G1 F1125 X69.55 Y103.491 E297.93476
G1 F1500 E291.43476
