;FLAVOR:Marlin
;TIME:31091
;Filament used: 20.2641m
;Layer height: 0.2
;MINX:8.841
;MINY:67.687
;MINZ:0.24
;MAXX:209.902
;MAXY:151.914
;MAXZ:45.89
;Generated with Cura_SteamEngine 5.4.0
M82 ;absolute extrusion mode
; Ender 3 Custom Start G-code
G92 E0 ; Reset Extruder
G28 ; Home all axes
M104 S175 ; Start heating up the nozzle most of the way
M190 S60 ; Start heating the bed, wait until target temperature reached
M109 S200 ; Finish heating the nozzle
G1 Z2.0 F3000 ; Move Z Axis up little to prevent scratching of Heat Bed
G1 X0.1 Y20 Z0.3 F5000.0 ; Move to start position
G1 X0.1 Y200.0 Z0.3 F1500.0 E15 ; Draw the first line
G1 X0.4 Y200.0 Z0.3 F5000.0 ; Move to side a little
G1 X0.4 Y20 Z0.3 F1500.0 E30 ; Draw the second line
G92 E0 ; Reset Extruder
G1 Z2.0 F3000 ; Move Z Axis up little to prevent scratching of Heat Bed
G1 X5 Y20 Z0.3 F5000.0 ; Move over to prevent blob squish
G92 E0
G92 E0
G1 F1500 E-6.5
;LAYER_COUNT:224
;LAYER:-6
M107
G0 F9000 X23.249 Y92.68 Z0.24
;TYPE:SUPPORT-INTERFACE
G1 F1500 E0
G1 F1125 X23.801 Y92.576 E0.04484
G1 X24.353 Y92.441 E0.0902
G1 X25.481 Y92.109 E0.18406
G1 X26.372 Y91.909 E0.25695
G1 X27.398 Y91.753 E0.3398
G1 X28.654 Y91.658 E0.44034
G1 X29.055 Y91.651 E0.47236
G1 X35.312 Y91.652 E0.97182
G1 X36.45 Y91.699 E1.06273
G1 X37.513 Y91.821 E1.14814
G1 X38.542 Y92.018 E1.23177
G1 X39.429 Y92.25 E1.30496
G1 X39.785 Y92.364 E1.3348
G1 X40.411 Y92.535 E1.3866
G1 X41.112 Y92.636 E1.44314
G1 X41.513 Y92.65 E1.47516
G1 X111.248 Y92.65 E7.04171
G1 X111.899 Y92.61 E7.09378
G1 X112.586 Y92.481 E7.14957
G1 X113.244 Y92.266 E7.20483
G1 X113.836 Y91.987 E7.25707
G1 X114.415 Y91.621 E7.31175
G1 X114.93 Y91.196 E7.36505
G1 X115.668 Y90.547 E7.4435
G1 X115.974 Y90.299 E7.47494
G1 X116.774 Y89.689 E7.55525
G1 X117.742 Y89.063 E7.64727
G1 X118.24 Y88.778 E7.69307
G1 X118.715 Y88.521 E7.73618
G1 X119.465 Y88.141 E7.80329
G1 X119.826 Y87.975 E7.83501
G1 X120.702 Y87.628 E7.91022
G1 X121.562 Y87.345 E7.98249
G1 X122.748 Y87.048 E8.08009
G1 X123.499 Y86.912 E8.14101
G1 X124.009 Y86.832 E8.18222
G1 X124.902 Y86.718 E8.25408
G1 X125.155 Y86.698 E8.27434
G1 X126.382 Y86.651 E8.37236
G1 X127.894 Y86.652 E8.49305
G1 X128.932 Y86.689 E8.57596
G1 X130.001 Y86.801 E8.66176
G1 X131.132 Y87.004 E8.75348
G1 X132.309 Y87.32 E8.85077
G1 X132.95 Y87.518 E8.90432
G1 X133.977 Y87.881 E8.99127
G1 X134.957 Y88.313 E9.07676
G1 X135.913 Y88.821 E9.16318
G1 X136.738 Y89.332 E9.24064
G1 X137.696 Y90.035 E9.33549
G1 X138.264 Y90.49 E9.39359
G1 X139.09 Y91.214 E9.48126
G1 X139.597 Y91.629 E9.53356
G1 X140.199 Y92.006 E9.59026
G1 X140.818 Y92.29 E9.64463
G1 X141.462 Y92.492 E9.6985
G1 X142.118 Y92.613 E9.75175
G1 X142.725 Y92.65 E9.8003
G1 X146.65 Y92.65 E10.11361
G1 X147.301 Y92.61 E10.16567
G1 X147.988 Y92.481 E10.22147
G1 X148.646 Y92.266 E10.27672
G1 X149.249 Y91.982 E10.32993
G1 X149.824 Y91.616 E10.38434
G1 X150.36 Y91.17 E10.44
G1 X150.83 Y90.664 E10.49513
G1 X151.217 Y90.125 E10.54809
G1 X151.547 Y89.515 E10.60345
G1 X151.793 Y88.884 E10.65752
G1 X151.955 Y88.23 E10.7113
G1 X152.019 Y87.788 E10.74695
G1 X152.063 Y87.277 E10.78789
G1 X152.227 Y86.078 E10.88449
G1 X152.436 Y85.088 E10.96526
G1 X152.621 Y84.409 E11.02144
G1 X152.985 Y83.203 E11.12199
G1 X153.346 Y82.164 E11.20979
G1 X153.705 Y81.316 E11.2833
G1 X154.081 Y80.558 E11.35084
G1 X154.631 Y79.529 E11.44398
G1 X155.178 Y78.603 E11.52983
G1 X155.736 Y77.782 E11.60907
G1 X156.266 Y77.092 E11.67852
G1 X156.82 Y76.415 E11.74835
G1 X157.738 Y75.379 E11.85884
G1 X158.377 Y74.755 E11.93014
G1 X159.024 Y74.192 E11.9986
G1 X159.936 Y73.445 E12.0927
G1 X160.819 Y72.78 E12.18094
G1 X161.684 Y72.221 E12.26315
G1 X162.247 Y71.901 E12.31485
G1 X163.325 Y71.324 E12.41245
G1 X164.35 Y70.83 E12.50327
G1 X165.18 Y70.495 E12.57472
G1 X165.843 Y70.267 E12.63069
G1 X167.155 Y69.872 E12.74006
G1 X168.07 Y69.631 E12.81559
G1 X169.26 Y69.41 E12.9122
G1 X169.926 Y69.328 E12.96577
G1 X170.997 Y69.22 E13.05169
G1 X172.408 Y69.149 E13.16447
G1 X188.993 Y69.014 E14.4884
G1 X189.618 Y68.973 E14.5384
G1 X190.021 Y68.914 E14.57091
G1 X191.144 Y68.789 E14.66111
G1 X192.236 Y68.751 E14.74833
G1 X192.971 Y68.751 E14.807
G1 X194.109 Y68.799 E14.89792
G1 X195.173 Y68.921 E14.98341
G1 X196.071 Y69.088 E15.05632
G1 X197.108 Y69.349 E15.14168
G1 X198.025 Y69.636 E15.21838
G1 X199.168 Y70.089 E15.31652
G1 X200.13 Y70.561 E15.40206
G1 X200.895 Y71.003 E15.47258
G1 X201.84 Y71.629 E15.56307
G1 X202.651 Y72.273 E15.64573
G1 X203.438 Y72.983 E15.73034
G1 X204.259 Y73.86 E15.82624
G1 X204.939 Y74.707 E15.91294
G1 X205.534 Y75.57 E15.99662
G1 X206.047 Y76.433 E16.07676
G1 X206.308 Y76.97 E16.12442
G1 X206.735 Y77.709 E16.19255
G1 X207.252 Y78.641 E16.27762
G1 X207.635 Y79.454 E16.34936
G1 X208.018 Y80.443 E16.43402
G1 X208.356 Y81.54 E16.52565
G1 X208.604 Y82.665 E16.61761
G1 X208.752 Y83.726 E16.70312
G1 X208.829 Y84.798 E16.78891
G1 X208.836 Y85.199 E16.82093
G1 X208.837 Y88.247 E17.06423
G1 X208.788 Y89.408 E17.15699
G1 X208.666 Y90.471 E17.2424
G1 X208.469 Y91.498 E17.32588
G1 X208.187 Y92.555 E17.4132
G1 X207.835 Y93.566 E17.49865
G1 X207.5 Y94.355 E17.56708
G1 X207.009 Y95.329 E17.65415
G1 X206.672 Y95.894 E17.70666
G1 X206.332 Y96.532 E17.76437
G1 X205.812 Y97.469 E17.84991
G1 X205.305 Y98.254 E17.92451
G1 X204.746 Y99.005 E17.99924
G1 X204.588 Y99.201 E18.01933
G1 X203.86 Y100.037 E18.10782
G1 X203.105 Y100.784 E18.1926
G1 X202.297 Y101.476 E18.27752
G1 X201.584 Y102.008 E18.34854
G1 X200.612 Y102.635 E18.44087
G1 X199.594 Y103.177 E18.53293
G1 X198.644 Y103.601 E18.61597
G1 X198.395 Y103.7 E18.63736
G1 X197.341 Y104.073 E18.72661
G1 X196.495 Y104.313 E18.7968
G1 X196.246 Y104.375 E18.81729
G1 X195.833 Y104.454 E18.85085
G1 X195.181 Y104.628 E18.90472
G1 X194.523 Y104.897 E18.96146
G1 X193.937 Y105.233 E19.01538
G1 X193.384 Y105.647 E19.07053
G1 X192.907 Y106.111 E19.12365
G1 X192.475 Y106.65 E19.17879
G1 X192.122 Y107.227 E19.23278
G1 X191.849 Y107.832 E19.28576
G1 X191.643 Y108.504 E19.34187
G1 X191.529 Y109.168 E19.39565
G1 X191.5 Y109.87 E19.45173
G1 X191.553 Y110.528 E19.50443
G1 X191.701 Y111.216 E19.5606
G1 X191.924 Y111.852 E19.6144
G1 X192.231 Y112.466 E19.6692
G1 X192.619 Y113.044 E19.72477
G1 X193.058 Y113.545 E19.77794
G1 X193.596 Y114.023 E19.83539
G1 X194.107 Y114.373 E19.88483
G1 X194.755 Y114.707 E19.94302
G1 X195.367 Y114.927 E19.99494
G1 X195.891 Y115.055 E20.03799
G1 X196.203 Y115.115 E20.06335
G1 X196.783 Y115.259 E20.11106
G1 X197.947 Y115.614 E20.2082
G1 X198.947 Y116.004 E20.29388
G1 X199.762 Y116.387 E20.36576
G1 X200.671 Y116.893 E20.44881
G1 X201.637 Y117.525 E20.54095
G1 X202.699 Y118.359 E20.64874
G1 X203.547 Y119.136 E20.74055
G1 X204.347 Y119.984 E20.83361
G1 X204.942 Y120.724 E20.90941
G1 X205.522 Y121.543 E20.98952
G1 X205.666 Y121.771 E21.01104
G1 X206.115 Y122.536 E21.08185
G1 X206.449 Y123.199 E21.14111
G1 X207.252 Y124.641 E21.27286
G1 X207.635 Y125.454 E21.3446
G1 X208.018 Y126.442 E21.42918
G1 X208.358 Y127.547 E21.52147
G1 X208.604 Y128.665 E21.61285
G1 X208.752 Y129.726 E21.69836
G1 X208.829 Y130.798 E21.78415
G1 X208.836 Y131.199 E21.81617
G1 X208.837 Y134.244 E22.05923
G1 X208.8 Y135.243 E22.13903
G1 X208.666 Y136.468 E22.2374
G1 X208.469 Y137.494 E22.3208
G1 X208.187 Y138.551 E22.40812
G1 X207.835 Y139.562 E22.49358
G1 X207.5 Y140.352 E22.56207
G1 X207.078 Y141.204 E22.63797
G1 X206.935 Y141.457 E22.66117
G1 X206.651 Y141.924 E22.7048
G1 X206.4 Y142.387 E22.74684
G1 X206.207 Y142.773 E22.78129
G1 X205.77 Y143.541 E22.85182
G1 X205.178 Y144.435 E22.93741
G1 X204.71 Y145.057 E22.99955
G1 X204.533 Y145.273 E23.02184
G1 X203.735 Y146.169 E23.11762
G1 X202.945 Y146.93 E23.20518
G1 X202.274 Y147.496 E23.27525
G1 X201.252 Y148.233 E23.37583
G1 X200.357 Y148.78 E23.45956
G1 X199.428 Y149.264 E23.54318
G1 X198.654 Y149.598 E23.61047
G1 X198.373 Y149.709 E23.63458
G1 X197.308 Y150.084 E23.72471
G1 X196.223 Y150.38 E23.81449
G1 X195.234 Y150.568 E23.89485
G1 X194.29 Y150.69 E23.97083
G1 X192.883 Y150.749 E24.08324
G1 X192.249 Y150.749 E24.13385
G1 X191.18 Y150.71 E24.21924
G1 X190.014 Y150.57 E24.31298
G1 X189.235 Y150.445 E24.37596
G1 X188.359 Y150.369 E24.44615
G1 X172.898 Y150.35 E25.68031
G1 X172.228 Y150.391 E25.7339
G1 X171.74 Y150.475 E25.77342
G1 X171.083 Y150.615 E25.82705
G1 X170.024 Y150.764 E25.91241
G1 X168.941 Y150.841 E25.99908
G1 X168.546 Y150.848 E26.03062
G1 X102.034 Y150.85 E31.33989
G1 X100.857 Y150.801 E31.43393
G1 X99.792 Y150.679 E31.51949
G1 X98.744 Y150.477 E31.60469
G1 X97.883 Y150.253 E31.67571
G1 X96.792 Y149.888 E31.76754
G1 X96.006 Y149.559 E31.83556
G1 X95.066 Y149.095 E31.91923
G1 X94.792 Y148.942 E31.94429
G1 X94.03 Y148.478 E32.0155
G1 X93.08 Y147.808 E32.1083
G1 X92.19 Y147.056 E32.20131
G1 X91.552 Y146.442 E32.27199
G1 X90.841 Y145.658 E32.35647
G1 X90.184 Y144.815 E32.44179
G1 X89.703 Y144.101 E32.51051
G1 X89.302 Y143.575 E32.5633
G1 X88.824 Y143.084 E32.618
G1 X88.305 Y142.674 E32.6708
G1 X87.725 Y142.319 E32.72508
G1 X87.075 Y142.029 E32.7819
G1 X86.425 Y141.836 E32.83602
G1 X85.828 Y141.735 E32.88436
G1 X85.382 Y141.678 E32.92025
G1 X84.356 Y141.482 E33.00363
G1 X83.288 Y141.196 E33.09188
G1 X82.28 Y140.844 E33.17711
G1 X81.493 Y140.51 E33.24536
G1 X80.522 Y140.019 E33.33221
G1 X79.54 Y139.429 E33.42366
G1 X78.621 Y138.764 E33.51421
G1 X78.083 Y138.403 E33.56593
G1 X77.475 Y138.094 E33.62037
G1 X76.825 Y137.86 E33.67551
G1 X76.167 Y137.717 E33.72926
G1 X75.477 Y137.654 E33.78457
G1 X74.774 Y137.682 E33.84073
G1 X74.13 Y137.788 E33.89283
G1 X73.444 Y137.993 E33.94998
G1 X72.83 Y138.267 E34.00366
G1 X72.069 Y138.755 E34.07582
G1 X71.503 Y139.178 E34.13222
G1 X70.768 Y139.666 E34.20265
G1 X69.7 Y140.266 E34.30043
G1 X68.883 Y140.65 E34.37249
G1 X67.888 Y141.035 E34.45766
G1 X66.882 Y141.345 E34.54169
G1 X65.812 Y141.591 E34.62933
G1 X64.788 Y141.747 E34.71201
G1 X63.532 Y141.842 E34.81256
G1 X63.029 Y141.85 E34.85271
G1 X61.585 Y141.849 E34.96798
G1 X60.447 Y141.801 E35.0589
G1 X59.383 Y141.679 E35.14439
G1 X58.356 Y141.482 E35.22786
G1 X57.288 Y141.196 E35.31612
G1 X56.28 Y140.844 E35.40135
G1 X55.493 Y140.51 E35.46959
G1 X54.522 Y140.019 E35.55645
G1 X53.62 Y139.477 E35.64045
G1 X52.672 Y138.808 E35.73307
G1 X51.794 Y138.069 E35.82467
G1 X51.141 Y137.441 E35.89699
G1 X50.43 Y136.656 E35.98154
G1 X49.775 Y135.816 E36.06657
G1 X49.171 Y134.918 E36.15295
G1 X48.618 Y133.946 E36.24222
G1 X48.202 Y133.059 E36.32043
G1 X47.879 Y132.471 E36.37398
G1 X47.474 Y131.915 E36.42889
G1 X47.021 Y131.433 E36.48169
G1 X46.471 Y130.98 E36.53856
G1 X45.895 Y130.619 E36.59283
G1 X45.29 Y130.337 E36.64611
G1 X44.643 Y130.13 E36.70033
G1 X43.811 Y129.988 E36.76771
G1 X42.814 Y129.87 E36.84785
G1 X42.558 Y129.83 E36.86853
G1 X41.513 Y129.63 E36.95346
G1 X40.601 Y129.388 E37.02878
G1 X40.178 Y129.261 E37.06404
G1 X39.14 Y128.904 E37.15166
G1 X37.789 Y128.307 E37.26956
G1 X37.148 Y128.07 E37.32411
G1 X36.47 Y127.913 E37.37967
G1 X35.525 Y127.846 E37.45529
G1 X29.087 Y127.849 E37.9692
G1 X27.949 Y127.801 E38.06012
G1 X26.885 Y127.679 E38.14561
G1 X25.858 Y127.482 E38.22908
G1 X24.79 Y127.196 E38.31734
G1 X23.78 Y126.845 E38.40269
G1 X23.141 Y126.648 E38.45607
G1 X22.447 Y126.487 E38.51294
G1 X21.583 Y126.236 E38.58476
G1 X20.415 Y125.842 E38.68315
G1 X19.511 Y125.47 E38.76119
G1 X18.496 Y124.952 E38.85215
G1 X17.668 Y124.459 E38.92907
G1 X16.57 Y123.674 E39.03682
G1 X16.079 Y123.288 E39.08667
G1 X15.23 Y122.556 E39.17615
G1 X14.485 Y121.821 E39.25969
G1 X13.727 Y120.956 E39.3515
G1 X13.121 Y120.187 E39.42966
G1 X12.524 Y119.313 E39.51414
G1 X12.031 Y118.479 E39.59148
G1 X11.767 Y117.989 E39.63591
G1 X11.377 Y117.22 E39.70474
G1 X11.213 Y116.856 E39.73661
G1 X10.866 Y115.978 E39.81197
G1 X10.586 Y115.124 E39.88371
G1 X10.291 Y113.94 E39.98111
G1 X10.118 Y112.973 E40.05952
G1 X9.968 Y111.809 E40.15321
G1 X9.948 Y111.556 E40.17347
G1 X9.901 Y110.335 E40.271
G1 X9.902 Y108.894 E40.38603
G1 X9.939 Y107.856 E40.46894
G1 X10.06 Y106.696 E40.56204
G1 X10.278 Y105.565 E40.65398
G1 X10.573 Y104.468 E40.74466
G1 X10.768 Y103.838 E40.7973
G1 X11.128 Y102.819 E40.88357
G1 X11.563 Y101.832 E40.96967
G1 X12.07 Y100.877 E41.05598
G1 X12.64 Y99.971 E41.14142
G1 X13.289 Y99.089 E41.22883
G1 X13.74 Y98.525 E41.28648
G1 X14.446 Y97.719 E41.37201
G1 X15.207 Y96.968 E41.45736
G1 X15.886 Y96.377 E41.52921
G1 X16.241 Y96.09 E41.56565
G1 X17.121 Y95.426 E41.65365
G1 X18.022 Y94.85 E41.73901
G1 X19.242 Y94.199 E41.8494
G1 X20.27 Y93.713 E41.94016
G1 X21.299 Y93.276 E42.0294
G1 X22.201 Y92.958 E42.10575
G1 X23.249 Y92.68 E42.1923
G0 F9000 X23.011 Y93.156
G1 F1125 X69.675 Y139.82 E47.46013
G1 F1500 E40.96013
G0 F9000 X71.088 Y138.971
G1 F1500 E47.46013
G1 F1125 X24.834 Y92.716 E52.68174
G1 F1500 E46.18174
G0 F9000 X26.65 Y92.27
G1 F1500 E52.68174
G1 F1125 X72.428 Y138.047 E57.8495
G1 F1500 E51.3495
G0 F9000 X74.042 Y137.399
G1 F1500 E57.8495
G1 F1125 X28.7 Y92.057 E62.9681
G1 F1500 E56.4681
G0 F9000 X30.957 Y92.051
G1 F1500 E62.9681
G1 F1125 X76.227 Y137.321 E68.07857
G1 F1500 E61.57857
G0 F9000 X76.519 Y138.881
G0 X79.849 Y140.863
G0 X80.96 Y139.792
G1 F1500 E68.07857
G1 F1125 X33.219 Y92.051 E73.46798
G1 F1500 E66.96798
G0 F9000 X35.49 Y92.058
G1 F1500 E73.46798
G1 F1125 X84.54 Y141.108 E79.00517
G1 F1500 E72.50517
G0 F9000 X87.455 Y141.761
G1 F1500 E79.00517
G1 F1125 X38.019 Y92.324 E84.58599
G1 F1500 E78.08599
G0 F9000 X40.976 Y93.019
G1 F1500 E84.58599
G1 F1125 X97.739 Y149.782 E90.99389
G1 F1500 E84.49389
G0 F9000 X100.585 Y150.366
G1 F1500 E90.99389
G1 F1125 X43.269 Y93.049 E97.46427
G1 F1500 E90.96427
G0 F9000 X45.532 Y93.049
G1 F1500 E97.46427
G1 F1125 X102.93 Y150.448 E103.94391
G1 F1500 E97.44391
G0 F9000 X105.193 Y150.448
G1 F1500 E103.94391
G1 F1125 X47.794 Y93.049 E110.4236
G1 F1500 E103.9236
G0 F9000 X50.057 Y93.049
G1 F1500 E110.4236
G1 F1125 X107.456 Y150.448 E116.9033
G1 F1500 E110.4033
G0 F9000 X109.718 Y150.448
G1 F1500 E116.9033
G1 F1125 X52.32 Y93.049 E123.38294
G1 F1500 E116.88294
G0 F9000 X54.582 Y93.049
G1 F1500 E123.38294
G1 F1125 X111.981 Y150.448 E129.86263
G1 F1500 E123.36263
G0 F9000 X114.244 Y150.448
G1 F1500 E129.86263
G1 F1125 X56.845 Y93.049 E136.34233
G1 F1500 E129.84233
G0 F9000 X59.108 Y93.049
G1 F1500 E136.34233
G1 F1125 X116.507 Y150.448 E142.82202
G1 F1500 E136.32202
G0 F9000 X118.769 Y150.448
G1 F1500 E142.82202
G1 F1125 X61.371 Y93.049 E149.30166
G1 F1500 E142.80166
G0 F9000 X63.633 Y93.049
G1 F1500 E149.30166
G1 F1125 X121.032 Y150.448 E155.78136
G1 F1500 E149.28136
G0 F9000 X123.295 Y150.448
G1 F1500 E155.78136
G1 F1125 X65.896 Y93.049 E162.26105
G1 F1500 E155.76105
G0 F9000 X68.159 Y93.049
G1 F1500 E162.26105
G1 F1125 X125.558 Y150.448 E168.74075
G1 F1500 E162.24075
G0 F9000 X127.82 Y150.448
G1 F1500 E168.74075
G1 F1125 X70.422 Y93.049 E175.22039
G1 F1500 E168.72039
G0 F9000 X72.684 Y93.049
G1 F1500 E175.22039
G1 F1125 X130.083 Y150.448 E181.70008
G1 F1500 E175.20008
G0 F9000 X132.346 Y150.448
G1 F1500 E181.70008
G1 F1125 X74.947 Y93.049 E188.17978
G1 F1500 E181.67978
G0 F9000 X77.21 Y93.049
G1 F1500 E188.17978
G1 F1125 X134.609 Y150.448 E194.65947
G1 F1500 E188.15947
G0 F9000 X136.871 Y150.448
G1 F1500 E194.65947
G1 F1125 X79.473 Y93.049 E201.13911
G1 F1500 E194.63911
G0 F9000 X81.735 Y93.049
G1 F1500 E201.13911
G1 F1125 X139.134 Y150.448 E207.61881
G1 F1500 E201.11881
G0 F9000 X141.397 Y150.448
G1 F1500 E207.61881
G1 F1125 X83.998 Y93.049 E214.0985
G1 F1500 E207.5985
G0 F9000 X86.261 Y93.049
G1 F1500 E214.0985
G1 F1125 X143.66 Y150.448 E220.5782
G1 F1500 E214.0782
G0 F9000 X145.922 Y150.448
G1 F1500 E220.5782
G1 F1125 X88.524 Y93.049 E227.05783
G1 F1500 E220.55783
G0 F9000 X90.786 Y93.049
G1 F1500 E227.05783
G1 F1125 X148.185 Y150.448 E233.53753
G1 F1500 E227.03753
G0 F9000 X150.448 Y150.448
G1 F1500 E233.53753
G1 F1125 X93.049 Y93.049 E240.01722
G1 F1500 E233.51722
G0 F9000 X95.312 Y93.049
G1 F1500 E240.01722
G1 F1125 X152.711 Y150.448 E246.49692
G1 F1500 E239.99692
G0 F9000 X154.973 Y150.448
G1 F1500 E246.49692
G1 F1125 X97.575 Y93.049 E252.97656
G1 F1500 E246.47656
G0 F9000 X99.837 Y93.049
G1 F1500 E252.97656
G1 F1125 X157.236 Y150.448 E259.45625
G1 F1500 E252.95625
G0 F9000 X159.499 Y150.448
G1 F1500 E259.45625
