;FLAVOR:Marlin
;TIME:32445
;Filament used: 22.6664m
;Layer height: 0.2
;MINX:67.835
;MINY:8.635
;MINZ:0.24
;MAXX:152.561
;MAXY:209.902
;MAXZ:44.29
;Generated with Cura_SteamEngine 5.4.0
M82 ;absolute extrusion mode
; Ender 3 Custom Start G-code
G92 E0 ; Reset Extruder
G28 ; Home all axes
M104 S175 ; Start heating up the nozzle most of the way
M190 S60 ; Start heating the bed, wait until target temperature reached
M109 S200 ; Finish heating the nozzle
G1 Z2.0 F3000 ; Move Z Axis up little to prevent scratching of Heat Bed
G1 X0.1 Y20 Z0.3 F5000.0 ; Move to start position
G1 X0.1 Y200.0 Z0.3 F1500.0 E15 ; Draw the first line
G1 X0.4 Y200.0 Z0.3 F5000.0 ; Move to side a little
G1 X0.4 Y20 Z0.3 F1500.0 E30 ; Draw the second line
G92 E0 ; Reset Extruder
G1 Z2.0 F3000 ; Move Z Axis up little to prevent scratching of Heat Bed
G1 X5 Y20 Z0.3 F5000.0 ; Move over to prevent blob squish
G92 E0
G92 E0
G1 F1500 E-6.5
;LAYER_COUNT:216
;LAYER:-6
M107
G0 F9000 X93.463 Y22.8 Z0.24
;TYPE:SUPPORT-INTERFACE
G1 F1500 E0
G1 F1125 X93.793 Y21.723 E0.08992
G1 X94.173 Y20.736 E0.17434
G1 X94.421 Y20.193 E0.22199
G1 X95.022 Y18.95 E0.3322
G1 X95.465 Y18.111 E0.40794
G1 X96.077 Y17.122 E0.50078
G1 X96.812 Y16.133 E0.59914
G1 X97.227 Y15.623 E0.65162
G1 X97.967 Y14.783 E0.74098
G1 X98.671 Y14.087 E0.82001
G1 X99.658 Y13.259 E0.92285
G1 X100.641 Y12.55 E1.01959
G1 X101.68 Y11.924 E1.11642
G1 X102.384 Y11.562 E1.17961
G1 X103.379 Y11.095 E1.26735
G1 X104.068 Y10.8 E1.32718
G1 X105.169 Y10.41 E1.42042
G1 X106.187 Y10.14 E1.50449
G1 X107.289 Y9.935 E1.59396
G1 X107.997 Y9.835 E1.65104
G1 X109.02 Y9.734 E1.7331
G1 X110.015 Y9.701 E1.81256
G1 X111.345 Y9.703 E1.91873
G1 X112.569 Y9.755 E2.01652
G1 X113.451 Y9.854 E2.08737
G1 X114.589 Y10.059 E2.17967
G1 X115.638 Y10.338 E2.26632
G1 X116.895 Y10.787 E2.37287
G1 X117.519 Y11.037 E2.42653
G1 X118.723 Y11.588 E2.53222
G1 X119.521 Y12.026 E2.60489
G1 X120.478 Y12.636 E2.69548
G1 X121.344 Y13.291 E2.78215
G1 X121.91 Y13.751 E2.84037
G1 X122.622 Y14.372 E2.91579
G1 X123.509 Y15.265 E3.01626
G1 X124.074 Y15.924 E3.08555
G1 X124.714 Y16.783 E3.17106
G1 X125.263 Y17.634 E3.2519
G1 X125.681 Y18.385 E3.32051
G1 X125.994 Y18.986 E3.3746
G1 X126.489 Y20.033 E3.46704
G1 X126.849 Y20.979 E3.54784
G1 X127.211 Y22.188 E3.64858
G1 X127.476 Y23.315 E3.741
G1 X127.569 Y23.609 E3.76561
G1 X127.639 Y23.877 E3.78772
G1 X127.866 Y24.915 E3.87254
G1 X128.015 Y25.976 E3.95806
G1 X128.092 Y27.048 E4.04385
G1 X128.099 Y27.449 E4.07587
G1 X128.1 Y33.768 E4.58028
G1 X128.144 Y34.421 E4.63252
G1 X128.268 Y35.072 E4.68542
G1 X128.499 Y35.766 E4.74381
G1 X128.833 Y36.447 E4.80435
G1 X129.135 Y36.977 E4.85305
G1 X129.478 Y37.658 E4.91391
G1 X129.87 Y38.5 E4.98805
G1 X130.301 Y39.535 E5.07755
G1 X130.59 Y40.383 E5.14906
G1 X130.86 Y41.406 E5.23352
G1 X131.068 Y42.274 E5.30477
G1 X131.304 Y42.892 E5.35757
G1 X131.638 Y43.511 E5.41372
G1 X132.018 Y44.045 E5.46604
G1 X132.493 Y44.562 E5.52208
G1 X133.016 Y45.001 E5.57659
G1 X133.589 Y45.37 E5.63099
G1 X134.077 Y45.61 E5.6744
G1 X134.777 Y45.915 E5.73535
G1 X135.705 Y46.398 E5.81886
G1 X136.471 Y46.864 E5.89043
G1 X137.416 Y47.532 E5.98281
G1 X138.295 Y48.269 E6.07437
G1 X138.941 Y48.891 E6.14596
G1 X139.654 Y49.676 E6.23061
G1 X140.317 Y50.526 E6.31666
G1 X140.917 Y51.417 E6.40241
G1 X141.516 Y52.484 E6.50008
G1 X141.898 Y53.296 E6.57171
G1 X142.281 Y54.284 E6.6563
G1 X142.621 Y55.389 E6.74859
G1 X142.867 Y56.507 E6.83996
G1 X143.015 Y57.568 E6.92548
G1 X143.092 Y58.64 E7.01127
G1 X143.1 Y61.578 E7.24579
G1 X143.063 Y62.577 E7.32559
G1 X142.929 Y63.802 E7.42396
G1 X142.732 Y64.828 E7.50736
G1 X142.45 Y65.885 E7.59468
G1 X142.098 Y66.896 E7.68014
G1 X141.723 Y67.78 E7.75679
G1 X141.194 Y68.797 E7.84829
G1 X140.728 Y69.563 E7.91987
G1 X140.112 Y70.435 E8.00509
G1 X139.949 Y70.643 E8.02618
G1 X139.542 Y71.204 E8.08151
G1 X139.223 Y71.783 E8.13428
G1 X138.974 Y72.41 E8.18813
G1 X138.796 Y73.104 E8.24532
G1 X138.714 Y73.761 E8.29817
G1 X138.716 Y74.451 E8.35325
G1 X138.806 Y75.138 E8.40856
G1 X138.972 Y75.773 E8.46095
G1 X139.238 Y76.433 E8.51775
G1 X139.55 Y76.994 E8.56899
G1 X139.814 Y77.371 E8.60573
G1 X140.425 Y78.177 E8.68647
G1 X140.916 Y78.916 E8.75729
G1 X141.516 Y79.984 E8.85508
G1 X141.898 Y80.796 E8.92671
G1 X142.281 Y81.784 E9.01129
G1 X142.621 Y82.889 E9.10358
G1 X142.867 Y84.007 E9.19496
G1 X143.015 Y85.068 E9.28047
G1 X143.092 Y86.14 E9.36626
G1 X143.1 Y89.078 E9.60079
G1 X143.063 Y90.077 E9.68059
G1 X142.929 Y91.302 E9.77896
G1 X142.732 Y92.328 E9.86235
G1 X142.45 Y93.385 E9.94968
G1 X142.098 Y94.396 E10.03513
G1 X141.723 Y95.28 E10.11178
G1 X141.194 Y96.297 E10.20329
G1 X140.728 Y97.063 E10.27486
G1 X140.06 Y98.008 E10.36724
G1 X139.323 Y98.887 E10.4588
G1 X138.701 Y99.533 E10.53039
G1 X137.906 Y100.254 E10.61606
G1 X137.066 Y100.909 E10.70109
G1 X136.175 Y101.509 E10.78683
G1 X135.108 Y102.108 E10.88451
G1 X134.291 Y102.492 E10.95657
G1 X133.215 Y102.909 E11.04869
G1 X132.108 Y103.236 E11.14083
G1 X131.466 Y103.45 E11.19485
G1 X130.857 Y103.744 E11.24883
G1 X130.291 Y104.11 E11.30263
G1 X129.771 Y104.546 E11.3568
G1 X129.316 Y105.038 E11.41029
G1 X128.892 Y105.634 E11.46868
G1 X128.583 Y106.218 E11.52142
G1 X128.344 Y106.844 E11.57491
G1 X128.181 Y107.522 E11.63057
G1 X128.101 Y108.421 E11.70262
G1 X128.1 Y112.389 E12.01936
G1 X128.143 Y113.062 E12.07319
G1 X128.269 Y113.722 E12.12683
G1 X128.484 Y114.38 E12.18208
G1 X128.773 Y114.992 E12.23611
G1 X129.144 Y115.574 E12.2912
G1 X129.547 Y116.077 E12.34265
G1 X130.29 Y117.11 E12.44423
G1 X130.681 Y117.728 E12.5026
G1 X130.87 Y118.059 E12.53303
G1 X131.314 Y118.879 E12.60746
G1 X131.761 Y119.834 E12.69163
G1 X132.219 Y120.96 E12.78866
G1 X132.543 Y121.951 E12.87189
G1 X132.798 Y122.998 E12.95791
G1 X132.973 Y124.013 E13.04013
G1 X133.074 Y125.1 E13.12727
G1 X133.099 Y125.941 E13.19443
G1 X133.1 Y127.801 E13.34291
G1 X133.064 Y128.78 E13.42111
G1 X132.945 Y129.93 E13.51339
G1 X132.677 Y131.294 E13.62436
G1 X132.52 Y131.936 E13.67711
G1 X132.186 Y133.083 E13.77248
G1 X131.807 Y134.093 E13.85859
G1 X131.442 Y134.902 E13.92943
G1 X130.932 Y135.877 E14.01727
G1 X130.313 Y136.864 E14.11027
G1 X129.977 Y137.337 E14.15658
G1 X129.557 Y137.897 E14.21246
G1 X129.288 Y138.229 E14.24657
G1 X128.914 Y138.759 E14.29835
G1 X128.593 Y139.357 E14.35252
G1 X128.347 Y139.998 E14.40733
G1 X128.178 Y140.697 E14.46473
G1 X128.101 Y141.578 E14.53533
G1 X128.1 Y146.705 E14.94459
G1 X128.14 Y147.351 E14.99625
G1 X128.269 Y148.038 E15.05205
G1 X128.477 Y148.677 E15.10569
G1 X128.763 Y149.288 E15.15954
G1 X129.135 Y149.875 E15.21502
G1 X129.575 Y150.404 E15.26994
G1 X130.087 Y150.881 E15.3258
G1 X130.628 Y151.269 E15.37894
G1 X131.237 Y151.598 E15.4342
G1 X131.891 Y151.851 E15.49017
G1 X132.508 Y152.003 E15.5409
G1 X134.173 Y152.227 E15.675
G1 X135.161 Y152.436 E15.75561
G1 X135.847 Y152.623 E15.81237
G1 X136.941 Y152.951 E15.90354
G1 X138.086 Y153.346 E16.00022
G1 X138.937 Y153.707 E16.07401
G1 X139.72 Y154.096 E16.1438
G1 X140.698 Y154.62 E16.23237
G1 X141.742 Y155.238 E16.32921
G1 X142.467 Y155.735 E16.39938
G1 X143.158 Y156.266 E16.46894
G1 X143.835 Y156.82 E16.53877
G1 X144.871 Y157.738 E16.64926
G1 X145.495 Y158.377 E16.72056
G1 X146.058 Y159.024 E16.78902
G1 X146.738 Y159.851 E16.87449
G1 X147.471 Y160.819 E16.97141
G1 X148.026 Y161.678 E17.05305
G1 X148.363 Y162.272 E17.10756
G1 X148.927 Y163.325 E17.20291
G1 X149.42 Y164.349 E17.29363
G1 X149.814 Y165.342 E17.37891
G1 X149.977 Y165.828 E17.41983
G1 X150.377 Y167.159 E17.53077
G1 X150.652 Y168.226 E17.61873
G1 X150.822 Y169.14 E17.69294
G1 X150.917 Y169.886 E17.75297
G1 X151.034 Y171.096 E17.85
G1 X151.1 Y172.456 E17.95869
G1 X151.172 Y188.623 E19.24923
G1 X151.253 Y189.517 E19.32088
G1 X151.416 Y190.608 E19.40894
G1 X151.497 Y192.124 E19.53012
G1 X151.499 Y192.949 E19.59598
G1 X151.463 Y193.947 E19.67569
G1 X151.329 Y195.172 E19.77406
G1 X151.135 Y196.202 E19.85773
G1 X150.958 Y196.9 E19.91521
G1 X150.636 Y197.947 E20.00265
G1 X150.253 Y198.935 E20.08723
G1 X149.863 Y199.762 E20.16022
G1 X149.358 Y200.671 E20.24322
G1 X148.717 Y201.65 E20.33663
G1 X147.897 Y202.692 E20.44248
G1 X147.082 Y203.585 E20.53898
G1 X146.229 Y204.375 E20.63179
G1 X145.41 Y205.031 E20.71555
G1 X144.539 Y205.63 E20.79993
G1 X143.677 Y206.14 E20.87988
G1 X143.125 Y206.408 E20.92887
G1 X141.609 Y207.252 E21.06737
G1 X140.791 Y207.637 E21.13954
G1 X139.796 Y208.022 E21.2247
G1 X138.79 Y208.332 E21.30873
G1 X137.72 Y208.578 E21.39637
G1 X136.696 Y208.734 E21.47905
G1 X135.44 Y208.829 E21.5796
G1 X135.041 Y208.836 E21.61145
G1 X131.988 Y208.836 E21.85516
G1 X130.85 Y208.788 E21.94608
G1 X129.786 Y208.666 E22.03157
G1 X128.759 Y208.469 E22.11504
G1 X127.691 Y208.183 E22.2033
G1 X126.683 Y207.831 E22.28853
G1 X125.895 Y207.497 E22.35684
G1 X125.05 Y207.078 E22.43213
G1 X124.793 Y206.933 E22.45569
G1 X124.294 Y206.629 E22.50233
G1 X123.877 Y206.402 E22.54023
G1 X123.3 Y206.114 E22.59171
G1 X122.476 Y205.643 E22.66747
G1 X121.485 Y204.956 E22.76372
G1 X120.668 Y204.298 E22.84746
G1 X119.882 Y203.565 E22.93325
G1 X119.28 Y202.924 E23.00345
G1 X118.541 Y202.021 E23.09659
G1 X117.883 Y201.061 E23.1895
G1 X117.352 Y200.147 E23.27387
G1 X116.938 Y199.322 E23.34756
G1 X116.61 Y198.554 E23.41422
G1 X116.231 Y197.517 E23.50235
G1 X115.939 Y196.501 E23.58673
G1 X115.875 Y196.251 E23.60733
G1 X115.796 Y195.83 E23.64153
G1 X115.614 Y195.158 E23.6971
G1 X115.347 Y194.516 E23.7526
G1 X115.018 Y193.937 E23.80576
G1 X114.597 Y193.375 E23.86182
G1 X114.14 Y192.906 E23.91409
G1 X113.603 Y192.477 E23.96895
G1 X113.02 Y192.121 E24.02348
G1 X112.417 Y191.849 E24.07628
G1 X111.746 Y191.642 E24.13234
G1 X111.065 Y191.527 E24.18747
G1 X110.385 Y191.499 E24.24179
G1 X109.721 Y191.556 E24.29499
G1 X109.042 Y191.698 E24.35037
G1 X108.41 Y191.919 E24.40381
G1 X107.77 Y192.239 E24.46093
G1 X107.207 Y192.616 E24.51501
G1 X106.68 Y193.081 E24.57112
G1 X106.249 Y193.568 E24.62303
G1 X105.863 Y194.133 E24.67765
G1 X105.549 Y194.742 E24.73234
G1 X105.314 Y195.401 E24.78819
G1 X105.196 Y195.888 E24.82819
G1 X105.135 Y196.202 E24.85373
G1 X104.958 Y196.9 E24.91121
G1 X104.636 Y197.947 E24.99865
G1 X104.253 Y198.935 E25.08323
G1 X103.863 Y199.762 E25.15622
G1 X103.358 Y200.671 E25.23922
G1 X102.717 Y201.65 E25.33263
G1 X101.897 Y202.692 E25.43848
G1 X101.082 Y203.585 E25.53498
G1 X100.229 Y204.375 E25.62779
G1 X99.41 Y205.031 E25.71155
G1 X98.539 Y205.63 E25.79593
G1 X97.677 Y206.14 E25.87588
G1 X97.121 Y206.409 E25.92519
G1 X95.609 Y207.252 E26.06337
G1 X94.791 Y207.637 E26.13554
G1 X93.796 Y208.022 E26.2207
G1 X92.79 Y208.332 E26.30473
G1 X91.72 Y208.578 E26.39237
G1 X90.696 Y208.734 E26.47506
G1 X89.44 Y208.829 E26.5756
G1 X89.041 Y208.836 E26.60746
G1 X85.988 Y208.836 E26.85116
G1 X84.85 Y208.788 E26.94208
G1 X83.786 Y208.666 E27.02757
G1 X82.759 Y208.469 E27.11105
G1 X81.691 Y208.183 E27.1993
G1 X80.683 Y207.831 E27.28453
G1 X79.895 Y207.497 E27.35285
G1 X79.05 Y207.078 E27.42814
G1 X78.793 Y206.933 E27.45169
G1 X78.309 Y206.638 E27.49694
G1 X77.877 Y206.402 E27.53623
G1 X77.3 Y206.114 E27.58771
G1 X76.476 Y205.643 E27.66347
G1 X75.485 Y204.956 E27.75973
G1 X74.668 Y204.298 E27.84346
G1 X73.882 Y203.565 E27.92926
G1 X73.28 Y202.924 E27.99945
G1 X72.541 Y202.021 E28.09259
G1 X71.883 Y201.061 E28.1855
G1 X71.352 Y200.147 E28.26988
G1 X70.938 Y199.322 E28.34356
G1 X70.61 Y198.554 E28.41022
G1 X70.231 Y197.516 E28.49843
G1 X69.968 Y196.627 E28.57243
G1 X69.88 Y196.257 E28.60279
G1 X69.688 Y195.271 E28.68298
G1 X69.566 Y194.349 E28.75721
G1 X69.502 Y192.998 E28.86518
G1 X69.501 Y192.268 E28.92345
G1 X69.541 Y191.172 E29.011
G1 X69.716 Y189.756 E29.12489
G1 X69.789 Y189.327 E29.15962
G1 X69.862 Y188.47 E29.22828
G1 X69.899 Y174.726 E30.32539
G1 X69.86 Y174.073 E30.37761
G1 X69.677 Y173.195 E30.4492
G1 X69.401 Y172.276 E30.5258
G1 X69.131 Y171.07 E30.62445
G1 X69.001 Y170.184 E30.69593
G1 X68.908 Y168.94 E30.79551
G1 X68.9 Y168.442 E30.83527
G1 X68.9 Y102.014 E36.13784
G1 X68.937 Y101.015 E36.21763
G1 X69.071 Y99.79 E36.316
G1 X69.268 Y98.764 E36.3994
G1 X69.55 Y97.707 E36.48672
G1 X69.902 Y96.696 E36.57218
G1 X70.277 Y95.812 E36.64883
G1 X70.806 Y94.795 E36.74034
G1 X71.272 Y94.029 E36.81191
G1 X71.94 Y93.084 E36.90429
G1 X72.677 Y92.205 E36.99585
G1 X73.299 Y91.559 E37.06743
G1 X74.094 Y90.838 E37.15311
G1 X74.934 Y90.183 E37.23813
G1 X75.825 Y89.583 E37.32388
G1 X76.892 Y88.984 E37.42156
G1 X77.711 Y88.599 E37.4938
G1 X78.704 Y88.215 E37.57878
G1 X79.71 Y87.905 E37.66281
G1 X80.78 Y87.659 E37.75045
G1 X81.804 Y87.503 E37.83313
G1 X83.06 Y87.408 E37.93368
G1 X83.461 Y87.401 E37.9657
G1 X87.505 Y87.4 E38.2885
G1 X88.169 Y87.359 E38.34161
G1 X88.849 Y87.23 E38.39686
G1 X89.482 Y87.023 E38.45002
G1 X90.131 Y86.717 E38.5073
G1 X90.693 Y86.356 E38.56061
G1 X91.213 Y85.922 E38.61468
G1 X91.691 Y85.407 E38.67077
G1 X92.071 Y84.877 E38.72283
G1 X92.391 Y84.287 E38.7764
G1 X92.651 Y83.625 E38.83318
G1 X92.811 Y82.98 E38.88622
G1 X92.899 Y82.031 E38.9623
G1 X92.901 Y27.514 E43.31408
G1 X92.937 Y26.52 E43.39348
G1 X92.992 Y25.973 E43.43737
G1 X93.065 Y25.012 E43.5143
G1 X93.215 Y23.947 E43.60015
G1 X93.463 Y22.8 E43.69382
G0 F9000 X93.706 Y23.561
G1 F1125 X140.018 Y69.873 E48.92192
G1 F1500 E42.42192
G0 F9000 X139.086 Y71.204
G1 F1500 E48.92192
G1 F1125 X93.424 Y25.542 E54.07664
G1 F1500 E47.57664
G0 F9000 X93.299 Y27.68
G1 F1500 E54.07664
G1 F1125 X138.452 Y72.833 E59.17391
G1 F1500 E52.67391
G0 F9000 X138.389 Y75.033
G1 F1500 E59.17391
G1 F1125 X93.299 Y29.943 E64.26405
G1 F1500 E57.76405
G0 F9000 X93.299 Y32.205
G1 F1500 E64.26405
G1 F1125 X141.028 Y79.934 E69.65212
G1 F1500 E63.15212
G0 F9000 X142.349 Y83.518
G1 F1500 E69.65212
G1 F1125 X93.299 Y34.468 E75.1893
G1 F1500 E68.6893
G0 F9000 X93.299 Y36.731
G1 F1500 E75.1893
G1 F1125 X142.689 Y86.12 E80.76482
G1 F1500 E74.26482
G0 F9000 X142.697 Y88.391
G1 F1500 E80.76482
G1 F1125 X93.299 Y38.994 E86.34123
G1 F1500 E79.84123
G0 F9000 X93.299 Y41.256
G1 F1500 E86.34123
G1 F1125 X142.607 Y90.564 E91.90755
G1 F1500 E85.40755
G0 F9000 X142.273 Y92.493
G1 F1500 E91.90755
G1 F1125 X93.299 Y43.519 E97.43616
G1 F1500 E90.93616
G0 F9000 X93.299 Y45.781
G1 F1500 E97.43616
G1 F1125 X141.736 Y94.218 E102.90414
G1 F1500 E96.40414
G0 F9000 X141.019 Y95.764
G1 F1500 E102.90414
G1 F1125 X93.299 Y48.044 E108.29119
G1 F1500 E101.79119
G0 F9000 X93.299 Y50.307
G1 F1500 E108.29119
G1 F1125 X140.161 Y97.169 E113.58138
G1 F1500 E107.08138
G0 F9000 X139.172 Y98.443
G1 F1500 E113.58138
G1 F1125 X93.299 Y52.569 E118.75997
G1 F1500 E112.25997
G0 F9000 X93.299 Y54.832
G1 F1500 E118.75997
G1 F1125 X138.049 Y99.582 E123.81174
G1 F1500 E117.31174
G0 F9000 X136.805 Y100.601
G1 F1500 E123.81174
G1 F1125 X93.299 Y57.095 E128.72307
G1 F1500 E122.22307
G0 F9000 X93.299 Y59.358
G1 F1500 E128.72307
G1 F1125 X135.415 Y101.474 E133.47749
G1 F1500 E126.97749
G0 F9000 X133.894 Y102.215
G1 F1500 E133.47749
G1 F1125 X93.299 Y61.62 E138.06021
G1 F1500 E131.56021
G0 F9000 X93.298 Y63.882
G1 F1500 E138.06021
G1 F1125 X132.204 Y102.789 E142.45231
G1 F1500 E135.95231
G0 F9000 X130.592 Y103.439
G1 F1500 E142.45231
G1 F1125 X93.298 Y66.145 E146.66238
G1 F1500 E140.16238
G0 F9000 X93.298 Y68.408
G1 F1500 E146.66238
G1 F1125 X129.327 Y104.437 E150.72964
G1 F1500 E144.22964
G0 F9000 X128.378 Y105.75
G1 F1500 E150.72964
G1 F1125 X93.298 Y70.671 E154.68972
G1 F1500 E148.18972
G0 F9000 X93.298 Y72.933
G1 F1500 E154.68972
G1 F1125 X127.794 Y107.43 E158.58398
G1 F1500 E152.08398
G0 F9000 X127.702 Y109.6
G1 F1500 E158.58398
G1 F1125 X93.298 Y75.196 E162.4678
G1 F1500 E155.9678
G0 F9000 X93.298 Y77.459
G1 F1500 E162.4678
G1 F1125 X127.699 Y111.86 E166.35129
G1 F1500 E159.85129
G0 F9000 X128.117 Y114.54
G1 F1500 E166.35129
G1 F1125 X93.298 Y79.722 E170.2819
G1 F1500 E163.7819
G0 F9000 X93.298 Y81.984
G1 F1500 E170.2819
G1 F1125 X131.453 Y120.139 E174.58916
G1 F1500 E168.08916
G0 F9000 X132.463 Y123.412
G1 F1500 E174.58916
G1 F1125 X92.964 Y83.913 E179.04815
G1 F1500 E172.54815
G0 F9000 X92.186 Y85.397
G1 F1500 E179.04815
G1 F1125 X132.697 Y125.909 E183.62144
G1 F1500 E177.12144
G0 F9000 X132.686 Y128.16
G1 F1500 E183.62144
G1 F1125 X91.079 Y86.554 E188.31834
