;FLAVOR:Marlin
;TIME:32429
;Filament used: 22.6608m
;Layer height: 0.2
;MINX:67.835
;MINY:8.84
;MINZ:0.24
;MAXX:152.564
;MAXY:209.902
;MAXZ:44.29
;Generated with Cura_SteamEngine 5.4.0
M82 ;absolute extrusion mode
; Ender 3 Custom Start G-code
G92 E0 ; Reset Extruder
G28 ; Home all axes
M104 S175 ; Start heating up the nozzle most of the way
M190 S60 ; Start heating the bed, wait until target temperature reached
M109 S200 ; Finish heating the nozzle
G1 Z2.0 F3000 ; Move Z Axis up little to prevent scratching of Heat Bed
G1 X0.1 Y20 Z0.3 F5000.0 ; Move to start position
G1 X0.1 Y200.0 Z0.3 F1500.0 E15 ; Draw the first line
G1 X0.4 Y200.0 Z0.3 F5000.0 ; Move to side a little
G1 X0.4 Y20 Z0.3 F1500.0 E30 ; Draw the second line
G92 E0 ; Reset Extruder
G1 Z2.0 F3000 ; Move Z Axis up little to prevent scratching of Heat Bed
G1 X5 Y20 Z0.3 F5000.0 ; Move over to prevent blob squish
G92 E0
G92 E0
G1 F1500 E-6.5
;LAYER_COUNT:216
;LAYER:-6
M107
G0 F9000 X93.268 Y24.264 Z0.24
;TYPE:SUPPORT-INTERFACE
G1 F1500 E0
G1 F1125 X93.551 Y23.205 E0.0875
G1 X93.829 Y22.384 E0.15669
G1 X94.346 Y21.017 E0.27335
G1 X94.735 Y20.055 E0.35619
G1 X95.151 Y19.124 E0.43758
G1 X95.685 Y18.115 E0.52871
G1 X96.319 Y17.133 E0.62202
G1 X96.898 Y16.357 E0.6993
G1 X97.163 Y16.022 E0.7334
G1 X97.897 Y15.173 E0.82299
G1 X98.522 Y14.542 E0.89388
G1 X99.337 Y13.817 E0.98095
G1 X99.665 Y13.549 E1.01476
G1 X100.467 Y12.939 E1.0952
G1 X101.434 Y12.313 E1.18715
G1 X101.932 Y12.028 E1.23295
G1 X102.407 Y11.771 E1.27606
G1 X103.157 Y11.391 E1.34318
G1 X103.518 Y11.225 E1.37489
G1 X104.388 Y10.88 E1.4496
G1 X105.254 Y10.595 E1.52238
G1 X106.44 Y10.298 E1.61997
G1 X107.191 Y10.162 E1.68089
G1 X107.701 Y10.082 E1.7221
G1 X108.595 Y9.967 E1.79405
G1 X108.846 Y9.947 E1.81415
G1 X110.079 Y9.901 E1.91265
G1 X111.209 Y9.902 E2.00285
G1 X112.243 Y9.94 E2.08544
G1 X113.309 Y10.051 E2.17099
G1 X114.456 Y10.257 E2.26402
G1 X115.628 Y10.573 E2.36091
G1 X116.258 Y10.768 E2.41356
G1 X117.285 Y11.131 E2.5005
G1 X118.265 Y11.563 E2.586
G1 X119.221 Y12.071 E2.67241
G1 X120.046 Y12.582 E2.74988
G1 X121.004 Y13.285 E2.84473
G1 X121.572 Y13.74 E2.90282
G1 X122.378 Y14.446 E2.98835
G1 X123.128 Y15.206 E3.07359
G1 X123.814 Y16.001 E3.15741
G1 X124.007 Y16.24 E3.18193
G1 X124.672 Y17.122 E3.2701
G1 X125.199 Y17.932 E3.34724
G1 X125.91 Y19.268 E3.46805
G1 X126.499 Y20.538 E3.5798
G1 X126.828 Y21.322 E3.64767
G1 X127.114 Y22.148 E3.71744
G1 X127.229 Y22.539 E3.74998
G1 X127.337 Y22.856 E3.77671
G1 X127.567 Y23.6 E3.83887
G1 X127.639 Y23.874 E3.86148
G1 X127.866 Y24.915 E3.94653
G1 X128.015 Y25.976 E4.03206
G1 X128.092 Y27.048 E4.11785
G1 X128.099 Y27.449 E4.14987
G1 X128.1 Y34.013 E4.67383
G1 X128.144 Y34.666 E4.72608
G1 X128.268 Y35.317 E4.77898
G1 X128.49 Y35.991 E4.83562
G1 X128.817 Y36.668 E4.89564
G1 X129.228 Y37.405 E4.963
G1 X129.663 Y38.282 E5.04114
G1 X130.076 Y39.272 E5.12677
G1 X130.439 Y40.361 E5.2184
G1 X130.708 Y41.467 E5.30926
G1 X130.785 Y41.886 E5.34326
G1 X130.95 Y42.549 E5.3978
G1 X131.197 Y43.178 E5.45174
G1 X131.526 Y43.782 E5.50665
G1 X131.929 Y44.338 E5.56146
G1 X132.384 Y44.822 E5.61449
G1 X132.914 Y45.265 E5.66963
G1 X133.5 Y45.636 E5.72499
G1 X133.962 Y45.859 E5.76594
G1 X134.612 Y46.138 E5.8224
G1 X134.866 Y46.261 E5.84493
G1 X135.705 Y46.698 E5.92044
G1 X136.471 Y47.164 E5.99202
G1 X137.416 Y47.832 E6.08439
G1 X138.295 Y48.569 E6.17596
G1 X138.941 Y49.191 E6.24754
G1 X139.654 Y49.976 E6.33219
G1 X140.317 Y50.826 E6.41824
G1 X140.917 Y51.717 E6.50399
G1 X141.516 Y52.784 E6.60167
G1 X141.898 Y53.596 E6.6733
G1 X142.281 Y54.584 E6.75788
G1 X142.621 Y55.689 E6.85017
G1 X142.867 Y56.807 E6.94155
G1 X143.015 Y57.868 E7.02706
G1 X143.092 Y58.94 E7.11285
G1 X143.1 Y61.878 E7.34738
G1 X143.063 Y62.877 E7.42718
G1 X142.929 Y64.102 E7.52555
G1 X142.732 Y65.128 E7.60894
G1 X142.45 Y66.185 E7.69627
G1 X142.098 Y67.196 E7.78172
G1 X141.723 Y68.08 E7.85837
G1 X141.194 Y69.097 E7.94988
G1 X140.728 Y69.863 E8.02145
G1 X140.116 Y70.731 E8.10623
G1 X139.952 Y70.942 E8.12756
G1 X139.57 Y71.508 E8.18207
G1 X139.262 Y72.118 E8.23662
G1 X139.028 Y72.781 E8.29274
G1 X138.886 Y73.442 E8.34671
G1 X138.827 Y74.106 E8.39992
G1 X138.855 Y74.803 E8.4556
G1 X138.968 Y75.484 E8.51071
G1 X139.159 Y76.117 E8.56349
G1 X139.433 Y76.74 E8.61781
G1 X139.927 Y77.515 E8.69118
G1 X140.428 Y78.182 E8.75777
G1 X140.916 Y78.916 E8.82812
G1 X141.516 Y79.984 E8.92591
G1 X141.898 Y80.796 E8.99754
G1 X142.281 Y81.784 E9.08213
G1 X142.621 Y82.889 E9.17441
G1 X142.867 Y84.007 E9.26579
G1 X143.015 Y85.068 E9.3513
G1 X143.092 Y86.14 E9.4371
G1 X143.1 Y89.078 E9.67162
G1 X143.063 Y90.077 E9.75142
G1 X142.929 Y91.302 E9.84979
G1 X142.732 Y92.328 E9.93318
G1 X142.45 Y93.385 E10.02051
G1 X142.098 Y94.396 E10.10596
G1 X141.723 Y95.28 E10.18262
G1 X141.194 Y96.297 E10.27412
G1 X140.728 Y97.063 E10.34569
G1 X140.06 Y98.008 E10.43807
G1 X139.323 Y98.887 E10.52964
G1 X138.701 Y99.533 E10.60122
G1 X137.906 Y100.254 E10.68689
G1 X137.066 Y100.909 E10.77192
G1 X136.175 Y101.509 E10.85767
G1 X135.108 Y102.108 E10.95534
G1 X134.291 Y102.492 E11.0274
G1 X133.215 Y102.909 E11.11952
G1 X132.108 Y103.236 E11.21166
G1 X131.48 Y103.444 E11.26447
G1 X130.875 Y103.734 E11.31802
G1 X130.311 Y104.096 E11.37152
G1 X129.771 Y104.546 E11.42763
G1 X129.316 Y105.038 E11.48112
G1 X128.892 Y105.634 E11.53951
G1 X128.583 Y106.218 E11.59225
G1 X128.344 Y106.844 E11.64574
G1 X128.181 Y107.522 E11.7014
G1 X128.101 Y108.421 E11.77345
G1 X128.1 Y112.551 E12.10312
G1 X128.14 Y113.197 E12.15479
G1 X128.269 Y113.884 E12.21058
G1 X128.487 Y114.55 E12.26652
G1 X128.771 Y115.15 E12.31951
G1 X129.335 Y115.977 E12.39942
G1 X130.148 Y117.052 E12.507
G1 X130.885 Y118.243 E12.61881
G1 X131.211 Y118.834 E12.67268
G1 X131.648 Y119.706 E12.75054
G1 X132.103 Y120.793 E12.84461
G1 X132.451 Y121.875 E12.93533
G1 X132.705 Y122.918 E13.02102
G1 X132.91 Y124.091 E13.11608
G1 X133.041 Y125.127 E13.19943
G1 X133.099 Y126.535 E13.31192
G1 X133.098 Y127.746 E13.40859
G1 X133.06 Y128.78 E13.49118
G1 X132.939 Y129.943 E13.58452
G1 X132.72 Y131.08 E13.67695
G1 X132.437 Y132.135 E13.76414
G1 X132.232 Y132.797 E13.81946
G1 X131.872 Y133.816 E13.90573
G1 X131.437 Y134.803 E13.99182
G1 X130.929 Y135.759 E14.07824
G1 X130.418 Y136.584 E14.15571
G1 X129.714 Y137.543 E14.25067
G1 X129.344 Y138.01 E14.29823
G1 X128.937 Y138.567 E14.3533
G1 X128.616 Y139.152 E14.40656
G1 X128.365 Y139.787 E14.46107
G1 X128.195 Y140.45 E14.5157
G1 X128.101 Y141.424 E14.59381
G1 X128.1 Y146.705 E15.01537
G1 X128.14 Y147.351 E15.06703
G1 X128.269 Y148.038 E15.12283
G1 X128.477 Y148.677 E15.17647
G1 X128.763 Y149.288 E15.23032
G1 X129.135 Y149.875 E15.2858
G1 X129.575 Y150.404 E15.34072
G1 X130.087 Y150.881 E15.39658
G1 X130.628 Y151.269 E15.44972
G1 X131.237 Y151.598 E15.50498
G1 X131.891 Y151.851 E15.56095
G1 X132.508 Y152.003 E15.61167
G1 X134.173 Y152.227 E15.74578
G1 X135.161 Y152.436 E15.82639
G1 X135.847 Y152.623 E15.88315
G1 X136.941 Y152.951 E15.97432
G1 X138.086 Y153.346 E16.071
G1 X138.937 Y153.707 E16.14479
G1 X139.72 Y154.096 E16.21458
G1 X140.698 Y154.62 E16.30315
G1 X141.742 Y155.238 E16.39999
G1 X142.467 Y155.735 E16.47016
G1 X143.158 Y156.266 E16.53972
G1 X143.835 Y156.82 E16.60955
G1 X144.871 Y157.738 E16.72004
G1 X145.495 Y158.377 E16.79134
G1 X146.058 Y159.024 E16.8598
G1 X146.738 Y159.851 E16.94527
G1 X147.471 Y160.819 E17.04219
G1 X148.026 Y161.678 E17.12383
G1 X148.363 Y162.272 E17.17834
G1 X148.927 Y163.325 E17.27369
G1 X149.42 Y164.349 E17.36441
G1 X149.814 Y165.342 E17.44969
G1 X149.977 Y165.828 E17.49061
G1 X150.377 Y167.159 E17.60155
G1 X150.652 Y168.226 E17.68951
G1 X150.822 Y169.14 E17.76372
G1 X150.917 Y169.886 E17.82375
G1 X151.034 Y171.096 E17.92078
G1 X151.1 Y172.456 E18.02947
G1 X151.172 Y188.623 E19.32
G1 X151.253 Y189.517 E19.39166
G1 X151.416 Y190.608 E19.47972
G1 X151.497 Y192.124 E19.6009
G1 X151.499 Y192.949 E19.66676
G1 X151.463 Y193.947 E19.74647
G1 X151.329 Y195.172 E19.84484
G1 X151.135 Y196.202 E19.92851
G1 X150.958 Y196.9 E19.98599
G1 X150.636 Y197.947 E20.07343
G1 X150.253 Y198.935 E20.15801
G1 X149.863 Y199.762 E20.231
G1 X149.358 Y200.671 E20.314
G1 X148.717 Y201.65 E20.40741
G1 X147.897 Y202.692 E20.51326
G1 X147.082 Y203.585 E20.60976
G1 X146.229 Y204.375 E20.70257
G1 X145.41 Y205.031 E20.78633
G1 X144.539 Y205.63 E20.87071
G1 X143.677 Y206.14 E20.95066
G1 X143.125 Y206.408 E20.99965
G1 X141.609 Y207.252 E21.13815
G1 X140.791 Y207.637 E21.21032
G1 X139.796 Y208.022 E21.29548
G1 X138.79 Y208.332 E21.37951
G1 X137.72 Y208.578 E21.46715
G1 X136.696 Y208.734 E21.54983
G1 X135.44 Y208.829 E21.65038
G1 X135.041 Y208.836 E21.68223
G1 X131.988 Y208.836 E21.92594
G1 X130.85 Y208.788 E22.01686
G1 X129.786 Y208.666 E22.10235
G1 X128.759 Y208.469 E22.18582
G1 X127.691 Y208.183 E22.27408
G1 X126.683 Y207.831 E22.35931
G1 X125.895 Y207.497 E22.42762
G1 X125.05 Y207.078 E22.50291
G1 X124.793 Y206.933 E22.52647
G1 X124.294 Y206.629 E22.57311
G1 X123.877 Y206.402 E22.61101
G1 X123.3 Y206.114 E22.66249
G1 X122.476 Y205.643 E22.73825
G1 X121.485 Y204.956 E22.8345
G1 X120.668 Y204.298 E22.91824
G1 X119.882 Y203.565 E23.00403
G1 X119.28 Y202.924 E23.07423
G1 X118.541 Y202.021 E23.16737
G1 X117.883 Y201.061 E23.26027
G1 X117.352 Y200.147 E23.34465
G1 X116.938 Y199.322 E23.41833
G1 X116.61 Y198.554 E23.485
G1 X116.231 Y197.517 E23.57313
G1 X115.939 Y196.501 E23.65751
G1 X115.875 Y196.251 E23.67811
G1 X115.796 Y195.83 E23.71231
G1 X115.614 Y195.158 E23.76788
G1 X115.347 Y194.516 E23.82338
G1 X115.018 Y193.937 E23.87654
G1 X114.597 Y193.375 E23.93259
G1 X114.14 Y192.906 E23.98487
G1 X113.603 Y192.477 E24.03973
G1 X113.02 Y192.121 E24.09426
G1 X112.417 Y191.849 E24.14706
G1 X111.746 Y191.642 E24.20312
G1 X111.065 Y191.527 E24.25825
G1 X110.385 Y191.499 E24.31257
G1 X109.721 Y191.556 E24.36577
G1 X109.042 Y191.698 E24.42114
G1 X108.41 Y191.919 E24.47459
G1 X107.77 Y192.239 E24.53171
G1 X107.207 Y192.616 E24.58579
G1 X106.68 Y193.081 E24.6419
G1 X106.249 Y193.568 E24.69381
G1 X105.863 Y194.133 E24.74843
G1 X105.549 Y194.742 E24.80312
G1 X105.314 Y195.401 E24.85897
G1 X105.196 Y195.888 E24.89897
G1 X105.135 Y196.202 E24.9245
G1 X104.958 Y196.9 E24.98199
G1 X104.636 Y197.947 E25.06942
G1 X104.253 Y198.935 E25.15401
G1 X103.863 Y199.762 E25.227
G1 X103.358 Y200.671 E25.31
G1 X102.717 Y201.65 E25.40341
G1 X101.897 Y202.692 E25.50926
G1 X101.082 Y203.585 E25.60576
G1 X100.229 Y204.375 E25.69857
G1 X99.41 Y205.031 E25.78233
G1 X98.539 Y205.63 E25.86671
G1 X97.677 Y206.14 E25.94666
G1 X97.121 Y206.409 E25.99597
G1 X95.609 Y207.252 E26.13415
G1 X94.791 Y207.637 E26.20632
G1 X93.796 Y208.022 E26.29148
G1 X92.79 Y208.332 E26.37551
G1 X91.72 Y208.578 E26.46315
G1 X90.696 Y208.734 E26.54584
G1 X89.44 Y208.829 E26.64638
G1 X89.041 Y208.836 E26.67824
G1 X85.988 Y208.836 E26.92194
G1 X84.85 Y208.788 E27.01286
G1 X83.786 Y208.666 E27.09835
G1 X82.759 Y208.469 E27.18182
G1 X81.691 Y208.183 E27.27008
G1 X80.683 Y207.831 E27.35531
G1 X79.895 Y207.497 E27.42363
G1 X79.05 Y207.078 E27.49892
G1 X78.793 Y206.933 E27.52247
G1 X78.309 Y206.638 E27.56772
G1 X77.877 Y206.402 E27.60701
G1 X77.3 Y206.114 E27.65849
G1 X76.476 Y205.643 E27.73425
G1 X75.485 Y204.956 E27.83051
G1 X74.668 Y204.298 E27.91424
G1 X73.882 Y203.565 E28.00003
G1 X73.28 Y202.924 E28.07023
G1 X72.541 Y202.021 E28.16337
G1 X71.883 Y201.061 E28.25628
G1 X71.352 Y200.147 E28.34065
G1 X70.938 Y199.322 E28.41434
G1 X70.61 Y198.554 E28.481
G1 X70.231 Y197.516 E28.56921
G1 X69.968 Y196.627 E28.64321
G1 X69.88 Y196.257 E28.67357
G1 X69.688 Y195.271 E28.75375
G1 X69.566 Y194.349 E28.82799
G1 X69.502 Y192.998 E28.93596
G1 X69.501 Y192.268 E28.99423
G1 X69.541 Y191.172 E29.08178
G1 X69.716 Y189.756 E29.19567
G1 X69.789 Y189.327 E29.2304
G1 X69.862 Y188.47 E29.29906
G1 X69.899 Y174.726 E30.39617
G1 X69.86 Y174.073 E30.44839
G1 X69.677 Y173.195 E30.51998
G1 X69.401 Y172.276 E30.59658
G1 X69.131 Y171.07 E30.69523
G1 X69.001 Y170.184 E30.76671
G1 X68.908 Y168.94 E30.86629
G1 X68.9 Y168.442 E30.90604
G1 X68.9 Y102.014 E36.20861
G1 X68.937 Y101.015 E36.28841
G1 X69.071 Y99.79 E36.38678
G1 X69.268 Y98.764 E36.47018
G1 X69.55 Y97.707 E36.5575
G1 X69.902 Y96.696 E36.64296
G1 X70.277 Y95.812 E36.71961
G1 X70.806 Y94.795 E36.81112
G1 X71.272 Y94.029 E36.88269
G1 X71.94 Y93.084 E36.97506
G1 X72.677 Y92.205 E37.06663
G1 X73.299 Y91.559 E37.13821
G1 X74.094 Y90.838 E37.22389
G1 X74.934 Y90.183 E37.30891
G1 X75.825 Y89.583 E37.39466
G1 X76.892 Y88.984 E37.49234
G1 X77.711 Y88.599 E37.56458
G1 X78.704 Y88.215 E37.64956
G1 X79.71 Y87.905 E37.73359
G1 X80.78 Y87.659 E37.82123
G1 X81.804 Y87.503 E37.90391
G1 X83.06 Y87.408 E38.00446
G1 X83.461 Y87.401 E38.03647
G1 X87.505 Y87.4 E38.35928
G1 X88.169 Y87.359 E38.41239
G1 X88.849 Y87.23 E38.46764
G1 X89.482 Y87.023 E38.5208
G1 X90.131 Y86.717 E38.57807
G1 X90.693 Y86.356 E38.63139
G1 X91.213 Y85.922 E38.68546
G1 X91.691 Y85.407 E38.74155
G1 X92.071 Y84.877 E38.79361
G1 X92.391 Y84.287 E38.84718
G1 X92.651 Y83.625 E38.90396
G1 X92.811 Y82.98 E38.957
G1 X92.899 Y82.031 E39.03308
G1 X92.901 Y27.514 E43.38486
G1 X92.937 Y26.515 E43.46466
G1 X93.071 Y25.29 E43.56303
G1 X93.268 Y24.264 E43.64642
G0 F9000 X93.834 Y23.689
G1 F1125 X140.143 Y69.998 E48.87418
G1 F1500 E42.37418
G0 F9000 X139.21 Y71.328
G1 F1500 E48.87418
G1 F1125 X93.442 Y25.56 E54.04087
G1 F1500 E47.54087
G0 F9000 X93.299 Y27.68
G1 F1500 E54.04087
G1 F1125 X138.58 Y72.961 E59.15258
G1 F1500 E52.65258
G0 F9000 X138.508 Y75.151
G1 F1500 E59.15258
G1 F1125 X93.299 Y29.943 E64.25611
G1 F1500 E57.75611
G0 F9000 X93.299 Y32.205
G1 F1500 E64.25611
G1 F1125 X141.028 Y79.934 E69.64417
G1 F1500 E63.14417
G0 F9000 X142.349 Y83.518
G1 F1500 E69.64417
G1 F1125 X93.299 Y34.468 E75.18136
G1 F1500 E68.68136
G0 F9000 X93.299 Y36.731
G1 F1500 E75.18136
G1 F1125 X142.689 Y86.12 E80.75687
G1 F1500 E74.25687
G0 F9000 X142.697 Y88.391
G1 F1500 E80.75687
G1 F1125 X93.299 Y38.994 E86.33329
G1 F1500 E79.83329
G0 F9000 X93.299 Y41.256
G1 F1500 E86.33329
G1 F1125 X142.607 Y90.564 E91.8996
G1 F1500 E85.3996
G0 F9000 X142.273 Y92.493
G1 F1500 E91.8996
G1 F1125 X93.299 Y43.519 E97.42821
G1 F1500 E90.92821
G0 F9000 X93.299 Y45.781
G1 F1500 E97.42821
G1 F1125 X141.736 Y94.218 E102.8962
G1 F1500 E96.3962
G0 F9000 X141.019 Y95.764
G1 F1500 E102.8962
G1 F1125 X93.299 Y48.044 E108.28324
G1 F1500 E101.78324
G0 F9000 X93.299 Y50.307
G1 F1500 E108.28324
G1 F1125 X140.161 Y97.169 E113.57343
G1 F1500 E107.07343
G0 F9000 X139.172 Y98.443
G1 F1500 E113.57343
G1 F1125 X93.299 Y52.569 E118.75203
G1 F1500 E112.25203
G0 F9000 X93.299 Y54.832
G1 F1500 E118.75203
G1 F1125 X138.049 Y99.582 E123.80379
G1 F1500 E117.30379
G0 F9000 X136.805 Y100.601
G1 F1500 E123.80379
G1 F1125 X93.299 Y57.095 E128.71513
G1 F1500 E122.21513
G0 F9000 X93.299 Y59.358
G1 F1500 E128.71513
G1 F1125 X135.415 Y101.474 E133.46955
G1 F1500 E126.96955
G0 F9000 X133.894 Y102.215
G1 F1500 E133.46955
G1 F1125 X93.299 Y61.62 E138.05226
G1 F1500 E131.55226
G0 F9000 X93.298 Y63.882
G1 F1500 E138.05226
G1 F1125 X132.204 Y102.789 E142.44436
G1 F1500 E135.94436
G0 F9000 X130.592 Y103.439
G1 F1500 E142.44436
G1 F1125 X93.298 Y66.145 E146.65443
G1 F1500 E140.15443
G0 F9000 X93.298 Y68.408
G1 F1500 E146.65443
G1 F1125 X129.327 Y104.437 E150.7217
G1 F1500 E144.2217
G0 F9000 X128.378 Y105.75
G1 F1500 E150.7217
G1 F1125 X93.298 Y70.671 E154.68177
G1 F1500 E148.18177
G0 F9000 X93.298 Y72.933
G1 F1500 E154.68177
G1 F1125 X127.794 Y107.43 E158.57604
G1 F1500 E152.07604
G0 F9000 X127.702 Y109.6
G1 F1500 E158.57604
G1 F1125 X93.298 Y75.196 E162.45986
G1 F1500 E155.95986
G0 F9000 X93.298 Y77.459
G1 F1500 E162.45986
G1 F1125 X127.699 Y111.86 E166.34334
G1 F1500 E159.84334
G0 F9000 X128.038 Y114.462
G1 F1500 E166.34334
G1 F1125 X93.298 Y79.722 E170.26509
G1 F1500 E163.76509
G0 F9000 X93.298 Y81.984
G1 F1500 E170.26509
G1 F1125 X131.352 Y120.039 E174.56101
G1 F1500 E168.06101
G0 F9000 X132.368 Y123.317
G1 F1500 E174.56101
G1 F1125 X92.964 Y83.913 E179.00928
G1 F1500 E172.50928
G0 F9000 X92.186 Y85.397
G1 F1500 E179.00928
G1 F1125 X132.671 Y125.883 E183.57963
G1 F1500 E177.07963
G0 F9000 X132.682 Y128.157
G1 F1500 E183.57963
