;FLAVOR:Marlin
;TIME:28404
;Filament used: 19.3019m
;Layer height: 0.2
;MINX:68.336
;MINY:9.872
;MINZ:0.24
;MAXX:151.665
;MAXY:211.16
;MAXZ:44.29
;Generated with Cura_SteamEngine 5.4.0
M82 ;absolute extrusion mode
; Ender 3 Custom Start G-code
G92 E0 ; Reset Extruder
G28 ; Home all axes
M104 S175 ; Start heating up the nozzle most of the way
M190 S60 ; Start heating the bed, wait until target temperature reached
M109 S200 ; Finish heating the nozzle
G1 Z2.0 F3000 ; Move Z Axis up little to prevent scratching of Heat Bed
G1 X0.1 Y20 Z0.3 F5000.0 ; Move to start position
G1 X0.1 Y200.0 Z0.3 F1500.0 E15 ; Draw the first line
G1 X0.4 Y200.0 Z0.3 F5000.0 ; Move to side a little
G1 X0.4 Y20 Z0.3 F1500.0 E30 ; Draw the second line
G92 E0 ; Reset Extruder
G1 Z2.0 F3000 ; Move Z Axis up little to prevent scratching of Heat Bed
G1 X5 Y20 Z0.3 F5000.0 ; Move over to prevent blob squish
G92 E0
G92 E0
G1 F1500 E-6.5
;LAYER_COUNT:216
;LAYER:-6
M107
G0 F9000 X70.05 Y22.74 Z0.24
;TYPE:SUPPORT-INTERFACE
G1 F1500 E0
G1 F1125 X70.402 Y21.729 E0.08545
G1 X70.777 Y20.845 E0.16211
G1 X71.306 Y19.828 E0.25361
G1 X71.772 Y19.062 E0.32518
G1 X72.44 Y18.116 E0.41763
G1 X73.172 Y17.245 E0.50845
G1 X73.934 Y16.463 E0.5956
G1 X74.207 Y16.218 E0.62488
G1 X74.608 Y15.82 E0.66998
G1 X75.3 Y15.094 E0.75004
G1 X76.094 Y14.374 E0.8356
G1 X76.934 Y13.719 E0.92063
G1 X77.825 Y13.119 E1.00638
G1 X78.892 Y12.52 E1.10405
G1 X79.711 Y12.135 E1.17629
G1 X80.704 Y11.751 E1.26128
G1 X81.71 Y11.441 E1.34531
G1 X82.78 Y11.195 E1.43295
G1 X83.804 Y11.039 E1.51563
G1 X85.06 Y10.944 E1.61618
G1 X85.459 Y10.937 E1.64803
G1 X88.509 Y10.937 E1.8915
G1 X89.647 Y10.985 E1.98242
G1 X90.71 Y11.107 E2.06783
G1 X91.738 Y11.304 E2.15138
G1 X92.806 Y11.59 E2.23964
G1 X93.805 Y11.938 E2.32408
G1 X94.695 Y12.316 E2.40127
G1 X95.707 Y12.842 E2.49231
G1 X96.473 Y13.308 E2.56388
G1 X97.418 Y13.976 E2.65626
G1 X98.297 Y14.713 E2.74782
G1 X98.944 Y15.336 E2.81952
G1 X99.319 Y15.747 E2.86393
G1 X99.727 Y16.154 E2.90993
G1 X100.442 Y16.837 E2.98886
G1 X101.154 Y17.621 E3.0734
G1 X101.817 Y18.471 E3.15945
G1 X102.417 Y19.362 E3.2452
G1 X103.016 Y20.429 E3.34288
G1 X103.398 Y21.241 E3.41451
G1 X103.781 Y22.229 E3.49909
G1 X104.121 Y23.334 E3.59138
G1 X104.367 Y24.454 E3.68291
G1 X104.506 Y25.395 E3.75884
G1 X104.589 Y26.791 E3.87047
G1 X104.674 Y27.49 E3.92668
G1 X104.843 Y28.149 E3.98099
G1 X105.095 Y28.788 E4.03582
G1 X105.418 Y29.377 E4.08944
G1 X105.811 Y29.917 E4.14275
G1 X106.281 Y30.421 E4.19776
G1 X106.811 Y30.858 E4.2526
G1 X107.391 Y31.226 E4.30743
G1 X108.009 Y31.513 E4.36182
G1 X108.634 Y31.715 E4.41425
G1 X109.314 Y31.845 E4.46952
G1 X109.998 Y31.886 E4.52421
G1 X110.685 Y31.845 E4.57915
G1 X111.351 Y31.719 E4.63326
G1 X112.011 Y31.504 E4.68867
G1 X112.619 Y31.218 E4.7423
G1 X113.216 Y30.837 E4.79883
G1 X113.726 Y30.411 E4.85188
G1 X114.196 Y29.906 E4.90695
G1 X114.59 Y29.358 E4.96082
G1 X114.921 Y28.744 E5.0165
G1 X115.165 Y28.117 E5.07021
G1 X115.329 Y27.459 E5.12434
G1 X115.411 Y26.719 E5.18377
G1 X115.449 Y25.888 E5.25017
G1 X115.571 Y24.824 E5.33566
G1 X115.768 Y23.797 E5.41914
G1 X116.05 Y22.74 E5.50646
G1 X116.402 Y21.729 E5.59192
G1 X116.777 Y20.845 E5.66857
G1 X117.306 Y19.828 E5.76008
G1 X117.772 Y19.062 E5.83165
G1 X118.44 Y18.116 E5.92409
G1 X119.172 Y17.245 E6.01491
G1 X119.934 Y16.463 E6.10207
G1 X120.207 Y16.218 E6.13135
G1 X120.608 Y15.82 E6.17645
G1 X121.3 Y15.094 E6.25651
G1 X122.094 Y14.374 E6.34207
G1 X122.934 Y13.719 E6.4271
G1 X123.825 Y13.119 E6.51284
G1 X124.892 Y12.52 E6.61052
G1 X125.711 Y12.135 E6.68276
G1 X126.704 Y11.751 E6.76774
G1 X127.71 Y11.441 E6.85177
G1 X128.78 Y11.195 E6.93941
G1 X129.804 Y11.039 E7.0221
G1 X131.06 Y10.944 E7.12264
G1 X131.459 Y10.937 E7.1545
G1 X134.509 Y10.937 E7.39796
G1 X135.647 Y10.985 E7.48888
G1 X136.71 Y11.107 E7.57429
G1 X137.738 Y11.304 E7.65784
G1 X138.806 Y11.59 E7.7461
G1 X139.805 Y11.938 E7.83054
G1 X140.695 Y12.316 E7.90773
G1 X141.707 Y12.842 E7.99877
G1 X142.473 Y13.308 E8.07034
G1 X143.418 Y13.976 E8.16272
G1 X144.297 Y14.713 E8.25429
G1 X144.944 Y15.336 E8.32598
G1 X145.319 Y15.747 E8.3704
G1 X145.727 Y16.154 E8.4164
G1 X146.442 Y16.837 E8.49533
G1 X147.154 Y17.621 E8.57987
G1 X147.817 Y18.471 E8.66592
G1 X148.417 Y19.362 E8.75166
G1 X149.016 Y20.429 E8.84934
G1 X149.398 Y21.241 E8.92097
G1 X149.781 Y22.229 E9.00556
G1 X150.121 Y23.334 E9.09784
G1 X150.367 Y24.452 E9.18922
G1 X150.515 Y25.513 E9.27473
G1 X150.592 Y26.585 E9.36053
G1 X150.599 Y26.986 E9.39254
G1 X150.595 Y47.626 E11.04012
G1 X150.534 Y48.918 E11.14336
G1 X150.434 Y49.993 E11.22954
G1 X150.274 Y51.171 E11.32444
G1 X150.068 Y52.136 E11.40321
G1 X149.872 Y52.866 E11.46354
G1 X149.521 Y54.028 E11.56044
G1 X149.154 Y55.086 E11.64983
G1 X148.795 Y55.934 E11.72334
G1 X148.419 Y56.692 E11.79088
G1 X147.87 Y57.719 E11.88384
G1 X147.322 Y58.647 E11.96986
G1 X146.764 Y59.468 E12.0491
G1 X146.234 Y60.158 E12.11856
G1 X145.679 Y60.836 E12.1885
G1 X144.874 Y61.753 E12.2859
G1 X144.122 Y62.496 E12.37029
G1 X143.476 Y63.058 E12.43863
G1 X142.564 Y63.805 E12.53274
G1 X141.681 Y64.47 E12.62098
G1 X140.816 Y65.029 E12.70319
G1 X140.253 Y65.349 E12.75488
G1 X139.175 Y65.926 E12.85248
G1 X138.151 Y66.42 E12.94324
G1 X137.154 Y66.815 E13.02884
G1 X136.437 Y67.051 E13.0891
G1 X135.349 Y67.378 E13.17978
G1 X134.262 Y67.654 E13.2693
G1 X133.354 Y67.822 E13.34301
G1 X132.58 Y67.92 E13.40529
G1 X131.498 Y68.027 E13.49208
G1 X130.848 Y68.128 E13.54459
G1 X130.193 Y68.313 E13.59892
G1 X129.543 Y68.596 E13.65551
G1 X128.977 Y68.928 E13.70789
G1 X128.434 Y69.349 E13.76274
G1 X127.948 Y69.833 E13.81749
G1 X127.52 Y70.386 E13.87331
G1 X127.184 Y70.958 E13.92626
G1 X126.911 Y71.596 E13.98166
G1 X126.726 Y72.237 E14.03491
G1 X126.623 Y72.916 E14.08973
G1 X126.6 Y73.391 E14.1277
G1 X126.6 Y77.25 E14.43574
G1 X126.64 Y77.896 E14.4874
G1 X126.769 Y78.583 E14.5432
G1 X126.984 Y79.241 E14.59846
G1 X127.263 Y79.833 E14.6507
G1 X127.631 Y80.415 E14.70566
G1 X128.016 Y80.886 E14.75422
G1 X128.197 Y81.082 E14.77552
G1 X128.911 Y81.912 E14.86292
G1 X129.648 Y82.898 E14.96118
G1 X130.385 Y84.089 E15.07298
G1 X130.711 Y84.68 E15.12686
G1 X131.148 Y85.552 E15.20472
G1 X131.603 Y86.639 E15.29878
G1 X131.951 Y87.721 E15.38951
G1 X132.205 Y88.764 E15.4752
G1 X132.41 Y89.937 E15.57025
G1 X132.541 Y90.973 E15.65361
G1 X132.599 Y92.378 E15.76586
G1 X132.595 Y94.032 E15.89789
G1 X132.546 Y95.127 E15.98538
G1 X132.442 Y96.08 E16.06191
G1 X132.244 Y97.135 E16.14759
G1 X131.929 Y98.315 E16.24508
G1 X131.732 Y98.951 E16.29823
G1 X131.372 Y99.97 E16.3845
G1 X130.937 Y100.957 E16.4706
G1 X130.429 Y101.913 E16.55701
G1 X129.918 Y102.738 E16.63448
G1 X129.215 Y103.696 E16.72933
G1 X128.77 Y104.252 E16.78618
G1 X128.036 Y105.09 E16.8751
G1 X127.621 Y105.597 E16.9274
G1 X127.247 Y106.193 E16.98357
G1 X126.96 Y106.818 E17.03847
G1 X126.758 Y107.462 E17.09234
G1 X126.634 Y108.143 E17.1476
G1 X126.6 Y108.723 E17.19398
G1 X126.6 Y111.563 E17.42068
G1 X126.642 Y112.232 E17.47418
G1 X126.767 Y112.887 E17.52741
G1 X126.989 Y113.567 E17.58451
G1 X127.273 Y114.166 E17.63743
G1 X127.651 Y114.755 E17.6933
G1 X128.078 Y115.266 E17.74645
G1 X128.585 Y115.737 E17.80169
G1 X129.131 Y116.129 E17.85535
G1 X129.73 Y116.453 E17.90971
G1 X130.604 Y116.77 E17.98392
G1 X131.303 Y116.962 E18.04178
G1 X132.303 Y117.31 E18.1263
G1 X133.193 Y117.688 E18.20349
G1 X134.205 Y118.214 E18.29453
G1 X134.971 Y118.68 E18.3661
G1 X135.916 Y119.348 E18.45848
G1 X136.795 Y120.085 E18.55005
G1 X137.441 Y120.707 E18.62163
G1 X138.154 Y121.492 E18.70628
G1 X138.817 Y122.342 E18.79233
G1 X139.417 Y123.233 E18.87808
G1 X140.016 Y124.3 E18.97575
G1 X140.398 Y125.112 E19.04739
G1 X140.779 Y126.094 E19.13147
G1 X141.121 Y127.205 E19.22426
G1 X141.366 Y128.323 E19.31562
G1 X141.515 Y129.384 E19.40114
G1 X141.592 Y130.454 E19.48678
G1 X141.599 Y132.395 E19.64172
G1 X141.563 Y133.393 E19.72143
G1 X141.429 Y134.618 E19.8198
G1 X141.232 Y135.644 E19.9032
G1 X140.95 Y136.701 E19.99052
G1 X140.598 Y137.712 E20.07598
G1 X140.223 Y138.596 E20.15263
G1 X139.694 Y139.613 E20.24414
G1 X139.176 Y140.465 E20.32373
G1 X138.514 Y141.379 E20.41382
G1 X138.139 Y141.939 E20.46761
G1 X137.835 Y142.544 E20.52166
G1 X137.602 Y143.203 E20.57746
G1 X137.467 Y143.833 E20.62889
G1 X137.404 Y144.523 E20.6842
G1 X137.432 Y145.226 E20.74036
G1 X137.54 Y145.879 E20.79319
G1 X137.732 Y146.525 E20.84699
G1 X138.017 Y147.17 E20.90328
G1 X138.505 Y147.931 E20.97544
G1 X138.928 Y148.497 E21.03184
G1 X139.416 Y149.232 E21.10227
G1 X140.016 Y150.3 E21.20005
G1 X140.398 Y151.112 E21.27168
G1 X140.781 Y152.1 E21.35627
G1 X141.121 Y153.205 E21.44856
G1 X141.367 Y154.323 E21.53993
G1 X141.515 Y155.384 E21.62545
G1 X141.592 Y156.454 E21.71108
G1 X141.599 Y158.395 E21.86602
G1 X141.563 Y159.393 E21.94574
G1 X141.429 Y160.618 E22.04411
G1 X141.232 Y161.644 E22.1275
G1 X140.95 Y162.701 E22.21483
G1 X140.598 Y163.712 E22.30028
G1 X140.223 Y164.596 E22.37693
G1 X139.694 Y165.613 E22.46844
G1 X139.228 Y166.379 E22.54001
G1 X138.56 Y167.324 E22.63239
G1 X137.823 Y168.203 E22.72395
G1 X137.201 Y168.849 E22.79554
G1 X136.406 Y169.57 E22.88121
G1 X135.566 Y170.225 E22.96624
G1 X134.675 Y170.825 E23.05198
G1 X133.599 Y171.428 E23.15044
G1 X132.801 Y171.802 E23.22079
G1 X132.224 Y172.116 E23.27323
G1 X131.658 Y172.529 E23.32916
G1 X131.175 Y172.982 E23.38202
G1 X130.732 Y173.518 E23.43752
G1 X130.369 Y174.093 E23.49181
G1 X130.078 Y174.713 E23.54648
G1 X129.869 Y175.371 E23.60159
G1 X129.744 Y176.049 E23.65662
G1 X129.596 Y177.284 E23.75591
G1 X129.473 Y177.997 E23.81366
G1 X129.302 Y178.862 E23.88405
G1 X128.996 Y179.953 E23.9745
G1 X128.696 Y180.794 E24.04577
G1 X128.115 Y182.101 E24.15995
G1 X127.865 Y182.732 E24.21412
G1 X127.697 Y183.38 E24.26756
G1 X127.609 Y184.048 E24.32134
G1 X127.597 Y184.486 E24.35632
G1 X127.6 Y190.892 E24.86768
G1 X127.563 Y191.892 E24.94755
G1 X127.452 Y192.948 E25.03231
G1 X127.422 Y193.158 E25.04925
G1 X127.37 Y193.845 E25.10424
G1 X127.36 Y194.106 E25.12509
G1 X127.278 Y195.164 E25.2098
G1 X127.119 Y196.213 E25.29449
G1 X126.88 Y197.264 E25.38053
G1 X126.624 Y198.119 E25.45177
G1 X126.307 Y198.983 E25.52524
G1 X125.893 Y200.001 E25.61296
G1 X125.51 Y200.859 E25.68796
G1 X124.967 Y201.887 E25.78077
G1 X124.334 Y202.867 E25.87389
G1 X123.755 Y203.643 E25.95118
G1 X123.49 Y203.978 E25.98528
G1 X122.756 Y204.827 E26.07486
G1 X122.131 Y205.458 E26.14576
G1 X121.316 Y206.183 E26.23283
G1 X120.983 Y206.453 E26.26705
G1 X120.188 Y207.06 E26.3469
G1 X119.219 Y207.687 E26.43903
G1 X118.734 Y207.965 E26.48365
G1 X118.246 Y208.228 E26.5279
G1 X117.495 Y208.609 E26.59512
G1 X117.135 Y208.775 E26.62677
G1 X116.26 Y209.122 E26.70191
G1 X115.399 Y209.405 E26.77425
G1 X114.213 Y209.702 E26.87185
G1 X113.462 Y209.838 E26.93277
G1 X112.952 Y209.918 E26.97398
G1 X112.059 Y210.032 E27.04584
G1 X111.806 Y210.052 E27.0661
G1 X110.578 Y210.099 E27.16419
G1 X109.144 Y210.098 E27.27866
G1 X108.106 Y210.061 E27.36157
G1 X107.037 Y209.949 E27.44737
G1 X105.895 Y209.744 E27.53999
G1 X104.718 Y209.427 E27.63729
G1 X104.087 Y209.231 E27.69003
G1 X103.063 Y208.869 E27.77673
G1 X102.07 Y208.431 E27.86336
G1 X101.112 Y207.922 E27.94996
G1 X100.307 Y207.422 E28.0256
G1 X99.338 Y206.712 E28.12149
G1 X98.876 Y206.343 E28.16869
G1 X97.969 Y205.553 E28.26471
G1 X97.215 Y204.79 E28.35033
G1 X96.625 Y204.111 E28.42214
G1 X96.34 Y203.759 E28.45829
G1 X95.672 Y202.872 E28.54693
G1 X95.146 Y202.064 E28.62389
G1 X94.485 Y200.826 E28.73592
G1 X94.14 Y200.105 E28.79972
G1 X93.697 Y199.059 E28.89039
G1 X93.378 Y198.149 E28.96737
G1 X93.127 Y197.201 E29.04565
G1 X92.901 Y196.047 E29.13952
G1 X92.773 Y194.868 E29.23418
G1 X92.759 Y194.459 E29.26685
G1 X92.68 Y193.75 E29.32379
G1 X92.631 Y193.479 E29.34578
G1 X92.501 Y192.591 E29.41742
G1 X92.408 Y191.346 E29.51708
G1 X92.4 Y190.848 E29.55683
G1 X92.402 Y184.681 E30.04911
G1 X92.437 Y183.71 E30.12667
G1 X92.571 Y182.485 E30.22504
G1 X92.768 Y181.458 E30.30851
G1 X92.996 Y180.583 E30.38069
G1 X93.115 Y180.21 E30.41194
G1 X93.285 Y179.589 E30.46334
G1 X93.384 Y178.909 E30.51819
G1 X93.4 Y178.487 E30.5519
G1 X93.401 Y137.99 E33.78455
G1 X93.359 Y137.33 E33.83734
G1 X93.233 Y136.666 E33.89129
G1 X93.011 Y135.986 E33.94839
G1 X92.727 Y135.387 E34.0013
G1 X92.349 Y134.798 E34.05717
G1 X91.922 Y134.287 E34.11033
G1 X91.415 Y133.816 E34.16557
G1 X90.858 Y133.417 E34.22026
G1 X90.275 Y133.103 E34.27312
G1 X89.626 Y132.849 E34.32875
G1 X88.969 Y132.687 E34.38276
G1 X88.031 Y132.601 E34.45795
G1 X83.992 Y132.599 E34.78036
G1 X82.855 Y132.551 E34.87121
G1 X81.79 Y132.429 E34.95677
G1 X80.763 Y132.232 E35.04025
G1 X79.709 Y131.952 E35.1273
G1 X78.71 Y131.604 E35.21175
G1 X78.003 Y131.309 E35.2729
G1 X77.721 Y131.175 E35.29782
G1 X76.78 Y130.685 E35.38251
G1 X76.031 Y130.227 E35.45259
G1 X75.158 Y129.613 E35.53779
G1 X74.258 Y128.872 E35.63084
G1 X73.555 Y128.197 E35.70864
G1 X72.731 Y127.277 E35.80723
G1 X72.171 Y126.554 E35.88023
G1 X71.576 Y125.661 E35.96589
G1 X71.057 Y124.748 E36.04972
G1 X70.557 Y123.697 E36.14262
G1 X70.213 Y122.793 E36.21983
G1 X69.9 Y121.774 E36.30492
G1 X69.662 Y120.735 E36.39001
G1 X69.49 Y119.617 E36.4803
G1 X69.408 Y118.441 E36.5744
G1 X69.4 Y117.942 E36.61424
G1 X69.401 Y51.515 E41.91673
G1 X69.437 Y50.51 E41.99701
G1 X69.47 Y50.162 E42.02491
G1 X69.501 Y49.489 E42.07869
G1 X69.401 Y47.499 E42.23774
G1 X69.401 Y27.047 E43.87031
G1 X69.437 Y26.048 E43.9501
G1 X69.571 Y24.823 E44.04847
G1 X69.768 Y23.797 E44.13187
G1 X70.05 Y22.74 E44.21919
G0 F9000 X70.42 Y22.902
G1 F1125 X126.469 Y78.952 E50.54654
G1 F1500 E44.04654
G0 F9000 X126.199 Y76.419
G1 F1500 E50.54654
G1 F1125 X71.035 Y21.255 E56.77393
G1 F1500 E50.27393
G0 F9000 X71.81 Y19.767
G1 F1500 E56.77393
G1 F1125 X126.199 Y74.156 E62.91383
G1 F1500 E56.41383
G0 F9000 X126.362 Y72.057
G1 F1500 E62.91383
G1 F1125 X72.718 Y18.413 E68.96963
G1 F1500 E62.46963
G0 F9000 X73.771 Y17.202
G1 F1500 E68.96963
G1 F1125 X127.019 Y70.45 E74.98073
G1 F1500 E68.48073
G0 F9000 X128.024 Y69.193
G1 F1500 E74.98073
G1 F1125 X74.911 Y16.08 E80.97658
G1 F1500 E74.47658
G0 F9000 X76.049 Y14.955
G1 F1500 E80.97658
G1 F1125 X129.342 Y68.248 E86.99276
G1 F1500 E80.49276
G0 F9000 X131.05 Y67.693
G1 F1500 E86.99276
G1 F1125 X77.306 Y13.949 E93.05984
G1 F1500 E86.55984
G0 F9000 X78.703 Y13.084
G1 F1500 E93.05984
G1 F1125 X133.073 Y67.453 E99.19754
G1 F1500 E92.69754
G0 F9000 X134.948 Y67.066
G1 F1500 E99.19754
G1 F1125 X80.241 Y12.358 E105.3734
G1 F1500 E98.8734
G0 F9000 X81.943 Y11.798
G1 F1500 E105.3734
G1 F1125 X136.69 Y66.545 E111.55371
G1 F1500 E105.05371
G0 F9000 X138.307 Y65.899
G1 F1500 E111.55371
G1 F1125 X83.845 Y11.437 E117.70185
G1 F1500 E111.20185
G0 F9000 X86.007 Y11.337
G1 F1500 E117.70185
G1 F1125 X139.804 Y65.134 E123.77492
G1 F1500 E117.27492
G0 F9000 X141.221 Y64.288
G1 F1500 E123.77492
G1 F1125 X109.155 Y32.222 E127.39481
G1 F1500 E120.89481
G0 F9000 X111.325 Y32.129
G1 F1500 E127.39481
G1 F1125 X142.518 Y63.322 E130.91615
G1 F1500 E124.41615
G0 F9000 X143.748 Y62.289
G1 F1500 E130.91615
G1 F1125 X112.944 Y31.485 E134.39357
G1 F1500 E127.89357
G0 F9000 X114.204 Y30.483
G1 F1500 E134.39357
G1 F1125 X144.871 Y61.149 E137.85547
G1 F1500 E131.35547
G0 F9000 X145.907 Y59.923
G1 F1500 E137.85547
G1 F1125 X115.148 Y29.163 E141.32787
G1 F1500 E134.82787
G0 F9000 X115.727 Y27.48
G1 F1500 E141.32787
G1 F1125 X146.86 Y58.613 E144.84243
G1 F1500 E138.34243
G0 F9000 X147.699 Y57.19
G1 F1500 E144.84243
G1 F1125 X115.906 Y25.397 E148.4315
G1 F1500 E141.9315
G0 F9000 X116.263 Y23.49
G1 F1500 E148.4315
G1 F1125 X148.462 Y55.69 E152.06645
G1 F1500 E145.56645
G0 F9000 X149.088 Y54.053
G1 F1500 E152.06645
G1 F1125 X116.813 Y21.778 E155.70993
G1 F1500 E149.20993
G0 F9000 X117.54 Y20.242
G1 F1500 E155.70993
G1 F1125 X149.606 Y52.308 E159.32982
G1 F1500 E152.82982
G0 F9000 X149.973 Y50.412
G1 F1500 E159.32982
G1 F1125 X118.41 Y18.85 E162.89287
G1 F1500 E156.39287
G0 F9000 X119.408 Y17.585
G1 F1500 E162.89287
G1 F1125 X150.16 Y48.337 E166.36442
G1 F1500 E159.86442
G0 F9000 X150.195 Y46.109
G1 F1500 E166.36442
G1 F1125 X120.538 Y16.452 E169.71236
G1 F1500 E163.21236
G0 F9000 X121.658 Y15.309
