;FLAVOR:Marlin
;TIME:32610
;Filament used: 22.7356m
;Layer height: 0.2
;MINX:67.835
;MINY:8.84
;MINZ:0.24
;MAXX:152.563
;MAXY:209.902
;MAXZ:44.29
;Generated with Cura_SteamEngine 5.4.0
M82 ;absolute extrusion mode
; Ender 3 Custom Start G-code
G92 E0 ; Reset Extruder
G28 ; Home all axes
M104 S175 ; Start heating up the nozzle most of the way
M190 S60 ; Start heating the bed, wait until target temperature reached
M109 S200 ; Finish heating the nozzle
G1 Z2.0 F3000 ; Move Z Axis up little to prevent scratching of Heat Bed
G1 X0.1 Y20 Z0.3 F5000.0 ; Move to start position
G1 X0.1 Y200.0 Z0.3 F1500.0 E15 ; Draw the first line
G1 X0.4 Y200.0 Z0.3 F5000.0 ; Move to side a little
G1 X0.4 Y20 Z0.3 F1500.0 E30 ; Draw the second line
G92 E0 ; Reset Extruder
G1 Z2.0 F3000 ; Move Z Axis up little to prevent scratching of Heat Bed
G1 X5 Y20 Z0.3 F5000.0 ; Move over to prevent blob squish
G92 E0
G92 E0
G1 F1500 E-6.5
;LAYER_COUNT:216
;LAYER:-6
M107
G0 F9000 X93.619 Y22.737 Z0.24
;TYPE:SUPPORT-INTERFACE
G1 F1500 E0
G1 F1125 X93.879 Y21.871 E0.07218
G1 X94.194 Y21.015 E0.14499
G1 X94.581 Y20.056 E0.22754
G1 X95.079 Y18.958 E0.32378
G1 X95.535 Y18.11 E0.40063
G1 X96.166 Y17.133 E0.49347
G1 X96.745 Y16.357 E0.57076
G1 X97.01 Y16.022 E0.60486
G1 X97.744 Y15.173 E0.69444
G1 X98.369 Y14.542 E0.76534
G1 X99.184 Y13.817 E0.85241
G1 X99.512 Y13.549 E0.88622
G1 X100.314 Y12.939 E0.96665
G1 X101.281 Y12.313 E1.05861
G1 X101.779 Y12.028 E1.10441
G1 X102.254 Y11.771 E1.14752
G1 X103.004 Y11.391 E1.21463
G1 X103.365 Y11.225 E1.24635
G1 X104.235 Y10.88 E1.32106
G1 X105.101 Y10.595 E1.39383
G1 X106.287 Y10.298 E1.49143
G1 X107.038 Y10.162 E1.55235
G1 X107.548 Y10.082 E1.59356
G1 X108.441 Y9.968 E1.66542
G1 X108.694 Y9.948 E1.68568
G1 X109.922 Y9.901 E1.78378
G1 X111.356 Y9.902 E1.89824
G1 X112.394 Y9.939 E1.98115
G1 X113.463 Y10.051 E2.06695
G1 X114.605 Y10.256 E2.15957
G1 X115.782 Y10.573 E2.25687
G1 X116.411 Y10.768 E2.30944
G1 X117.438 Y11.131 E2.39639
G1 X118.418 Y11.563 E2.48188
G1 X119.374 Y12.071 E2.5683
G1 X120.199 Y12.582 E2.64576
G1 X121.157 Y13.285 E2.74061
G1 X121.725 Y13.74 E2.79871
G1 X122.531 Y14.446 E2.88424
G1 X123.281 Y15.206 E2.96947
G1 X123.967 Y16.001 E3.05329
G1 X124.16 Y16.24 E3.07781
G1 X124.828 Y17.128 E3.16651
G1 X125.356 Y17.94 E3.24383
G1 X126.065 Y19.26 E3.36343
G1 X126.532 Y20.256 E3.45124
G1 X126.969 Y21.283 E3.54034
G1 X127.287 Y22.181 E3.61638
G1 X127.574 Y23.262 E3.70566
G1 X127.754 Y24.214 E3.783
G1 X127.816 Y24.663 E3.81918
G1 X127.87 Y24.939 E3.84163
G1 X128.015 Y25.976 E3.92521
G1 X128.092 Y27.048 E4.01101
G1 X128.099 Y27.449 E4.04302
G1 X128.1 Y33.833 E4.55262
G1 X128.144 Y34.486 E4.60486
G1 X128.277 Y35.169 E4.66041
G1 X128.491 Y35.814 E4.71465
G1 X128.85 Y36.542 E4.77945
G1 X129.165 Y37.066 E4.82825
G1 X129.461 Y37.616 E4.87811
G1 X129.875 Y38.457 E4.95293
G1 X129.976 Y38.687 E4.97299
G1 X130.352 Y39.633 E5.05425
G1 X130.68 Y40.706 E5.14381
G1 X130.858 Y41.429 E5.20325
G1 X130.998 Y42.123 E5.25976
G1 X131.162 Y42.802 E5.31552
G1 X131.396 Y43.417 E5.36804
G1 X131.725 Y44.036 E5.424
G1 X132.116 Y44.588 E5.478
G1 X132.584 Y45.097 E5.53319
G1 X133.076 Y45.514 E5.58468
G1 X133.664 Y45.898 E5.64073
G1 X134.181 Y46.154 E5.68679
G1 X134.609 Y46.335 E5.72388
G1 X135.706 Y46.899 E5.82234
G1 X136.471 Y47.364 E5.8938
G1 X137.416 Y48.032 E5.98618
G1 X138.295 Y48.769 E6.07775
G1 X138.941 Y49.391 E6.14933
G1 X139.654 Y50.176 E6.23398
G1 X140.317 Y51.026 E6.32003
G1 X140.917 Y51.917 E6.40578
G1 X141.516 Y52.984 E6.50346
G1 X141.898 Y53.796 E6.57509
G1 X142.281 Y54.784 E6.65967
G1 X142.621 Y55.889 E6.75196
G1 X142.867 Y57.007 E6.84334
G1 X143.015 Y58.068 E6.92885
G1 X143.092 Y59.14 E7.01464
G1 X143.1 Y62.078 E7.24917
G1 X143.063 Y63.077 E7.32897
G1 X142.929 Y64.302 E7.42734
G1 X142.732 Y65.328 E7.51073
G1 X142.45 Y66.385 E7.59806
G1 X142.098 Y67.396 E7.68351
G1 X141.723 Y68.28 E7.76016
G1 X141.194 Y69.297 E7.85167
G1 X140.676 Y70.149 E7.93126
G1 X140.014 Y71.063 E8.02135
G1 X139.642 Y71.618 E8.07468
G1 X139.334 Y72.23 E8.12937
G1 X139.11 Y72.859 E8.18267
G1 X138.967 Y73.517 E8.23642
G1 X138.904 Y74.207 E8.29173
G1 X138.932 Y74.91 E8.34789
G1 X139.049 Y75.6 E8.40376
G1 X139.232 Y76.209 E8.45452
G1 X139.516 Y76.853 E8.5107
G1 X140.005 Y77.615 E8.58297
G1 X140.428 Y78.181 E8.63938
G1 X140.916 Y78.916 E8.7098
G1 X141.516 Y79.984 E8.80759
G1 X141.898 Y80.796 E8.87922
G1 X142.281 Y81.784 E8.9638
G1 X142.621 Y82.889 E9.05609
G1 X142.867 Y84.007 E9.14747
G1 X143.015 Y85.068 E9.23298
G1 X143.092 Y86.14 E9.31877
G1 X143.1 Y89.078 E9.5533
G1 X143.063 Y90.077 E9.6331
G1 X142.929 Y91.302 E9.73147
G1 X142.732 Y92.328 E9.81486
G1 X142.45 Y93.385 E9.90219
G1 X142.098 Y94.396 E9.98764
G1 X141.723 Y95.28 E10.06429
G1 X141.194 Y96.297 E10.1558
G1 X140.728 Y97.063 E10.22737
G1 X140.06 Y98.008 E10.31975
G1 X139.323 Y98.887 E10.41131
G1 X138.701 Y99.533 E10.4829
G1 X137.906 Y100.254 E10.56857
G1 X137.066 Y100.909 E10.6536
G1 X136.175 Y101.509 E10.73934
G1 X135.108 Y102.108 E10.83702
G1 X134.291 Y102.492 E10.90908
G1 X133.215 Y102.909 E11.0012
G1 X132.108 Y103.236 E11.09334
G1 X131.465 Y103.45 E11.14743
G1 X130.855 Y103.745 E11.20152
G1 X130.291 Y104.11 E11.25515
G1 X129.771 Y104.546 E11.30932
G1 X129.316 Y105.038 E11.36281
G1 X128.892 Y105.634 E11.42119
G1 X128.583 Y106.218 E11.47394
G1 X128.344 Y106.844 E11.52742
G1 X128.181 Y107.522 E11.58309
G1 X128.101 Y108.421 E11.65513
G1 X128.1 Y111.25 E11.88096
G1 X128.14 Y111.896 E11.93262
G1 X128.269 Y112.583 E11.98842
G1 X128.484 Y113.241 E12.04368
G1 X128.763 Y113.833 E12.09592
G1 X129.131 Y114.415 E12.15088
G1 X129.516 Y114.886 E12.19944
G1 X129.697 Y115.082 E12.22074
G1 X130.411 Y115.912 E12.30813
G1 X131.148 Y116.898 E12.4064
G1 X131.885 Y118.089 E12.5182
G1 X132.211 Y118.68 E12.57208
G1 X132.648 Y119.552 E12.64993
G1 X133.103 Y120.639 E12.744
G1 X133.451 Y121.721 E12.83473
G1 X133.705 Y122.764 E12.92042
G1 X133.91 Y123.937 E13.01547
G1 X134.041 Y124.973 E13.09883
G1 X134.099 Y126.378 E13.21107
G1 X134.095 Y128.032 E13.3431
G1 X134.046 Y129.127 E13.4306
G1 X133.942 Y130.08 E13.50712
G1 X133.744 Y131.135 E13.59281
G1 X133.429 Y132.315 E13.6903
G1 X133.232 Y132.951 E13.74345
G1 X132.872 Y133.97 E13.82972
G1 X132.437 Y134.957 E13.91581
G1 X131.929 Y135.913 E14.00223
G1 X131.418 Y136.738 E14.0797
G1 X130.715 Y137.696 E14.17455
G1 X130.27 Y138.252 E14.2314
G1 X129.536 Y139.09 E14.32032
G1 X129.121 Y139.597 E14.37262
G1 X128.744 Y140.199 E14.42932
G1 X128.46 Y140.818 E14.48368
G1 X128.258 Y141.462 E14.53756
G1 X128.137 Y142.118 E14.59081
G1 X128.1 Y142.723 E14.63919
G1 X128.1 Y146.705 E14.95705
G1 X128.14 Y147.351 E15.00872
G1 X128.269 Y148.038 E15.06451
G1 X128.477 Y148.677 E15.11816
G1 X128.763 Y149.288 E15.17201
G1 X129.135 Y149.875 E15.22748
G1 X129.575 Y150.404 E15.28241
G1 X130.087 Y150.881 E15.33826
G1 X130.628 Y151.269 E15.39141
G1 X131.237 Y151.598 E15.44666
G1 X131.891 Y151.851 E15.50264
G1 X132.508 Y152.003 E15.55336
G1 X134.173 Y152.227 E15.68747
G1 X135.161 Y152.436 E15.76808
G1 X135.847 Y152.623 E15.82484
G1 X136.941 Y152.951 E15.916
G1 X138.086 Y153.346 E16.01269
G1 X138.937 Y153.707 E16.08648
G1 X139.72 Y154.096 E16.15627
G1 X140.698 Y154.62 E16.24484
G1 X141.742 Y155.238 E16.34168
G1 X142.467 Y155.735 E16.41184
G1 X143.158 Y156.266 E16.48141
G1 X143.835 Y156.82 E16.55124
G1 X144.871 Y157.738 E16.66173
G1 X145.495 Y158.377 E16.73302
G1 X146.058 Y159.024 E16.80149
G1 X146.738 Y159.851 E16.88695
G1 X147.471 Y160.819 E16.98388
G1 X148.026 Y161.678 E17.06551
G1 X148.363 Y162.272 E17.12003
G1 X148.927 Y163.325 E17.21538
G1 X149.42 Y164.349 E17.3061
G1 X149.814 Y165.342 E17.39138
G1 X149.977 Y165.828 E17.4323
G1 X150.377 Y167.159 E17.54324
G1 X150.652 Y168.226 E17.63119
G1 X150.822 Y169.14 E17.7054
G1 X150.917 Y169.886 E17.76543
G1 X151.034 Y171.096 E17.86247
G1 X151.1 Y172.459 E17.9714
G1 X151.167 Y188.619 E19.26137
G1 X151.21 Y189.267 E19.31321
G1 X151.328 Y189.97 E19.37011
G1 X151.437 Y190.843 E19.44034
G1 X151.457 Y191.095 E19.46052
G1 X151.499 Y192.149 E19.54472
G1 X151.5 Y192.949 E19.60858
G1 X151.463 Y193.947 E19.6883
G1 X151.329 Y195.172 E19.78667
G1 X151.135 Y196.202 E19.87033
G1 X150.958 Y196.9 E19.92781
G1 X150.636 Y197.947 E20.01525
G1 X150.253 Y198.935 E20.09984
G1 X149.863 Y199.762 E20.17282
G1 X149.358 Y200.671 E20.25583
G1 X148.717 Y201.65 E20.34924
G1 X147.897 Y202.692 E20.45508
G1 X147.082 Y203.585 E20.55159
G1 X146.229 Y204.375 E20.6444
G1 X145.41 Y205.031 E20.72816
G1 X144.539 Y205.63 E20.81254
G1 X143.677 Y206.14 E20.89249
G1 X143.125 Y206.408 E20.94147
G1 X141.609 Y207.252 E21.07997
G1 X140.791 Y207.637 E21.15214
G1 X139.796 Y208.022 E21.23731
G1 X138.79 Y208.332 E21.32133
G1 X137.72 Y208.578 E21.40897
G1 X136.696 Y208.734 E21.49166
G1 X135.44 Y208.829 E21.5922
G1 X135.041 Y208.836 E21.62406
G1 X131.988 Y208.836 E21.86776
G1 X130.85 Y208.788 E21.95868
G1 X129.786 Y208.666 E22.04417
G1 X128.759 Y208.469 E22.12765
G1 X127.691 Y208.183 E22.2159
G1 X126.683 Y207.831 E22.30113
G1 X125.895 Y207.497 E22.36945
G1 X125.05 Y207.078 E22.44474
G1 X124.793 Y206.933 E22.46829
G1 X124.294 Y206.629 E22.51494
G1 X123.877 Y206.402 E22.55283
G1 X123.3 Y206.114 E22.60431
G1 X122.476 Y205.643 E22.68007
G1 X121.485 Y204.956 E22.77633
G1 X120.668 Y204.298 E22.86007
G1 X119.882 Y203.565 E22.94586
G1 X119.28 Y202.924 E23.01605
G1 X118.541 Y202.021 E23.1092
G1 X117.883 Y201.061 E23.2021
G1 X117.352 Y200.147 E23.28648
G1 X116.938 Y199.322 E23.36016
G1 X116.61 Y198.554 E23.42682
G1 X116.231 Y197.517 E23.51496
G1 X115.939 Y196.501 E23.59934
G1 X115.875 Y196.251 E23.61994
G1 X115.796 Y195.83 E23.65413
G1 X115.612 Y195.154 E23.71006
G1 X115.347 Y194.516 E23.7652
G1 X115.018 Y193.937 E23.81836
G1 X114.597 Y193.375 E23.87441
G1 X114.14 Y192.906 E23.92669
G1 X113.603 Y192.477 E23.98155
G1 X113.02 Y192.121 E24.03608
G1 X112.417 Y191.849 E24.08888
G1 X111.746 Y191.642 E24.14494
G1 X111.065 Y191.527 E24.20007
G1 X110.385 Y191.499 E24.25439
G1 X109.721 Y191.556 E24.30759
G1 X109.042 Y191.698 E24.36296
G1 X108.41 Y191.919 E24.41641
G1 X107.791 Y192.227 E24.4716
G1 X107.208 Y192.616 E24.52754
G1 X106.68 Y193.081 E24.58371
G1 X106.249 Y193.568 E24.63562
G1 X105.863 Y194.133 E24.69024
G1 X105.55 Y194.739 E24.74468
G1 X105.324 Y195.369 E24.79811
G1 X105.196 Y195.888 E24.84078
G1 X105.135 Y196.202 E24.86632
G1 X104.958 Y196.9 E24.9238
G1 X104.636 Y197.947 E25.01124
G1 X104.253 Y198.935 E25.09582
G1 X103.863 Y199.762 E25.16881
G1 X103.358 Y200.671 E25.25181
G1 X102.717 Y201.65 E25.34522
G1 X101.897 Y202.692 E25.45107
G1 X101.082 Y203.585 E25.54757
G1 X100.229 Y204.375 E25.64038
G1 X99.41 Y205.031 E25.72414
G1 X98.539 Y205.63 E25.80852
G1 X97.677 Y206.14 E25.88847
G1 X97.121 Y206.409 E25.93778
G1 X95.609 Y207.252 E26.07596
G1 X94.791 Y207.637 E26.14813
G1 X93.796 Y208.022 E26.23329
G1 X92.79 Y208.332 E26.31732
G1 X91.72 Y208.578 E26.40496
G1 X90.696 Y208.734 E26.48765
G1 X89.44 Y208.829 E26.58819
G1 X89.041 Y208.836 E26.62005
G1 X85.988 Y208.836 E26.86375
G1 X84.85 Y208.788 E26.95467
G1 X83.786 Y208.666 E27.04016
G1 X82.759 Y208.469 E27.12364
G1 X81.691 Y208.183 E27.21189
G1 X80.683 Y207.831 E27.29712
G1 X79.895 Y207.497 E27.36544
G1 X79.05 Y207.078 E27.44073
G1 X78.793 Y206.933 E27.46428
G1 X78.309 Y206.638 E27.50953
G1 X77.877 Y206.402 E27.54882
G1 X77.3 Y206.114 E27.6003
G1 X76.476 Y205.643 E27.67606
G1 X75.485 Y204.956 E27.77232
G1 X74.668 Y204.298 E27.85605
G1 X73.882 Y203.565 E27.94185
G1 X73.28 Y202.924 E28.01204
G1 X72.541 Y202.021 E28.10518
G1 X71.883 Y201.061 E28.19809
G1 X71.352 Y200.147 E28.28247
G1 X70.938 Y199.322 E28.35615
G1 X70.61 Y198.554 E28.42281
G1 X70.231 Y197.516 E28.51102
G1 X69.968 Y196.627 E28.58502
G1 X69.88 Y196.257 E28.61538
G1 X69.688 Y195.271 E28.69557
G1 X69.566 Y194.349 E28.76981
G1 X69.502 Y192.998 E28.87777
G1 X69.501 Y192.268 E28.93604
G1 X69.536 Y191.279 E29.01504
G1 X69.669 Y190.073 E29.11189
G1 X69.779 Y189.384 E29.16758
G1 X69.842 Y188.801 E29.21439
G1 X69.872 Y188.084 E29.27168
G1 X69.901 Y174.73 E30.33765
G1 X69.861 Y174.078 E30.3898
G1 X69.68 Y173.202 E30.4612
G1 X69.396 Y172.255 E30.54012
G1 X69.131 Y171.07 E30.63705
G1 X69.001 Y170.185 E30.70845
G1 X68.908 Y168.94 E30.80811
G1 X68.9 Y168.442 E30.84787
G1 X68.9 Y102.014 E36.15044
G1 X68.937 Y101.015 E36.23023
G1 X69.071 Y99.79 E36.3286
G1 X69.268 Y98.764 E36.412
G1 X69.55 Y97.707 E36.49932
G1 X69.902 Y96.696 E36.58478
G1 X70.277 Y95.812 E36.66143
G1 X70.806 Y94.795 E36.75294
G1 X71.272 Y94.029 E36.82451
G1 X71.94 Y93.084 E36.91689
G1 X72.677 Y92.205 E37.00845
G1 X73.299 Y91.559 E37.08004
G1 X74.094 Y90.838 E37.16571
G1 X74.934 Y90.183 E37.25073
G1 X75.825 Y89.583 E37.33648
G1 X76.892 Y88.984 E37.43416
G1 X77.711 Y88.599 E37.5064
G1 X78.704 Y88.215 E37.59138
G1 X79.71 Y87.905 E37.67541
G1 X80.78 Y87.659 E37.76305
G1 X81.804 Y87.503 E37.84574
G1 X83.06 Y87.408 E37.94628
G1 X83.461 Y87.401 E37.9783
G1 X87.505 Y87.4 E38.3011
G1 X88.169 Y87.359 E38.35421
G1 X88.849 Y87.23 E38.40946
G1 X89.482 Y87.023 E38.46262
G1 X90.131 Y86.717 E38.5199
G1 X90.693 Y86.356 E38.57321
G1 X91.213 Y85.922 E38.62728
G1 X91.691 Y85.407 E38.68337
G1 X92.071 Y84.877 E38.73543
G1 X92.391 Y84.287 E38.789
G1 X92.651 Y83.625 E38.84578
G1 X92.811 Y82.98 E38.89882
G1 X92.899 Y82.031 E38.9749
G1 X92.901 Y27.514 E43.32669
G1 X92.937 Y26.515 E43.40648
G1 X93.072 Y25.289 E43.50494
G1 X93.234 Y24.416 E43.57581
G1 X93.619 Y22.737 E43.71332
G0 F9000 X93.813 Y23.668
G1 F1125 X140.229 Y70.084 E48.95316
G1 F1500 E42.45316
G0 F9000 X139.298 Y71.416
G1 F1500 E48.95316
G1 F1125 X93.443 Y25.561 E54.12967
G1 F1500 E47.62967
G0 F9000 X93.299 Y27.68
G1 F1500 E54.12967
G1 F1125 X138.662 Y73.042 E59.25058
G1 F1500 E52.75058
G0 F9000 X138.578 Y75.221
G1 F1500 E59.25058
G1 F1125 X93.299 Y29.943 E64.362
G1 F1500 E57.862
G0 F9000 X93.299 Y32.205
G1 F1500 E64.362
G1 F1125 X141.028 Y79.934 E69.75007
G1 F1500 E63.25007
G0 F9000 X142.349 Y83.518
G1 F1500 E69.75007
G1 F1125 X93.299 Y34.468 E75.28725
G1 F1500 E68.78725
G0 F9000 X93.299 Y36.731
G1 F1500 E75.28725
G1 F1125 X142.689 Y86.12 E80.86277
G1 F1500 E74.36277
G0 F9000 X142.697 Y88.391
G1 F1500 E80.86277
G1 F1125 X93.299 Y38.994 E86.43918
G1 F1500 E79.93918
G0 F9000 X93.299 Y41.256
G1 F1500 E86.43918
G1 F1125 X142.607 Y90.564 E92.0055
G1 F1500 E85.5055
G0 F9000 X142.273 Y92.493
G1 F1500 E92.0055
G1 F1125 X93.299 Y43.518 E97.53416
G1 F1500 E91.03416
G0 F9000 X93.299 Y45.781
G1 F1500 E97.53416
G1 F1125 X141.736 Y94.218 E103.00215
G1 F1500 E96.50215
G0 F9000 X141.019 Y95.764
G1 F1500 E103.00215
G1 F1125 X93.299 Y48.044 E108.3892
G1 F1500 E101.8892
G0 F9000 X93.299 Y50.307
G1 F1500 E108.3892
G1 F1125 X140.161 Y97.169 E113.67938
G1 F1500 E107.17938
G0 F9000 X139.172 Y98.443
G1 F1500 E113.67938
G1 F1125 X93.299 Y52.569 E118.85798
G1 F1500 E112.35798
G0 F9000 X93.298 Y54.831
G1 F1500 E118.85798
G1 F1125 X138.049 Y99.582 E123.90986
G1 F1500 E117.40986
G0 F9000 X136.805 Y100.601
G1 F1500 E123.90986
G1 F1125 X93.298 Y57.094 E128.82131
G1 F1500 E122.32131
G0 F9000 X93.298 Y59.357
G1 F1500 E128.82131
G1 F1125 X135.415 Y101.474 E133.57584
G1 F1500 E127.07584
G0 F9000 X133.894 Y102.215
G1 F1500 E133.57584
G1 F1125 X93.298 Y61.62 E138.15861
G1 F1500 E131.65861
G0 F9000 X93.298 Y63.882
G1 F1500 E138.15861
G1 F1125 X132.204 Y102.789 E142.55071
G1 F1500 E136.05071
G0 F9000 X130.592 Y103.439
G1 F1500 E142.55071
G1 F1125 X93.298 Y66.145 E146.76078
G1 F1500 E140.26078
G0 F9000 X93.298 Y68.408
G1 F1500 E146.76078
G1 F1125 X129.327 Y104.437 E150.82804
G1 F1500 E144.32804
G0 F9000 X128.378 Y105.75
G1 F1500 E150.82804
G1 F1125 X93.297 Y70.67 E154.78823
G1 F1500 E148.28823
G0 F9000 X93.297 Y72.933
G1 F1500 E154.78823
G1 F1125 X127.794 Y107.43 E158.68255
G1 F1500 E152.18255
G0 F9000 X127.701 Y109.599
G1 F1500 E158.68255
G1 F1125 X93.297 Y75.195 E162.56637
G1 F1500 E156.06637
G0 F9000 X93.297 Y77.458
G1 F1500 E162.56637
G1 F1125 X127.741 Y111.902 E166.45471
G1 F1500 E159.95471
G0 F9000 X129.201 Y111.787
G0 X131.976 Y116.227
G0 X131.007 Y117.431
G1 F1500 E166.45471
G1 F1125 X93.297 Y79.721 E170.71174
G1 F1500 E164.21174
G0 F9000 X93.297 Y81.984
G1 F1500 E170.71174
G1 F1125 X133.028 Y121.714 E175.19686
G1 F1500 E168.69686
