;FLAVOR:Marlin
;TIME:14347
;Filament used: 9.84042m
;Layer height: 0.2
;MINX:34.345
;MINY:34.345
;MINZ:0.24
;MAXX:185.655
;MAXY:185.655
;MAXZ:33.49
;Generated with Cura_SteamEngine 5.4.0
M82 ;absolute extrusion mode
; Ender 3 Custom Start G-code
G92 E0 ; Reset Extruder
G28 ; Home all axes
M104 S175 ; Start heating up the nozzle most of the way
M190 S60 ; Start heating the bed, wait until target temperature reached
M109 S200 ; Finish heating the nozzle
G1 Z2.0 F3000 ; Move Z Axis up little to prevent scratching of Heat Bed
G1 X0.1 Y20 Z0.3 F5000.0 ; Move to start position
G1 X0.1 Y200.0 Z0.3 F1500.0 E15 ; Draw the first line
G1 X0.4 Y200.0 Z0.3 F5000.0 ; Move to side a little
G1 X0.4 Y20 Z0.3 F1500.0 E30 ; Draw the second line
G92 E0 ; Reset Extruder
G1 Z2.0 F3000 ; Move Z Axis up little to prevent scratching of Heat Bed
G1 X5 Y20 Z0.3 F5000.0 ; Move over to prevent blob squish
G92 E0
G92 E0
G1 F1500 E-6.5
;LAYER_COUNT:162
;LAYER:-6
M107
G0 F9000 X57.61 Y56.904 Z0.24
;TYPE:SUPPORT-INTERFACE
G1 F1500 E0
G1 F1125 X60.248 Y54.422 E0.28913
G1 X60.936 Y53.817 E0.36226
G1 X63.607 Y51.591 E0.63981
G1 X64.32 Y51.031 E0.71218
G1 X67.204 Y48.907 E0.99809
G1 X68.016 Y48.344 E1.07696
G1 X70.953 Y46.441 E1.35632
G1 X71.828 Y45.915 E1.43781
G1 X74.937 Y44.161 E1.72276
G1 X75.78 Y43.721 E1.79866
G1 X78.971 Y42.165 E2.08205
G1 X79.968 Y41.723 E2.16911
G1 X83.206 Y40.384 E2.44881
G1 X84.046 Y40.066 E2.5205
G1 X87.379 Y38.919 E2.80187
G1 X88.061 Y38.704 E2.85895
G1 X91.773 Y37.666 E3.16663
G1 X92.592 Y37.464 E3.23396
G1 X96.181 Y36.698 E3.5269
G1 X96.953 Y36.556 E3.58956
G1 X100.807 Y35.975 E3.90068
G1 X101.508 Y35.892 E3.95703
G1 X105.259 Y35.558 E4.25764
G1 X105.988 Y35.515 E4.31593
G1 X109.625 Y35.408 E4.60638
G1 X110.495 Y35.409 E4.67582
G1 X114.012 Y35.515 E4.95669
G1 X114.741 Y35.558 E5.01499
G1 X118.579 Y35.902 E5.32258
G1 X119.194 Y35.971 E5.37198
G1 X123.046 Y36.556 E5.68299
G1 X123.934 Y36.721 E5.75509
G1 X127.408 Y37.464 E6.03867
G1 X128.227 Y37.666 E6.106
G1 X131.94 Y38.708 E6.41384
G1 X132.622 Y38.92 E6.47085
G1 X135.954 Y40.066 E6.75212
G1 X136.794 Y40.385 E6.82384
G1 X140.031 Y41.717 E7.10325
G1 X141.02 Y42.161 E7.18979
G1 X144.218 Y43.72 E7.47379
G1 X145.055 Y44.157 E7.54916
G1 X148.166 Y45.909 E7.83416
G1 X149.046 Y46.445 E7.91641
G1 X152.051 Y48.389 E8.2021
G1 X152.796 Y48.907 E8.27453
G1 X155.674 Y51.026 E8.55982
G1 X156.331 Y51.541 E8.62646
G1 X159.067 Y53.814 E8.91039
G1 X159.818 Y54.483 E8.99068
G1 X162.389 Y56.903 E9.27252
G1 X163.096 Y57.61 E9.35233
G1 X165.578 Y60.248 E9.64146
G1 X166.183 Y60.936 E9.71459
G1 X168.409 Y63.607 E9.99214
G1 X168.957 Y64.303 E10.06285
G1 X171.092 Y67.203 E10.35031
G1 X171.656 Y68.017 E10.42936
G1 X173.559 Y70.953 E10.70865
G1 X174.085 Y71.828 E10.79015
G1 X175.839 Y74.937 E11.07509
G1 X176.291 Y75.805 E11.15321
G1 X177.835 Y78.971 E11.43438
G1 X178.277 Y79.968 E11.52144
G1 X179.615 Y83.206 E11.80111
G1 X179.902 Y83.964 E11.86581
G1 X181.081 Y87.379 E12.1542
G1 X181.293 Y88.05 E12.21037
G1 X182.337 Y91.788 E12.52017
G1 X182.534 Y92.582 E12.58547
G1 X183.302 Y96.177 E12.87892
G1 X183.45 Y96.987 E12.94464
G1 X183.985 Y100.487 E13.22727
G1 X184.099 Y101.416 E13.30199
G1 X184.442 Y105.259 E13.60997
G1 X184.485 Y105.982 E13.66779
G1 X184.591 Y109.47 E13.94634
G1 X184.592 Y110.375 E14.01858
G1 X184.485 Y114.012 E14.30903
G1 X184.442 Y114.741 E14.36732
G1 X184.098 Y118.579 E14.67492
G1 X184.032 Y119.174 E14.7227
G1 X183.447 Y123.031 E15.03411
G1 X183.281 Y123.928 E15.10693
G1 X182.527 Y127.44 E15.39366
G1 X182.3 Y128.353 E15.46876
G1 X181.292 Y131.94 E15.76618
G1 X181.084 Y132.61 E15.82218
G1 X179.903 Y136.034 E16.1113
G1 X179.563 Y136.928 E16.18765
G1 X178.233 Y140.144 E16.46545
G1 X177.833 Y141.031 E16.54312
G1 X176.291 Y144.195 E16.82408
G1 X175.834 Y145.071 E16.90295
G1 X174.091 Y148.167 E17.18656
G1 X173.613 Y148.955 E17.26013
G1 X171.66 Y151.978 E17.54742
G1 X171.093 Y152.796 E17.62687
G1 X168.974 Y155.675 E17.91222
G1 X168.461 Y156.329 E17.97857
G1 X166.164 Y159.087 E18.26508
G1 X165.517 Y159.819 E18.34306
G1 X163.097 Y162.389 E18.62485
G1 X162.406 Y163.082 E18.70296
G1 X159.823 Y165.514 E18.98616
G1 X159.064 Y166.183 E19.06692
G1 X156.393 Y168.409 E19.34447
G1 X155.68 Y168.969 E19.41684
G1 X152.684 Y171.172 E19.71369
G1 X151.984 Y171.656 E19.78162
G1 X148.962 Y173.611 E20.06893
G1 X148.163 Y174.089 E20.14325
G1 X145.067 Y175.836 E20.42702
G1 X144.22 Y176.279 E20.50332
G1 X141.024 Y177.836 E20.7871
G1 X140.144 Y178.233 E20.86416
G1 X136.8 Y179.614 E21.15296
G1 X135.954 Y179.934 E21.22516
G1 X132.621 Y181.081 E21.50653
G1 X131.939 Y181.296 E21.56361
G1 X128.224 Y182.335 E21.87154
G1 X127.44 Y182.529 E21.93601
G1 X123.819 Y183.302 E22.23157
G1 X123.047 Y183.444 E22.29422
G1 X119.193 Y184.025 E22.60534
G1 X118.492 Y184.108 E22.66169
G1 X114.741 Y184.442 E22.9623
G1 X114.012 Y184.485 E23.02059
G1 X110.375 Y184.592 E23.31104
G1 X109.505 Y184.591 E23.38048
G1 X105.988 Y184.485 E23.66135
G1 X105.259 Y184.442 E23.71965
G1 X101.421 Y184.098 E24.02724
G1 X100.806 Y184.029 E24.07664
G1 X96.954 Y183.444 E24.38765
G1 X96.066 Y183.279 E24.45975
G1 X92.557 Y182.526 E24.74623
G1 X91.776 Y182.335 E24.81041
G1 X88.06 Y181.292 E25.1185
G1 X87.378 Y181.08 E25.17551
G1 X84.046 Y179.934 E25.45677
G1 X83.2 Y179.614 E25.52897
G1 X79.856 Y178.233 E25.81777
G1 X78.961 Y177.829 E25.89616
G1 X75.78 Y176.279 E26.17862
G1 X74.932 Y175.836 E26.25499
G1 X71.833 Y174.091 E26.53889
G1 X71.023 Y173.599 E26.61454
G1 X67.95 Y171.611 E26.90669
G1 X67.203 Y171.091 E26.97935
G1 X64.32 Y168.969 E27.2651
G1 X63.607 Y168.408 E27.33752
G1 X60.933 Y166.186 E27.61504
G1 X60.178 Y165.514 E27.69573
G1 X57.594 Y163.082 E27.97898
G1 X56.903 Y162.389 E28.0571
G1 X54.42 Y159.75 E28.34634
G1 X53.836 Y159.087 E28.41687
G1 X51.539 Y156.329 E28.70338
G1 X51.026 Y155.675 E28.76973
G1 X48.907 Y152.796 E29.05508
G1 X48.34 Y151.978 E29.13453
G1 X46.386 Y148.954 E29.42193
G1 X45.911 Y148.163 E29.49558
G1 X44.155 Y145.051 E29.78081
G1 X43.709 Y144.195 E29.85786
G1 X42.167 Y141.031 E30.13882
G1 X41.767 Y140.144 E30.21649
G1 X40.437 Y136.928 E30.49429
G1 X40.097 Y136.034 E30.57064
G1 X38.915 Y132.61 E30.85979
G1 X38.631 Y131.692 E30.93649
G1 X37.7 Y128.353 E31.21319
G1 X37.47 Y127.437 E31.28858
G1 X36.719 Y123.928 E31.57503
G1 X36.553 Y123.031 E31.64785
G1 X35.973 Y119.173 E31.95927
G1 X35.892 Y118.492 E32.01401
G1 X35.558 Y114.741 E32.31462
G1 X35.515 Y114.012 E32.37291
G1 X35.408 Y110.381 E32.66288
G1 X35.409 Y109.476 E32.73512
G1 X35.52 Y105.873 E33.02287
G1 X35.558 Y105.26 E33.07189
G1 X35.902 Y101.421 E33.37956
G1 X35.968 Y100.826 E33.42735
G1 X36.548 Y96.997 E33.73649
G1 X36.719 Y96.072 E33.81157
G1 X37.464 Y92.593 E34.09558
G1 X37.7 Y91.647 E34.17341
G1 X38.711 Y88.049 E34.47174
G1 X38.916 Y87.388 E34.52698
G1 X40.096 Y83.97 E34.81562
G1 X40.437 Y83.072 E34.8923
G1 X41.717 Y79.969 E35.16024
G1 X42.161 Y78.98 E35.24678
G1 X43.709 Y75.805 E35.52874
G1 X44.157 Y74.945 E35.60614
G1 X45.909 Y71.834 E35.89115
G1 X46.445 Y70.954 E35.9734
G1 X48.389 Y67.949 E36.25909
G1 X48.907 Y67.204 E36.33152
G1 X51.039 Y64.309 E36.61852
G1 X51.539 Y63.671 E36.68322
G1 X53.814 Y60.933 E36.96738
G1 X54.483 Y60.182 E37.04766
G1 X56.903 Y57.611 E37.32951
G1 X57.61 Y56.904 E37.40932
G0 F9000 X57.539 Y57.539
G1 F1125 X162.46 Y162.46 E49.25371
G1 F1500 E42.75371
G0 F9000 X161.305 Y163.567
G1 F1500 E49.25371
G1 F1125 X56.431 Y58.694 E61.09273
G1 F1500 E54.59273
G0 F9000 X55.333 Y59.859
G1 F1500 E61.09273
G1 F1125 X160.139 Y164.665 E72.92414
G1 F1500 E66.42414
G0 F9000 X158.955 Y165.743
G1 F1500 E72.92414
G1 F1125 X54.252 Y61.04 E84.74392
G1 F1500 E78.24392
G0 F9000 X53.22 Y62.271
G1 F1500 E84.74392
G1 F1125 X157.725 Y166.776 E96.54135
G1 F1500 E90.04135
G0 F9000 X156.491 Y167.804
G1 F1500 E96.54135
G1 F1125 X52.193 Y63.507 E108.31535
G1 F1500 E101.81535
G0 F9000 X51.195 Y64.771
G1 F1500 E108.31535
G1 F1125 X155.227 Y168.804 E120.05944
G1 F1500 E113.55944
G0 F9000 X153.923 Y169.762
G1 F1500 E120.05944
G1 F1125 X50.234 Y66.074 E131.76469
G1 F1500 E125.26469
G0 F9000 X49.275 Y67.377
G1 F1500 E131.76469
G1 F1125 X152.619 Y170.721 E143.43106
G1 F1500 E136.93106
G0 F9000 X151.272 Y171.637
G1 F1500 E143.43106
G1 F1125 X48.361 Y68.725 E155.0486
G1 F1500 E148.5486
G0 F9000 X47.472 Y70.099
G1 F1500 E155.0486
G1 F1125 X149.898 Y172.526 E166.61139
G1 F1500 E160.11139
G0 F9000 X148.518 Y173.408
G1 F1500 E166.61139
G1 F1125 X46.591 Y71.481 E178.11779
G1 F1500 E171.61779
G0 F9000 X45.759 Y72.912
G1 F1500 E178.11779
G1 F1125 X147.083 Y174.236 E189.55611
G1 F1500 E183.05611
G0 F9000 X145.637 Y175.053
G1 F1500 E189.55611
G1 F1125 X44.944 Y74.36 E200.92321
G1 F1500 E194.42321
G0 F9000 X44.147 Y75.825
G1 F1500 E200.92321
G1 F1125 X144.172 Y175.851 E212.21495
G1 F1500 E205.71495
G0 F9000 X142.654 Y176.595
G1 F1500 E212.21495
G1 F1125 X43.402 Y77.343 E223.41938
G1 F1500 E216.91938
G0 F9000 X42.66 Y78.864
G1 F1500 E223.41938
G1 F1125 X141.132 Y177.336 E234.53575
G1 F1500 E228.03575
G0 F9000 X139.569 Y178.036
G1 F1500 E234.53575
G1 F1125 X41.959 Y80.426 E245.55481
G1 F1500 E239.05481
G0 F9000 X41.299 Y82.028
G1 F1500 E245.55481
G1 F1125 X137.967 Y178.697 E256.46758
G1 F1500 E249.96758
G0 F9000 X136.359 Y179.351
G1 F1500 E256.46758
G1 F1125 X40.648 Y83.64 E267.27227
G1 F1500 E260.77227
G0 F9000 X40.055 Y85.31
G1 F1500 E267.27227
G1 F1125 X134.689 Y179.944 E277.95537
G1 F1500 E271.45537
G0 F9000 X133.006 Y180.524
G1 F1500 E277.95537
G1 F1125 X39.474 Y86.992 E288.51407
G1 F1500 E282.01407
G0 F9000 X38.938 Y88.718
G1 F1500 E288.51407
G1 F1125 X131.282 Y181.063 E298.93872
G1 F1500 E292.43872
G0 F9000 X129.514 Y181.557
G1 F1500 E298.93872
G1 F1125 X38.441 Y90.484 E309.21982
G1 F1500 E302.71982
G0 F9000 X37.958 Y92.263
G1 F1500 E309.21982
G1 F1125 X127.736 Y182.041 E319.35474
G1 F1500 E312.85474
G0 F9000 X125.882 Y182.451
G1 F1500 E319.35474
G1 F1125 X37.546 Y94.115 E329.32687
G1 F1500 E322.82687
G0 F9000 X37.147 Y95.978
G1 F1500 E329.32687
G1 F1125 X124.018 Y182.85 E339.13368
G1 F1500 E332.63368
G0 F9000 X122.088 Y183.182
G1 F1500 E339.13368
G1 F1125 X36.814 Y97.908 E348.76014
G1 F1500 E342.26014
G0 F9000 X36.516 Y99.873
G1 F1500 E348.76014
G1 F1125 X120.122 Y183.479 E358.19831
G1 F1500 E351.69831
G0 F9000 X118.119 Y183.738
G1 F1500 E358.19831
G1 F1125 X36.261 Y101.881 E367.43909
G1 F1500 E360.93909
G0 F9000 X36.075 Y103.958
G1 F1500 E367.43909
G1 F1125 X116.041 Y183.923 E376.46629
G1 F1500 E369.96629
G0 F9000 X113.94 Y184.085
G1 F1500 E376.46629
G1 F1125 X35.914 Y106.059 E385.27454
G1 F1500 E378.77454
G0 F9000 X35.846 Y108.254
G1 F1500 E385.27454
G1 F1125 X111.742 Y184.15 E393.84234
G1 F1500 E387.34234
G0 F9000 X109.519 Y184.19
G1 F1500 E393.84234
G1 F1125 X35.81 Y110.481 E402.16324
G1 F1500 E395.66324
G0 F9000 X35.879 Y112.812
G1 F1500 E402.16324
G1 F1125 X107.186 Y184.119 E410.21299
G1 F1500 E403.71299
G0 F9000 X104.802 Y183.998
G1 F1500 E410.21299
G1 F1125 X36 Y115.196 E417.97996
G1 F1500 E411.47996
G0 F9000 X36.221 Y117.68
G1 F1500 E417.97996
G1 F1125 X102.316 Y183.775 E425.44133
G1 F1500 E418.94133
G0 F9000 X99.74 Y183.461
G1 F1500 E425.44133
G1 F1125 X36.541 Y120.262 E432.57578
G1 F1500 E426.07578
G0 F9000 X36.941 Y122.925
G1 F1500 E432.57578
G1 F1125 X97.073 Y183.057 E439.364
G1 F1500 E432.864
G0 F9000 X94.226 Y182.473
G1 F1500 E439.364
G1 F1125 X37.521 Y125.768 E445.76535
G1 F1500 E439.26535
G0 F9000 X38.22 Y128.73
G1 F1500 E445.76535
G1 F1125 X91.266 Y181.775 E451.75359
G1 F1500 E445.25359
G0 F9000 X88.116 Y180.889
G1 F1500 E451.75359
G1 F1125 X39.108 Y131.881 E457.28603
G1 F1500 E450.78603
G0 F9000 X40.268 Y135.303
G1 F1500 E457.28603
G1 F1125 X84.7 Y179.735 E462.3019
G1 F1500 E455.8019
G0 F9000 X80.956 Y178.254
G1 F1500 E462.3019
G1 F1125 X41.744 Y139.041 E466.72855
G1 F1500 E460.22855
G0 F9000 X40.393 Y139.601
G0 X40.845 Y140.655
G0 X42.38 Y143.899
G0 X43.697 Y143.257
G1 F1500 E466.72855
G1 F1125 X76.74 Y176.301 E470.45878
G1 F1500 E463.95878
G0 F9000 X75.303 Y177.231
G0 X71.311 Y175.015
G0 X71.746 Y173.569
G1 F1500 E470.45878
G1 F1125 X46.435 Y148.259 E473.31605
G1 F1500 E466.81605
G0 F9000 X45.471 Y149.499
G0 X47.554 Y152.675
G0 X50.131 Y156.256
G0 X51.34 Y155.427
G1 F1500 E473.31605
G1 F1125 X64.572 Y168.658 E474.80974
G1 F1500 E468.30974
G0 F9000 X63.744 Y169.869
G0 X67.428 Y172.545
G0 X71.311 Y175.015
G0 X75.303 Y177.231
G0 X79.018 Y179.029
G0 X83.622 Y180.911
G0 X87.987 Y182.384
G0 X92.273 Y183.555
G0 X96.847 Y184.506
G0 X101.402 Y185.167
G0 X105.939 Y185.549
G0 X110.519 Y185.655
G0 X115.091 Y185.486
G0 X119.651 Y185.04
G0 X124.145 Y184.324
G0 X128.633 Y183.327
G0 X132.981 Y182.082
G0 X137.329 Y180.549
G0 X141.492 Y178.794
G0 X145.601 Y176.757
G0 X149.561 Y174.491
G0 X153.42 Y171.956
G0 X157.069 Y169.234
G0 X160.544 Y166.298
G0 X163.233 Y163.731
G0 X164.636 Y162.309
G0 X163.567 Y161.305
G1 F1500 E474.80974
G1 F1125 X58.694 Y56.432 E486.64871
G1 F1500 E480.14871
G0 F9000 X59.86 Y55.335
G1 F1500 E486.64871
G1 F1125 X164.665 Y160.139 E498.47995
G1 F1500 E491.97995
G0 F9000 X165.744 Y158.956
G1 F1500 E498.47995
G1 F1125 X61.043 Y54.255 E510.2995
G1 F1500 E503.7995
G0 F9000 X62.274 Y53.223
G1 F1500 E510.2995
G1 F1125 X166.776 Y157.725 E522.09659
G1 F1500 E515.59659
G0 F9000 X167.804 Y156.491
G1 F1500 E522.09659
G1 F1125 X63.508 Y52.194 E533.87048
G1 F1500 E527.37048
G0 F9000 X64.771 Y51.195
G1 F1500 E533.87048
G1 F1125 X168.804 Y155.228 E545.61462
G1 F1500 E539.11462
G0 F9000 X169.764 Y153.925
G1 F1500 E545.61462
G1 F1125 X66.074 Y50.235 E557.32005
G1 F1500 E550.82005
G0 F9000 X67.378 Y49.276
G1 F1500 E557.32005
G1 F1125 X170.723 Y152.621 E568.98652
G1 F1500 E562.48652
G0 F9000 X171.638 Y151.274
G1 F1500 E568.98652
G1 F1125 X68.725 Y48.361 E580.60423
G1 F1500 E574.10423
G0 F9000 X70.098 Y47.47
G1 F1500 E580.60423
G1 F1125 X172.526 Y149.899 E592.16725
G1 F1500 E585.66725
G0 F9000 X173.409 Y148.519
G1 F1500 E592.16725
G1 F1125 X71.48 Y46.59 E603.67387
G1 F1500 E597.17387
G0 F9000 X72.914 Y45.761
G1 F1500 E603.67387
G1 F1125 X174.24 Y147.087 E615.11243
G1 F1500 E608.61243
G0 F9000 X175.054 Y145.639
G1 F1500 E615.11243
G1 F1125 X74.36 Y44.945 E626.47964
G1 F1500 E619.97964
G0 F9000 X75.826 Y44.148
G1 F1500 E626.47964
G1 F1125 X175.851 Y144.173 E637.77132
G1 F1500 E631.27132
G0 F9000 X176.596 Y142.655
G1 F1500 E637.77132
G1 F1125 X77.344 Y43.403 E648.97575
G1 F1500 E642.47575
G0 F9000 X78.865 Y42.661
G1 F1500 E648.97575
G1 F1125 X177.337 Y141.133 E660.09212
G1 F1500 E653.59212
G0 F9000 X178.036 Y139.57
G1 F1500 E660.09212
G1 F1125 X80.431 Y41.964 E671.11067
G1 F1500 E664.61067
G0 F9000 X82.032 Y41.302
G1 F1500 E671.11067
G1 F1125 X178.699 Y137.969 E682.02328
G1 F1500 E675.52328
G0 F9000 X179.351 Y136.359
G1 F1500 E682.02328
G1 F1125 X83.64 Y40.648 E692.82796
G1 F1500 E686.32796
G0 F9000 X85.309 Y40.054
G1 F1500 E692.82796
G1 F1125 X179.943 Y134.688 E703.51106
G1 F1500 E697.01106
G0 F9000 X180.524 Y133.006
G1 F1500 E703.51106
G1 F1125 X86.992 Y39.474 E714.06976
G1 F1500 E707.56976
G0 F9000 X88.715 Y38.935
G1 F1500 E714.06976
G1 F1125 X181.061 Y131.281 E724.49458
G1 F1500 E717.99458
G0 F9000 X181.558 Y129.515
G1 F1500 E724.49458
G1 F1125 X90.484 Y38.441 E734.7758
G1 F1500 E728.2758
G0 F9000 X92.263 Y37.957
G1 F1500 E734.7758
G1 F1125 X182.041 Y127.735 E744.91072
G1 F1500 E738.41072
G0 F9000 X182.451 Y125.883
G1 F1500 E744.91072
G1 F1125 X94.115 Y37.547 E754.88285
G1 F1500 E748.38285
G0 F9000 X95.98 Y37.149
G1 F1500 E754.88285
G1 F1125 X182.852 Y124.02 E764.68965
G1 F1500 E758.18965
G0 F9000 X183.183 Y122.089
G1 F1500 E764.68965
G1 F1125 X97.91 Y36.816 E774.31601
G1 F1500 E767.81601
G0 F9000 X99.877 Y36.52
G1 F1500 E774.31601
G1 F1125 X183.482 Y120.125 E783.75406
G1 F1500 E777.25406
G0 F9000 X183.737 Y118.117
G1 F1500 E783.75406
G1 F1125 X101.879 Y36.26 E792.99484
G1 F1500 E786.49484
G0 F9000 X103.958 Y36.075
G1 F1500 E792.99484
G1 F1125 X183.923 Y116.041 E802.02204
G1 F1500 E795.52204
G0 F9000 X184.086 Y113.941
G1 F1500 E802.02204
G1 F1125 X106.058 Y35.913 E810.83051
G1 F1500 E804.33051
G0 F9000 X108.256 Y35.848
G1 F1500 E810.83051
G1 F1125 X184.151 Y111.743 E819.3982
G1 F1500 E812.8982
G0 F9000 X184.19 Y109.52
G1 F1500 E819.3982
